ncols        199
nrows        213
xllcorner    85.124861111111
yllcorner    27.895972222222
cellsize     0.000277777778
1038 1056 1074 1087 1093 1098 1099 1101 1105 1107 1107 1105 1108 1114 1118 1119 1117 1112 1106 1099 1089 1083 1081 1078 1074 1067 1056 1046 1045 1049 1050 1043 1041 1046 1056 1072 1091 1101 1101 1101 1107 1120 1131 1151 1172 1184 1190 1192 1192 1196 1200 1202 1202 1204 1203 1193 1191 1199 1199 1191 1183 1175 1163 1148 1135 1126 1115 1112 1108 1091 1080 1069 1058 1050 1046 1045 1042 1036 1033 1030 1024 1015 1006 999 991 965 947 920 909 903 895 886 876 862 858 857 859 860 861 860 858 859 858 853 847 840 832 821 803 787 771 753 735 715 691 686 680 675 669 664 660 656 653 651 649 648 647 646 646 640 626 601 576 564 561 562 566 567 569 570 575 579 584 590 603 621 639 654 670 682 689 696 702 704 710 717 720 714 705 703 704 709 715 718 722 730 745 769 786 796 804 813 821 830 841 850 857 866 876 887 905 924 951 974 998 1018 1038 1050 1069 1083 1087 1087 1085 1084 1089 1093 1095 1096 1102 
1032 1046 1060 1071 1080 1087 1092 1098 1102 1103 1098 1099 1101 1101 1101 1103 1105 1104 1095 1088 1081 1072 1066 1060 1056 1053 1047 1041 1037 1035 1031 1027 1031 1040 1048 1056 1066 1073 1078 1089 1103 1120 1134 1155 1184 1204 1214 1218 1221 1227 1229 1225 1223 1223 1219 1208 1203 1198 1190 1180 1171 1161 1150 1139 1126 1116 1104 1096 1095 1085 1071 1055 1047 1040 1038 1036 1032 1029 1029 1026 1016 1010 1003 994 988 972 952 924 907 900 893 884 875 863 854 853 854 857 858 855 852 853 854 848 841 836 829 816 792 774 760 745 731 706 684 679 673 668 663 658 655 653 651 649 647 647 647 646 644 637 624 601 574 563 561 565 567 568 570 573 578 584 587 596 615 628 641 654 670 683 692 703 714 717 719 723 729 734 730 723 718 720 722 723 726 734 746 760 774 787 798 808 816 823 832 838 846 859 873 891 908 922 939 959 986 1012 1038 1055 1069 1072 1071 1071 1073 1077 1085 1090 1090 1089 1094 
1031 1044 1057 1069 1077 1083 1087 1092 1096 1096 1090 1090 1091 1089 1090 1092 1092 1091 1085 1081 1075 1067 1059 1047 1044 1044 1036 1026 1025 1024 1017 1015 1022 1031 1034 1037 1048 1057 1071 1084 1101 1118 1136 1163 1194 1220 1237 1246 1246 1249 1250 1241 1233 1224 1216 1209 1198 1185 1179 1171 1158 1145 1136 1126 1117 1108 1098 1084 1076 1072 1058 1039 1034 1029 1026 1026 1025 1025 1023 1019 1010 1004 997 988 980 971 960 939 914 901 891 880 871 864 847 842 842 843 842 844 843 844 844 836 825 819 816 807 787 766 750 736 721 693 676 669 665 664 659 655 652 651 649 647 646 645 645 644 642 635 625 605 577 561 561 567 568 569 571 576 579 582 590 608 624 638 653 659 672 690 704 715 724 729 730 733 739 741 741 739 735 731 729 731 732 739 751 761 773 786 798 808 816 822 828 835 845 862 889 912 925 938 948 957 978 1000 1029 1045 1056 1061 1060 1065 1070 1075 1080 1083 1083 1083 1085 
1031 1043 1055 1068 1072 1071 1075 1080 1085 1088 1078 1080 1082 1081 1082 1082 1082 1079 1075 1071 1068 1062 1054 1039 1037 1035 1032 1018 1014 1013 1006 1003 1007 1013 1018 1026 1037 1049 1066 1084 1099 1119 1144 1175 1206 1234 1254 1262 1262 1261 1255 1238 1222 1211 1203 1196 1185 1169 1162 1152 1143 1134 1122 1110 1105 1101 1085 1067 1054 1048 1037 1028 1025 1023 1021 1020 1021 1021 1017 1011 1005 998 988 982 971 956 950 943 923 903 889 876 865 857 840 835 834 830 831 829 831 835 834 824 814 805 799 793 780 758 740 724 709 682 668 663 660 655 654 652 650 649 647 646 644 643 643 644 643 636 625 609 581 560 562 566 568 570 574 578 580 583 595 615 635 652 665 677 689 699 712 724 734 740 743 745 750 752 752 752 753 749 741 739 739 742 751 761 772 787 800 811 815 819 824 832 849 871 896 920 934 947 959 970 989 1004 1026 1044 1059 1059 1055 1058 1064 1069 1071 1073 1075 1075 1074 
1039 1050 1058 1063 1061 1060 1065 1071 1077 1077 1070 1071 1071 1070 1071 1073 1072 1069 1065 1060 1056 1052 1044 1033 1030 1028 1021 1010 1001 999 991 990 997 1005 1013 1024 1036 1051 1069 1085 1102 1129 1159 1194 1223 1248 1264 1268 1267 1262 1253 1239 1217 1200 1189 1184 1178 1164 1148 1137 1127 1120 1113 1099 1091 1083 1065 1054 1044 1034 1027 1021 1018 1018 1018 1017 1016 1015 1013 1005 994 984 979 973 960 945 937 926 916 897 882 875 868 857 841 830 825 826 828 823 821 825 824 818 808 791 779 773 766 749 733 709 695 677 665 661 658 652 650 649 649 647 645 644 643 642 643 644 642 637 628 613 584 564 560 562 566 570 576 579 581 586 603 626 648 664 678 686 695 704 715 727 738 745 750 755 765 773 776 779 782 779 765 752 750 751 759 767 777 790 798 803 806 810 817 828 843 865 895 917 928 942 964 981 997 1006 1026 1042 1057 1058 1052 1051 1055 1057 1058 1063 1067 1067 1064 
1017 1038 1054 1055 1052 1052 1054 1057 1062 1067 1064 1057 1053 1053 1054 1054 1052 1049 1048 1046 1045 1041 1031 1022 1021 1017 1011 998 985 980 976 984 994 1003 1013 1025 1038 1054 1076 1098 1122 1154 1186 1218 1238 1254 1264 1264 1258 1247 1239 1232 1213 1196 1180 1175 1171 1165 1151 1130 1116 1108 1102 1095 1088 1079 1065 1054 1041 1027 1020 1014 1011 1008 1010 1013 1013 1014 1010 999 984 977 971 967 953 942 927 917 909 896 887 885 874 854 838 825 817 817 819 815 812 816 819 813 799 780 764 758 753 742 724 700 688 675 662 658 653 649 647 647 647 646 644 643 642 641 641 643 641 638 626 619 594 567 560 560 565 572 578 580 582 590 606 629 647 663 681 689 696 710 723 733 743 750 757 764 773 782 787 792 796 797 786 767 760 758 766 776 783 790 795 799 803 809 817 827 842 860 883 904 924 949 968 982 991 1007 1024 1038 1047 1047 1039 1037 1040 1044 1048 1054 1056 1055 1055 
991 1017 1038 1043 1040 1038 1040 1045 1049 1055 1055 1045 1043 1040 1041 1041 1038 1035 1031 1030 1029 1025 1016 1010 1009 1004 996 987 978 972 972 980 991 1002 1016 1029 1045 1069 1098 1125 1152 1183 1213 1234 1245 1252 1257 1255 1246 1235 1224 1207 1197 1187 1175 1169 1163 1160 1151 1130 1108 1099 1093 1087 1085 1082 1072 1058 1043 1023 1014 1005 1000 1003 1005 1010 1007 1004 998 990 978 968 959 950 945 942 934 926 919 910 902 889 871 850 833 818 809 808 808 808 805 808 809 803 790 774 754 741 734 726 712 690 675 664 657 653 649 646 645 645 645 646 643 642 642 642 642 641 638 639 631 619 593 568 559 559 565 572 579 582 586 592 606 632 649 662 674 689 699 709 720 729 739 746 751 759 771 781 785 790 796 799 791 775 767 766 772 781 791 797 801 804 807 812 820 832 847 870 884 900 927 953 969 979 995 1010 1025 1037 1040 1030 1021 1023 1027 1031 1035 1038 1039 1040 1042 
979 1004 1022 1027 1025 1025 1029 1035 1038 1045 1043 1034 1033 1033 1033 1032 1027 1022 1018 1016 1014 1011 1006 1000 993 988 980 973 969 968 974 987 997 1009 1024 1039 1061 1089 1119 1145 1171 1200 1225 1240 1246 1248 1245 1242 1233 1216 1202 1189 1178 1171 1168 1160 1145 1140 1133 1123 1110 1100 1088 1076 1075 1072 1069 1062 1046 1025 1009 1005 999 996 996 996 997 993 988 981 970 955 947 944 943 942 939 933 925 916 900 885 871 852 831 812 800 796 800 802 804 804 801 791 780 769 749 727 713 706 692 675 658 653 648 645 644 644 643 643 644 644 642 641 641 641 643 641 636 637 635 623 597 571 560 558 567 573 578 582 588 592 601 621 639 650 663 685 702 708 711 717 724 731 738 751 761 775 782 785 792 797 791 782 781 785 789 791 797 801 804 809 813 819 826 839 859 878 896 918 937 958 975 985 1001 1018 1035 1038 1029 1018 1014 1016 1015 1017 1019 1022 1024 1027 1030 
975 995 1005 1008 1009 1011 1018 1024 1029 1039 1039 1030 1025 1023 1022 1018 1015 1012 1011 1008 1001 995 990 983 973 967 961 959 962 971 986 999 1009 1022 1038 1054 1077 1103 1130 1158 1185 1211 1230 1244 1247 1240 1227 1220 1214 1204 1185 1175 1162 1156 1156 1149 1136 1123 1114 1110 1102 1094 1080 1070 1066 1064 1062 1060 1053 1036 1015 1008 1002 996 994 988 981 977 974 968 957 947 944 943 943 940 935 929 919 904 890 877 863 847 825 808 793 787 790 792 793 788 782 773 765 754 741 724 707 690 674 662 652 647 644 643 642 641 641 641 642 643 641 641 641 641 642 639 636 636 639 628 607 578 561 558 564 574 578 579 586 592 600 611 622 642 656 671 693 701 702 707 713 719 728 745 760 767 772 780 790 801 798 795 802 812 815 814 811 810 813 816 822 829 836 844 864 887 913 943 963 971 985 998 1016 1031 1031 1023 1013 1003 1001 1002 1002 1002 1008 1010 1014 1018 1021 
970 986 992 993 993 998 1006 1014 1022 1031 1031 1024 1014 1011 1008 1007 1005 1003 998 993 986 979 975 969 961 952 952 959 973 992 1014 1025 1034 1044 1054 1070 1092 1114 1138 1164 1190 1215 1231 1239 1240 1238 1227 1210 1197 1189 1177 1161 1150 1148 1143 1137 1129 1115 1101 1092 1086 1084 1077 1066 1056 1054 1054 1055 1050 1043 1027 1016 1007 999 992 981 973 961 955 958 952 945 942 941 943 936 931 918 905 892 878 866 854 840 821 807 793 781 778 779 779 773 766 757 748 736 724 712 697 680 672 660 652 646 643 641 640 640 640 640 641 642 640 640 640 641 640 638 635 635 638 632 610 578 560 558 564 573 579 581 584 593 609 626 632 639 651 661 675 689 694 694 700 712 728 745 755 759 764 772 783 801 810 822 831 835 840 842 843 842 840 838 842 845 848 854 872 898 929 959 974 991 1004 1018 1031 1037 1022 1008 998 994 994 991 991 997 1002 1005 1008 1010 1013 
958 970 974 974 976 983 993 1002 1013 1022 1021 1013 1003 1001 1001 998 995 988 980 973 968 965 960 955 955 959 970 983 1001 1022 1048 1068 1078 1080 1083 1093 1113 1132 1149 1168 1191 1218 1232 1231 1226 1222 1217 1205 1186 1177 1167 1150 1143 1138 1129 1121 1115 1107 1088 1077 1071 1069 1071 1064 1052 1043 1039 1038 1037 1036 1025 1017 1011 1003 991 975 965 953 945 946 946 944 941 936 935 931 922 906 892 881 864 849 838 826 813 802 792 781 770 767 765 763 755 741 728 716 705 696 685 668 662 657 650 645 642 640 639 639 639 639 641 641 640 639 640 640 639 636 635 635 638 631 608 574 561 558 564 572 577 580 582 592 613 638 648 648 648 652 662 673 683 690 701 714 730 749 764 766 769 772 787 807 823 842 857 865 871 876 878 876 871 869 871 872 866 869 891 916 944 973 994 1014 1026 1034 1040 1029 1011 995 986 986 985 987 989 996 1000 1003 1006 1008 1010 
935 952 956 954 959 971 982 994 1007 1014 1012 1001 993 989 990 988 984 977 966 959 955 952 950 952 964 983 1004 1019 1034 1052 1071 1089 1108 1118 1121 1123 1137 1149 1160 1173 1198 1222 1232 1227 1216 1202 1197 1190 1180 1169 1157 1143 1133 1123 1113 1105 1099 1094 1084 1069 1058 1052 1050 1048 1042 1030 1027 1026 1026 1027 1019 1012 1008 1000 987 977 966 954 942 940 936 933 931 926 922 918 911 900 886 868 853 835 820 809 796 788 782 776 760 751 752 749 743 730 718 707 694 688 677 661 654 651 647 644 641 639 638 638 638 639 640 639 639 639 640 639 639 637 634 634 637 627 602 572 561 558 566 572 576 579 583 599 622 644 662 666 664 662 664 671 681 694 709 724 743 759 768 773 777 781 789 810 833 855 875 886 892 898 901 905 903 897 894 897 893 890 910 933 956 980 1007 1032 1040 1040 1035 1016 1000 990 983 982 983 987 990 997 1002 1004 1005 1005 1007 
911 929 938 944 951 960 976 990 998 1001 995 984 978 971 973 975 972 962 954 949 946 944 948 962 981 1005 1029 1040 1055 1072 1084 1097 1116 1136 1148 1151 1160 1173 1181 1188 1207 1226 1230 1226 1208 1187 1181 1175 1169 1162 1152 1145 1129 1112 1103 1094 1086 1080 1074 1060 1046 1040 1037 1035 1033 1028 1023 1019 1016 1016 1012 1006 1001 995 983 971 962 959 951 937 925 919 915 911 905 903 904 900 887 866 847 828 810 793 781 771 768 763 751 740 735 731 731 722 711 695 686 680 667 654 648 647 644 642 640 639 638 637 637 638 638 638 638 640 640 639 639 638 635 634 635 621 595 570 561 557 565 572 576 580 583 604 630 654 668 674 677 680 683 687 691 697 712 722 745 762 771 776 783 791 803 823 847 873 892 905 912 918 922 927 929 925 924 925 923 915 921 939 962 986 1013 1035 1037 1033 1027 1005 995 984 978 976 977 978 984 993 998 1001 1002 1002 1005 
896 912 926 935 944 956 978 985 983 980 975 970 966 958 956 958 957 951 945 939 934 935 952 975 999 1019 1041 1056 1069 1086 1102 1115 1129 1142 1154 1160 1171 1181 1191 1198 1207 1215 1215 1214 1205 1185 1174 1165 1157 1150 1145 1137 1126 1113 1099 1085 1076 1067 1059 1049 1038 1028 1021 1016 1014 1015 1012 1012 1011 1007 1004 997 991 987 980 971 957 949 946 940 928 910 896 890 889 894 896 894 887 869 850 831 810 788 767 758 751 747 741 727 719 721 719 718 703 690 679 668 658 650 646 645 642 641 640 638 638 637 637 637 637 637 637 637 638 637 639 638 634 633 635 618 592 568 560 557 564 570 574 580 585 607 632 651 666 674 681 690 698 703 707 711 715 730 750 762 775 783 790 799 810 833 856 879 900 919 935 942 947 953 960 959 953 949 944 932 927 943 970 997 1021 1036 1029 1019 1010 995 983 977 970 969 972 973 975 981 989 994 998 998 1000 
889 906 916 927 944 960 977 976 967 963 961 959 956 947 944 946 946 939 932 927 924 934 962 991 1016 1037 1055 1067 1067 1083 1096 1108 1119 1129 1139 1152 1166 1180 1193 1198 1202 1200 1201 1202 1201 1191 1172 1158 1149 1143 1136 1124 1113 1107 1095 1079 1068 1053 1043 1039 1029 1014 1005 1001 1001 1003 999 994 993 995 993 984 972 966 965 965 956 946 940 932 919 903 885 871 869 875 878 881 879 868 853 833 811 788 764 741 735 733 730 714 703 705 707 706 696 685 671 662 655 651 647 644 642 640 639 638 637 636 638 636 636 636 637 637 638 638 639 638 633 632 632 612 593 569 559 557 563 570 573 579 584 605 629 644 662 676 683 688 695 704 711 719 728 739 750 759 770 784 797 814 829 845 866 882 901 923 947 961 963 965 968 968 965 963 958 948 940 956 984 1008 1027 1034 1026 1012 1000 986 976 971 956 956 958 960 962 970 980 988 992 992 995 
883 897 910 926 945 960 969 968 952 947 946 944 940 934 931 932 934 929 924 917 919 935 966 1000 1027 1048 1057 1060 1063 1070 1082 1094 1106 1122 1138 1149 1165 1179 1188 1192 1191 1187 1184 1186 1189 1186 1167 1155 1145 1136 1127 1113 1100 1095 1086 1072 1060 1049 1036 1025 1017 1006 996 993 990 991 990 988 987 987 980 964 951 944 943 946 947 942 935 924 911 896 880 862 851 852 861 866 867 862 851 832 810 787 759 733 719 717 717 707 697 697 700 697 693 681 670 660 655 650 647 644 641 639 638 637 636 636 636 636 636 635 636 637 637 638 639 636 633 631 627 605 588 571 559 557 563 569 573 579 584 600 620 635 654 670 679 684 689 698 708 717 729 740 752 763 776 790 809 828 846 862 877 894 912 932 948 951 954 955 954 952 952 954 963 967 965 974 997 1017 1029 1030 1013 998 988 978 965 954 948 946 949 954 958 963 968 975 980 983 988 
876 887 900 922 939 953 958 955 939 932 931 931 927 921 915 913 917 917 912 907 917 937 968 1002 1028 1044 1047 1047 1052 1060 1073 1089 1106 1124 1141 1157 1174 1180 1175 1177 1180 1177 1175 1175 1178 1179 1174 1164 1152 1140 1122 1105 1090 1078 1070 1062 1053 1039 1032 1022 1010 1000 994 990 986 983 984 982 979 975 970 947 935 930 927 925 927 930 929 919 906 894 876 855 835 833 845 853 852 846 838 824 804 781 757 734 709 700 697 696 693 688 690 691 685 677 665 655 650 648 644 642 639 638 637 637 635 635 635 634 634 635 636 637 637 637 636 634 632 630 622 600 586 574 560 557 560 567 572 578 582 597 618 635 654 671 677 682 692 701 708 716 728 740 754 770 785 800 814 831 854 871 888 908 924 935 939 940 940 940 939 937 937 943 957 971 978 985 1005 1022 1027 1025 1007 988 973 959 948 943 934 937 941 945 949 953 958 963 967 970 979 
865 877 895 912 931 943 945 944 929 919 917 916 912 909 905 902 903 902 898 903 916 939 969 997 1020 1028 1029 1033 1043 1055 1073 1094 1123 1142 1156 1169 1177 1174 1166 1165 1165 1166 1166 1165 1168 1172 1175 1171 1155 1134 1111 1093 1081 1068 1058 1051 1043 1029 1020 1012 1004 1000 993 989 984 978 980 978 972 963 952 937 923 917 912 909 910 913 915 913 907 895 873 849 827 817 826 831 830 827 822 812 799 781 764 742 717 695 685 684 683 679 679 682 679 670 658 650 646 644 642 640 638 637 636 636 635 634 634 634 634 635 635 636 637 637 637 634 631 631 620 601 587 574 562 556 559 565 570 577 582 600 620 641 660 668 669 674 683 701 707 716 729 744 762 788 807 819 831 843 860 878 895 909 919 925 930 933 938 941 943 942 938 941 951 960 970 987 1009 1015 1010 1007 999 983 967 948 935 927 922 926 929 935 938 941 945 948 951 956 967 
848 862 885 904 917 926 933 935 923 909 907 903 900 897 890 887 890 887 884 894 914 937 966 987 1001 1013 1018 1027 1041 1060 1080 1104 1134 1161 1173 1174 1168 1159 1155 1151 1149 1151 1153 1154 1158 1168 1174 1170 1147 1130 1109 1088 1072 1062 1053 1045 1029 1017 1009 1004 996 991 988 983 979 979 980 977 970 956 939 929 918 913 908 904 902 902 904 907 903 888 867 846 822 804 803 810 811 809 804 796 787 775 762 747 727 701 680 676 680 677 672 673 668 661 651 647 644 642 640 638 637 636 635 634 634 634 633 633 633 634 634 635 635 635 636 635 631 632 619 604 585 575 556 556 558 563 567 576 579 593 620 640 659 667 666 670 677 694 703 717 733 753 772 792 800 809 826 849 869 883 894 902 909 912 919 927 937 943 945 944 944 947 953 957 968 986 999 994 988 985 981 972 958 936 919 918 913 916 923 929 931 933 935 937 940 949 959 
838 850 870 888 897 906 915 915 909 901 892 885 881 879 875 868 870 872 879 897 918 937 956 975 990 1006 1020 1033 1050 1071 1093 1116 1145 1163 1161 1162 1157 1153 1149 1138 1132 1133 1136 1142 1155 1168 1178 1170 1152 1137 1117 1095 1074 1061 1048 1039 1026 1006 995 992 984 983 983 977 974 975 974 973 968 960 946 926 914 908 904 900 895 893 896 900 898 887 865 840 818 800 790 788 789 786 782 778 771 764 755 743 727 705 679 672 670 668 664 661 658 653 649 647 643 642 640 637 635 635 634 634 633 633 633 633 632 633 634 634 634 634 635 635 632 632 613 596 582 573 564 556 557 562 570 580 583 598 625 646 660 670 671 674 683 697 705 721 740 759 766 773 786 797 823 846 867 879 885 892 897 903 911 923 935 942 942 943 945 947 951 956 967 982 987 980 969 963 958 955 946 925 912 912 907 908 917 925 929 932 930 928 935 944 951 
828 835 847 862 875 880 887 889 887 883 876 871 866 864 864 856 853 863 883 908 931 945 960 977 997 1016 1028 1043 1061 1083 1105 1125 1144 1148 1146 1146 1145 1144 1136 1120 1116 1118 1130 1145 1160 1167 1168 1160 1143 1128 1114 1098 1084 1070 1050 1034 1017 999 984 974 973 973 973 969 967 967 966 965 960 955 945 929 913 904 897 891 886 882 883 885 886 884 870 849 829 810 785 771 760 760 761 761 760 753 742 729 715 700 677 667 666 664 661 658 654 651 648 645 643 640 639 639 635 633 632 631 632 632 632 632 632 633 632 633 635 636 635 634 632 628 604 586 574 570 566 556 557 560 567 577 580 598 624 645 665 670 669 675 688 699 709 722 739 749 755 766 783 798 814 830 851 865 872 881 890 898 913 924 932 939 941 942 942 944 948 956 971 982 987 973 959 947 938 933 928 913 905 904 901 905 911 919 923 924 920 920 931 936 936 
818 815 822 832 843 853 861 865 866 866 864 856 854 852 848 846 851 872 897 920 939 956 978 994 1010 1026 1039 1053 1070 1096 1117 1132 1137 1130 1129 1129 1129 1129 1118 1108 1104 1113 1129 1140 1146 1148 1149 1148 1134 1115 1103 1085 1077 1069 1055 1040 1018 1000 980 970 966 964 963 962 960 959 960 953 949 946 939 928 917 910 899 885 875 869 868 869 872 873 865 852 834 817 796 776 755 750 746 742 741 736 728 713 702 691 672 662 659 658 656 654 651 648 646 644 642 640 638 636 635 633 633 632 630 631 631 634 634 633 632 632 633 634 636 638 635 627 602 584 575 569 565 556 557 559 566 576 580 591 620 639 651 663 671 677 682 694 712 722 731 742 752 764 774 784 796 815 836 847 859 870 882 897 907 916 925 933 936 934 935 938 944 957 971 984 990 975 959 946 936 923 913 904 897 895 895 899 904 908 908 911 910 914 924 926 917 
820 805 804 810 815 821 834 846 847 848 840 833 832 834 836 843 865 893 912 929 945 957 977 996 1014 1032 1049 1063 1084 1110 1125 1127 1119 1112 1112 1112 1114 1115 1108 1096 1095 1104 1117 1123 1127 1129 1133 1135 1123 1104 1093 1078 1067 1053 1042 1032 1020 1005 981 970 966 961 957 955 953 951 948 939 937 937 935 931 918 909 903 893 872 862 860 862 863 860 852 841 829 818 800 783 766 749 736 729 725 722 712 702 690 680 669 660 656 654 652 651 649 646 644 642 640 638 636 635 634 634 633 633 633 633 631 632 633 633 631 631 632 633 633 633 632 624 597 582 577 573 566 556 557 560 568 573 578 581 600 623 635 645 662 681 689 699 711 717 722 734 745 755 764 774 788 806 821 830 844 856 867 884 898 909 918 924 926 926 931 936 944 957 969 982 990 977 957 940 930 916 906 902 894 889 890 893 896 895 894 897 903 913 918 914 900 
825 807 799 801 804 805 808 821 823 819 816 818 822 828 839 859 885 906 920 936 953 972 989 1003 1018 1036 1052 1071 1092 1113 1120 1114 1102 1099 1098 1096 1096 1100 1098 1088 1082 1088 1096 1103 1109 1114 1120 1123 1115 1098 1082 1065 1054 1039 1027 1017 1008 999 984 970 969 964 956 953 947 945 932 922 920 923 927 927 924 914 903 893 881 867 855 847 843 839 835 828 815 802 794 782 766 748 730 721 715 716 709 702 691 673 662 655 653 651 649 648 646 643 641 640 639 637 635 634 633 633 632 631 632 631 631 630 632 631 630 631 633 634 633 632 632 618 591 579 573 571 569 565 565 566 567 571 577 579 587 602 617 625 639 657 675 693 702 704 710 719 729 744 759 768 777 788 805 818 831 847 858 875 889 901 904 910 916 921 926 934 945 959 972 980 978 967 954 939 926 908 900 899 893 887 886 887 888 884 885 887 893 905 909 906 892 
833 811 795 794 796 799 801 804 806 806 810 817 827 843 860 878 898 914 933 952 968 992 1012 1024 1034 1046 1058 1078 1096 1109 1111 1103 1090 1088 1085 1080 1080 1082 1081 1076 1067 1068 1076 1083 1089 1095 1104 1104 1098 1091 1076 1056 1041 1032 1023 1012 999 991 984 973 967 962 956 955 952 941 919 909 908 912 916 917 917 913 901 887 881 874 859 838 822 814 812 805 795 791 786 775 760 747 730 710 706 706 704 697 685 668 658 653 650 648 647 645 644 641 638 636 637 636 634 633 632 632 632 631 630 631 632 630 631 630 630 631 632 631 631 632 631 615 587 577 574 573 571 570 563 559 561 566 575 584 594 601 609 619 628 637 655 671 684 695 707 720 733 743 753 765 776 785 797 813 826 836 849 867 883 892 895 901 909 915 927 940 953 963 970 970 961 953 949 941 928 908 893 893 890 885 881 881 880 877 877 880 884 891 892 889 883 
831 805 792 790 789 792 796 798 798 804 811 824 842 856 868 893 908 923 945 966 986 1000 1010 1024 1036 1047 1062 1082 1098 1102 1100 1091 1080 1072 1068 1066 1066 1067 1067 1066 1055 1049 1059 1066 1069 1079 1084 1082 1082 1082 1077 1056 1034 1026 1019 1010 998 987 980 974 966 959 952 951 950 935 918 904 895 900 905 905 906 907 896 881 870 863 851 836 816 794 787 781 784 785 778 764 752 737 717 701 698 699 699 690 677 665 660 656 652 646 643 642 642 639 637 635 634 635 633 631 630 630 631 630 630 630 628 629 631 631 631 630 631 631 633 634 623 601 581 577 572 570 569 564 557 555 559 566 580 601 617 623 629 639 648 658 667 671 679 693 706 720 733 741 747 758 771 784 796 815 826 836 847 863 876 882 884 891 903 920 938 952 962 966 965 956 947 940 933 928 920 900 883 885 887 883 878 876 870 869 869 872 875 875 874 870 876 
838 821 809 794 790 783 785 793 798 804 816 834 851 859 874 898 914 932 948 967 980 990 1005 1021 1035 1045 1066 1082 1094 1094 1086 1078 1068 1060 1056 1053 1052 1051 1051 1049 1041 1034 1045 1048 1051 1059 1062 1064 1067 1068 1069 1060 1044 1028 1015 1009 1001 986 976 969 965 963 958 947 940 935 922 904 886 888 892 896 899 901 890 872 859 849 835 822 810 791 773 770 770 769 763 750 739 728 712 696 689 688 686 685 679 666 662 657 652 648 645 640 638 638 636 632 631 633 632 631 629 629 630 630 629 630 630 628 631 631 630 630 629 627 624 617 601 583 578 575 567 567 566 565 558 555 560 573 593 618 634 643 652 660 669 679 691 697 700 705 714 727 741 750 759 765 773 783 795 810 825 837 847 858 869 875 879 888 904 922 941 952 959 958 953 945 935 925 918 916 910 895 878 877 880 879 876 872 863 861 857 854 852 853 852 856 864 
846 832 821 799 789 780 781 789 795 804 816 827 841 854 872 888 905 925 938 955 972 989 1008 1023 1040 1057 1071 1082 1091 1088 1075 1065 1058 1051 1045 1039 1038 1035 1034 1030 1027 1020 1025 1030 1035 1041 1048 1052 1052 1052 1055 1055 1050 1038 1021 1008 1003 991 976 963 953 948 942 925 920 916 909 900 879 873 879 887 892 892 882 863 845 833 825 811 798 783 772 764 755 750 743 734 727 716 708 695 689 685 680 679 674 667 660 656 652 648 645 640 635 633 634 631 628 630 632 631 629 629 630 629 629 629 629 627 630 629 627 621 613 606 599 590 583 578 579 571 567 567 567 562 554 556 564 580 602 622 633 642 653 666 676 686 703 721 731 739 744 753 763 770 775 777 781 788 800 814 827 837 848 860 871 881 887 895 908 927 942 947 945 943 939 932 924 915 911 906 901 892 875 871 872 873 872 868 856 851 845 840 835 833 833 838 843 
836 824 814 797 785 782 779 784 793 799 806 822 840 860 876 898 914 933 951 970 988 1007 1023 1039 1056 1070 1080 1086 1089 1079 1066 1054 1050 1043 1039 1034 1025 1019 1017 1014 1010 1005 1007 1014 1020 1026 1033 1034 1036 1035 1035 1035 1035 1035 1030 1018 1006 993 978 960 945 930 922 911 903 898 897 897 878 860 858 862 872 875 870 854 833 818 811 801 788 776 769 758 744 737 733 727 716 708 702 694 682 678 676 672 668 663 658 653 650 646 644 640 637 633 630 629 628 628 630 631 629 628 629 629 630 630 624 618 621 620 610 603 598 592 584 579 578 578 572 567 566 567 569 562 559 561 575 586 604 620 634 647 659 673 683 694 710 729 746 756 760 768 781 790 793 791 791 796 805 816 830 844 858 872 884 896 902 906 913 925 933 933 932 928 921 915 911 908 902 894 890 881 866 865 865 864 863 861 852 844 839 834 826 818 813 816 821 
822 814 806 799 787 778 776 781 791 796 807 825 847 871 893 917 941 966 985 1003 1017 1029 1041 1054 1067 1074 1078 1082 1084 1070 1057 1048 1041 1036 1034 1022 1012 1005 1001 998 993 984 990 996 1003 1010 1013 1016 1018 1016 1016 1017 1020 1024 1025 1022 1009 998 984 962 942 926 910 897 885 881 881 879 871 849 839 842 846 858 857 850 835 815 805 797 778 768 765 752 740 732 726 722 715 708 701 696 681 672 672 668 664 659 655 652 648 645 640 639 635 632 629 627 629 630 629 630 628 628 628 629 630 622 608 610 609 599 592 589 586 582 577 578 579 576 572 566 565 567 565 558 565 570 583 598 615 633 646 660 679 695 698 703 714 735 756 773 777 783 792 801 808 811 809 810 816 823 835 849 865 880 895 910 918 923 925 928 929 923 917 912 903 899 900 898 894 887 882 879 865 860 860 857 854 854 848 841 834 829 822 812 801 796 801 
809 801 794 785 776 769 769 779 789 801 817 840 865 892 917 944 974 998 1012 1025 1032 1039 1049 1060 1064 1064 1064 1068 1073 1069 1052 1042 1036 1031 1024 1012 998 991 986 983 980 971 974 975 981 992 999 1003 1002 1000 1003 1009 1012 1015 1016 1015 1001 988 975 958 938 920 902 887 873 863 860 860 856 841 826 826 825 835 843 840 831 817 802 786 770 760 754 748 737 730 722 716 712 707 702 697 683 671 672 669 663 656 652 649 646 644 641 637 634 630 628 627 629 630 627 627 627 627 627 628 629 616 604 603 595 588 584 582 579 580 578 578 576 573 565 563 563 562 554 557 564 578 596 611 619 634 651 668 685 694 703 716 726 743 769 786 793 798 807 815 824 829 828 825 827 833 844 858 873 887 903 916 924 928 926 921 917 910 901 896 892 890 891 890 884 875 873 870 860 855 857 853 848 847 844 840 831 822 818 811 800 790 787 
804 791 778 770 765 761 770 781 796 811 831 858 889 918 944 968 989 1001 1010 1017 1022 1029 1042 1051 1054 1052 1050 1053 1060 1067 1053 1033 1027 1023 1014 1005 990 981 977 970 962 954 954 954 966 978 983 985 987 989 996 1002 1003 1004 1005 1003 993 978 964 950 935 916 895 877 855 848 847 846 840 831 819 803 805 816 824 825 821 813 798 780 766 756 748 740 732 725 722 718 710 704 699 697 680 669 664 662 660 654 649 646 644 641 639 637 634 632 629 628 629 629 628 627 625 626 626 628 627 611 597 590 586 582 580 579 581 581 580 579 576 569 565 563 559 552 553 556 573 586 602 618 625 638 652 664 676 687 699 722 736 753 768 782 793 803 815 828 839 845 847 844 844 849 859 870 882 894 904 909 906 905 902 895 894 891 886 885 885 883 880 876 868 865 867 868 863 851 850 849 842 839 839 833 827 817 813 806 795 785 785 
798 787 767 766 759 760 774 784 803 822 841 871 903 930 954 969 978 986 994 1003 1009 1016 1027 1036 1039 1040 1039 1042 1050 1060 1053 1032 1016 1012 1003 995 987 978 969 955 943 935 934 943 958 964 970 976 980 984 990 994 995 992 993 994 990 969 954 941 927 913 896 877 858 840 836 833 826 817 806 791 786 795 802 806 805 803 793 779 768 750 735 729 725 720 713 709 705 699 696 691 674 668 662 658 654 650 645 643 641 639 637 635 633 632 631 629 629 628 628 627 626 625 627 627 627 610 596 586 583 582 581 580 581 580 579 578 574 567 565 559 555 554 555 561 579 594 611 620 628 638 651 660 670 681 700 719 730 744 755 769 785 799 815 831 847 859 864 862 863 869 875 883 888 890 893 896 889 883 880 876 876 875 872 871 872 870 865 859 860 860 859 860 855 849 845 844 840 835 831 825 821 814 807 797 788 780 782 
784 772 761 756 752 763 775 783 810 829 853 882 905 926 948 958 963 969 977 987 992 999 1010 1020 1026 1028 1032 1037 1047 1056 1053 1029 1012 1006 996 988 982 974 961 947 935 924 927 941 950 953 958 966 972 979 982 983 981 979 982 986 983 970 954 939 923 910 893 878 862 841 824 819 818 809 799 786 774 769 772 775 782 788 787 779 768 747 727 718 716 714 709 704 699 694 687 682 675 668 662 657 654 650 645 640 638 638 635 633 631 630 629 629 628 627 627 626 622 624 629 630 626 607 589 583 581 580 581 580 580 580 579 575 567 565 564 556 553 555 560 575 591 607 621 631 638 642 649 658 672 691 701 709 719 738 764 780 791 803 818 837 857 869 871 867 867 870 873 876 878 880 883 887 885 869 863 861 863 864 863 862 862 858 857 854 852 851 850 848 845 841 840 838 835 828 825 818 815 811 802 790 778 771 775 
769 756 754 749 752 763 772 784 806 835 866 890 909 927 939 943 946 953 963 972 976 983 994 1005 1009 1011 1018 1029 1045 1058 1052 1033 1015 999 989 981 974 966 956 943 936 925 925 935 942 945 950 957 964 967 966 966 965 966 970 976 974 966 952 941 926 912 897 884 865 844 820 808 804 799 789 782 774 764 753 754 765 774 774 769 758 740 723 713 712 707 703 698 694 691 685 679 675 671 665 659 653 648 644 639 636 634 633 631 630 628 628 627 627 626 626 625 623 625 626 627 618 597 584 582 582 580 579 577 579 580 579 565 564 566 561 553 554 557 565 576 589 607 619 635 644 647 653 660 672 686 695 704 719 743 770 792 808 820 837 853 866 873 871 858 855 855 857 862 869 874 877 880 882 872 859 849 848 850 855 859 858 854 847 843 839 841 842 840 833 830 825 826 827 824 820 815 809 805 800 790 774 767 767 
764 747 744 747 754 764 781 803 822 849 873 889 904 916 919 920 926 938 945 950 957 965 979 987 990 998 1011 1027 1045 1056 1048 1034 1018 1001 991 980 970 959 948 938 932 923 917 924 932 938 944 951 954 951 950 952 955 956 955 957 963 964 957 943 930 915 896 880 863 844 824 802 786 782 777 775 772 767 757 753 761 764 761 756 748 739 726 714 702 698 695 692 690 687 683 676 670 667 666 661 653 647 643 639 635 631 630 630 628 627 626 626 626 626 625 625 623 619 619 619 603 587 582 581 581 580 580 579 579 577 575 564 564 563 556 553 556 562 567 576 589 599 614 628 637 647 656 669 682 697 705 716 732 756 781 801 820 837 856 865 869 869 865 857 855 852 850 855 860 865 868 872 874 872 858 842 832 830 837 848 852 853 847 834 829 832 836 834 823 825 822 819 818 817 815 807 800 797 790 783 774 764 762 
746 739 741 748 758 768 788 812 831 854 868 874 884 892 895 899 908 920 925 929 940 953 963 971 978 993 1012 1032 1051 1054 1044 1034 1024 1006 990 978 969 959 947 936 924 912 902 910 919 929 937 941 941 941 939 941 943 943 943 948 954 957 952 942 926 908 891 877 866 854 836 819 803 784 769 761 758 755 749 743 747 751 750 749 743 734 723 709 698 691 689 689 687 685 680 671 664 660 659 655 650 645 641 637 634 630 628 627 627 626 625 624 625 625 624 624 620 609 607 605 592 581 581 581 580 579 578 579 580 578 573 562 560 557 554 556 559 563 570 583 607 621 627 633 641 650 659 671 683 701 716 739 751 768 792 811 831 845 854 856 855 854 853 853 851 845 843 845 849 853 857 863 865 864 847 831 817 813 822 831 837 841 843 832 821 823 829 831 821 818 818 814 811 811 809 802 793 786 780 775 770 764 755 
735 738 743 753 758 768 785 802 820 840 850 854 861 869 876 883 893 907 916 933 939 945 957 973 997 1011 1025 1044 1054 1051 1043 1033 1026 1015 1004 993 983 972 961 946 932 910 890 894 905 917 924 927 930 930 929 932 932 932 935 943 945 943 943 936 923 911 904 895 882 864 847 836 826 809 787 765 745 743 744 734 735 739 738 736 732 724 715 702 691 685 681 682 681 679 673 666 661 658 655 653 647 642 639 635 631 629 628 626 624 624 624 622 623 623 623 622 620 607 598 592 584 581 580 580 580 578 578 580 580 580 578 565 557 554 554 559 562 567 577 597 619 636 641 641 646 650 657 670 685 703 721 741 762 783 802 821 836 841 842 840 837 835 836 839 839 835 832 834 838 841 845 849 853 844 826 810 797 797 807 813 818 826 829 823 812 815 820 823 819 817 816 810 805 801 799 797 793 778 774 771 767 763 753 
732 741 751 754 754 765 776 790 807 823 833 840 854 866 878 892 900 910 925 945 956 966 972 991 1015 1028 1040 1049 1046 1039 1035 1029 1024 1019 1011 998 985 975 966 954 936 918 895 883 889 899 909 916 918 918 921 924 923 922 925 928 930 932 937 933 926 920 915 906 891 872 861 855 849 832 807 780 755 738 733 727 726 728 730 726 717 703 694 687 679 670 670 667 668 669 665 659 655 652 649 646 643 639 636 633 630 627 625 623 621 622 622 621 622 622 621 619 612 605 593 587 583 581 579 579 578 577 580 579 580 580 575 563 554 553 556 560 563 570 587 609 626 635 636 637 641 649 661 678 693 713 730 748 762 781 804 823 828 827 824 822 818 816 817 821 822 820 818 819 822 825 830 835 839 823 803 791 779 780 788 794 803 820 821 815 804 806 813 817 816 813 810 805 795 791 790 789 786 777 769 766 764 762 750 
730 742 748 749 753 761 768 783 802 816 832 853 872 887 901 910 914 920 945 960 972 989 1000 1016 1028 1036 1037 1031 1025 1020 1018 1013 1010 1010 1007 1002 984 967 960 949 936 925 909 889 880 888 904 907 909 913 916 915 914 915 918 919 922 924 926 920 917 914 906 897 892 882 876 871 861 843 817 792 771 745 725 722 715 710 711 709 701 685 674 668 663 660 660 660 658 657 655 650 649 648 645 640 639 636 633 630 627 624 622 620 619 619 621 620 622 620 616 609 605 604 601 594 584 580 579 578 578 577 578 577 576 577 571 556 552 555 559 561 565 574 596 614 632 639 635 636 639 652 670 688 701 713 732 744 756 776 800 813 814 809 805 802 799 800 802 804 807 808 807 805 807 813 820 826 830 818 796 776 763 765 775 790 808 824 825 817 802 802 810 812 806 797 792 786 782 781 778 776 776 772 767 764 758 755 748 
730 744 745 745 747 752 763 787 813 837 853 865 880 895 916 927 934 940 955 982 997 1010 1020 1024 1023 1021 1016 1012 1007 1005 1002 998 996 996 995 994 983 968 950 934 920 913 905 890 877 881 892 893 898 903 905 902 903 908 911 918 922 923 917 909 904 896 887 884 882 880 877 869 859 843 824 807 782 757 729 716 711 703 692 689 684 682 682 678 665 657 652 651 650 648 647 645 642 643 642 636 634 634 631 628 624 622 620 620 620 617 616 618 620 616 608 604 603 602 601 601 594 579 578 578 573 575 574 574 574 572 561 551 552 558 560 562 567 582 602 620 634 635 634 635 640 652 670 688 700 708 723 732 749 769 785 798 798 792 788 784 782 783 787 789 792 794 792 790 793 800 808 814 816 807 789 767 751 752 764 784 805 821 824 818 803 800 806 805 797 790 782 774 773 773 769 764 763 761 755 751 750 750 747 
724 735 741 742 745 756 772 797 823 846 866 879 888 899 916 931 940 958 971 981 998 1015 1017 1012 1007 1007 1004 1002 995 992 989 984 981 981 980 981 977 959 942 926 911 897 887 873 864 868 875 875 878 882 886 888 892 899 909 917 923 926 909 896 887 879 871 867 867 868 869 864 849 832 817 806 793 772 745 727 714 704 700 699 696 694 693 690 682 671 658 648 642 638 637 639 634 635 636 631 629 631 630 627 624 621 618 617 618 615 614 616 613 604 600 599 600 601 600 601 590 580 578 573 573 573 575 571 569 566 555 551 552 558 561 563 571 592 609 625 634 633 633 634 639 653 666 678 689 696 708 724 742 759 779 789 787 779 774 768 768 770 775 778 780 780 779 778 780 786 791 796 797 791 777 759 743 742 758 775 793 812 816 810 796 791 795 795 789 784 779 768 764 766 760 754 751 748 741 736 735 737 737 
721 733 739 739 753 773 787 806 824 843 861 874 884 894 908 924 937 954 972 987 1000 1001 998 995 994 996 997 995 991 983 977 975 974 975 972 972 970 960 944 926 908 890 872 854 847 847 850 855 858 860 868 877 890 902 910 921 930 926 904 887 873 865 858 850 850 854 857 854 841 823 806 792 782 770 751 730 723 718 715 708 699 694 689 687 685 677 659 656 646 635 631 629 628 626 627 625 624 627 628 625 622 620 618 617 617 614 610 610 609 609 604 595 597 599 601 597 583 579 573 573 573 574 571 569 568 565 554 551 554 559 562 565 573 595 611 629 638 634 633 635 641 653 662 674 682 691 701 717 741 761 781 785 781 772 765 762 758 761 766 769 770 768 769 769 771 774 776 778 779 774 762 747 731 737 753 769 786 804 808 801 789 784 787 786 779 775 772 766 759 756 751 744 739 734 729 721 718 724 733 
718 728 734 736 749 768 787 802 815 828 841 854 867 882 896 913 932 950 971 988 990 987 985 983 982 984 987 987 985 981 973 971 971 971 968 965 959 947 931 913 901 887 859 848 842 834 837 845 857 866 874 885 897 910 922 932 940 923 904 886 865 851 844 838 837 840 843 843 835 818 799 781 770 759 746 731 716 713 707 699 693 689 685 683 681 669 655 652 647 638 629 624 623 620 620 620 621 624 625 620 619 618 617 617 617 616 616 617 618 618 614 597 593 598 600 588 579 580 573 573 573 572 571 570 567 562 553 555 557 560 562 567 575 599 616 632 636 634 633 636 640 647 659 671 680 688 700 716 736 760 779 784 779 767 759 754 749 749 754 759 760 757 757 759 762 763 763 763 759 751 742 730 720 729 746 764 783 799 800 795 782 776 782 780 770 763 761 756 748 743 742 737 729 722 717 709 713 727 740 
713 720 726 731 737 752 769 782 796 807 820 837 854 869 886 906 931 951 971 982 978 975 972 971 975 978 980 978 976 981 978 969 966 959 955 952 944 929 914 902 893 879 859 848 841 826 824 834 848 862 878 890 902 919 928 937 941 927 911 891 865 847 838 831 828 829 832 832 822 808 791 773 754 745 736 725 710 704 700 693 688 685 682 678 675 660 650 649 647 643 635 626 621 616 616 615 617 621 622 619 618 617 616 616 616 616 617 617 617 617 615 595 585 589 592 583 580 579 576 573 573 570 570 569 565 557 552 555 559 560 563 570 583 600 619 632 633 633 633 635 639 644 654 665 675 686 703 725 745 760 775 783 780 767 756 749 741 737 739 745 749 748 747 750 753 754 753 752 744 731 719 711 712 728 747 768 783 793 793 787 778 768 773 773 763 751 747 742 735 730 725 723 720 714 712 715 727 736 740 
710 716 721 727 732 738 749 766 780 797 814 830 847 868 892 914 936 956 971 971 967 964 962 963 969 972 974 972 971 978 983 977 966 957 950 941 931 917 904 891 879 869 861 848 835 822 815 828 848 862 881 899 915 925 928 937 934 920 909 895 875 850 833 826 820 817 815 810 804 795 781 764 741 731 724 715 708 699 691 686 683 681 679 674 670 653 647 645 645 644 641 637 630 621 613 610 611 616 619 618 617 616 616 615 615 616 616 616 617 617 615 595 582 581 580 580 583 581 574 575 572 569 568 568 562 552 551 558 560 561 564 575 593 613 630 635 634 633 632 633 635 641 646 655 665 680 703 721 736 749 764 776 780 776 764 750 738 729 726 732 738 738 737 739 741 743 745 745 735 719 706 704 712 727 747 765 778 781 780 774 766 754 760 761 756 743 735 728 722 717 711 711 711 705 700 711 727 733 730 
707 713 720 725 729 738 753 774 786 801 819 838 857 880 906 927 948 961 963 958 954 955 952 948 952 959 964 963 965 973 980 974 957 955 950 937 928 915 902 889 874 862 845 831 821 814 818 835 854 870 885 903 907 910 917 923 923 909 893 879 867 851 830 816 809 802 799 793 785 779 770 756 733 722 716 711 702 693 685 681 680 677 674 670 665 652 644 642 641 639 638 636 633 630 622 613 606 607 613 617 616 616 615 615 613 612 611 610 610 608 602 590 582 579 578 583 581 576 575 573 576 570 568 567 557 550 556 557 559 561 567 579 602 625 634 632 632 632 632 631 634 636 640 647 658 678 696 707 720 735 750 761 772 778 776 762 743 726 716 718 726 728 727 729 731 733 736 737 727 709 698 701 713 732 750 760 766 767 765 758 750 741 743 746 745 733 726 720 713 711 705 703 698 691 699 708 714 714 700 
707 713 720 722 724 734 761 780 797 813 829 846 864 888 914 937 953 954 949 945 941 940 934 931 934 941 948 951 955 969 975 983 970 956 944 935 928 924 922 909 890 872 852 840 825 818 826 835 846 862 882 891 891 895 903 908 913 901 881 864 852 842 828 811 797 788 783 776 767 758 749 741 726 717 710 702 695 686 680 677 674 673 668 664 659 646 639 639 639 636 636 634 631 629 627 623 607 601 605 609 614 616 612 602 595 592 591 589 589 587 583 579 578 574 576 579 577 573 574 570 570 570 568 566 554 550 557 558 560 563 571 589 613 630 634 632 631 631 631 631 633 636 638 646 662 679 687 698 712 726 737 748 763 769 769 759 742 721 701 704 715 721 722 724 728 732 731 731 721 707 694 696 708 727 738 744 747 749 747 741 735 733 737 739 732 721 713 708 704 702 701 699 688 680 694 700 703 687 671 
703 710 716 718 720 739 766 784 802 821 839 856 872 898 924 941 946 941 935 930 926 924 921 918 918 926 936 941 945 959 978 987 978 967 947 937 933 937 935 917 898 881 868 851 830 815 813 822 834 854 871 877 878 879 885 896 903 897 875 854 842 832 819 808 786 777 769 757 742 732 730 729 723 717 709 700 688 681 675 673 670 668 664 658 649 638 636 636 635 633 631 630 629 627 626 624 616 601 599 599 603 605 599 586 581 578 578 577 577 577 577 576 574 574 578 577 575 572 573 567 567 568 565 560 550 556 558 560 562 567 583 604 625 636 634 633 632 631 631 631 631 633 634 646 661 667 675 688 700 712 723 734 747 754 754 745 733 714 694 698 704 710 713 717 717 719 723 724 719 705 689 689 702 714 721 725 729 729 729 726 721 729 734 732 721 711 703 697 694 694 695 693 686 680 691 696 690 669 657 
699 708 714 714 717 735 759 778 799 824 848 868 888 908 928 932 931 921 916 914 911 909 905 903 904 916 928 936 940 957 972 985 983 975 962 949 948 948 940 922 906 895 884 866 842 819 803 813 825 837 852 858 860 862 871 884 893 895 873 851 834 825 818 809 794 778 768 755 741 731 723 719 716 712 704 692 678 673 671 669 667 664 660 654 643 634 633 634 633 631 630 628 627 625 624 622 619 612 600 597 597 597 589 577 576 576 576 576 576 576 577 574 574 574 578 579 576 570 569 568 564 561 559 551 551 557 560 561 566 573 594 613 629 637 633 631 631 631 630 630 630 631 631 639 651 658 665 673 682 691 703 714 728 742 740 734 722 696 682 681 691 703 713 715 715 718 719 718 714 703 689 685 695 706 708 712 713 715 715 712 710 718 721 717 708 701 691 687 685 686 687 686 685 681 682 679 669 656 657 
698 706 710 711 718 737 757 776 798 826 851 873 894 914 926 922 916 905 902 897 893 890 889 888 890 902 921 929 934 952 963 973 977 979 970 959 959 957 945 931 918 909 893 868 846 820 803 801 809 824 835 838 841 849 861 872 880 888 879 849 828 812 808 804 797 785 771 758 747 736 724 716 709 701 691 681 674 670 667 665 663 660 656 651 644 629 627 629 629 628 628 626 624 623 622 621 618 616 607 595 594 595 592 577 576 576 576 576 577 577 576 574 574 574 576 575 571 569 568 566 565 559 551 549 557 556 560 562 566 575 597 618 634 634 633 632 631 630 630 630 630 629 630 635 641 648 657 661 666 676 690 703 717 732 734 727 713 693 681 676 685 692 703 710 712 713 713 711 707 696 687 681 691 701 702 702 704 705 703 702 705 710 708 701 696 688 679 674 672 676 681 682 677 666 661 656 654 654 655 
693 699 705 711 727 747 759 774 797 825 849 871 890 906 918 913 904 900 897 888 883 880 878 877 883 895 910 920 928 939 950 958 966 971 974 971 968 961 951 938 927 914 901 877 854 830 813 805 805 814 819 819 828 839 849 863 873 882 879 856 829 806 800 794 791 785 770 758 747 736 723 715 707 699 687 677 670 666 666 661 659 656 652 647 640 628 622 626 626 626 625 623 622 620 619 616 614 615 610 597 593 594 593 582 576 576 576 576 577 577 574 574 574 574 574 576 570 569 566 564 562 557 549 551 560 558 561 563 568 584 600 617 632 633 633 631 631 630 630 630 629 629 630 631 634 639 648 658 663 672 686 699 713 720 722 718 705 686 678 676 682 686 690 700 703 703 702 698 692 685 677 674 684 694 694 694 693 691 688 692 697 697 694 687 683 675 668 664 663 669 675 673 662 654 653 652 653 653 656 
689 692 701 716 741 762 774 786 801 820 841 863 879 895 909 906 900 895 890 882 874 867 863 863 870 885 901 916 929 939 945 952 957 961 965 967 965 957 948 935 925 911 904 890 873 852 826 807 797 797 807 812 821 833 848 861 867 871 869 853 831 811 798 791 785 781 769 756 748 740 728 718 709 701 690 676 668 664 663 660 655 653 650 644 638 631 621 622 622 622 622 621 621 619 618 615 613 613 612 601 590 590 589 587 579 577 577 577 576 574 574 574 574 574 574 577 569 567 564 561 559 552 547 547 553 559 562 566 571 586 601 620 631 633 631 631 631 630 630 629 629 628 628 629 632 636 646 657 666 674 687 697 707 711 710 704 690 680 672 672 676 680 685 692 697 696 690 686 681 675 670 666 672 678 682 681 677 675 677 683 684 681 676 672 665 662 661 656 654 658 658 655 651 650 650 652 652 654 660 
686 689 700 721 747 769 785 797 807 822 837 852 867 883 895 897 896 884 875 867 860 853 849 851 860 877 895 911 923 926 931 936 940 944 951 954 953 947 936 923 912 903 894 883 874 860 834 805 788 788 798 806 816 826 837 846 850 855 856 845 829 809 793 780 773 773 768 755 748 740 731 721 711 702 688 676 665 662 657 655 652 649 646 641 635 626 618 617 618 618 619 619 619 617 616 613 613 614 613 606 589 584 584 585 582 577 576 576 574 574 574 574 574 574 576 574 568 566 562 560 556 549 548 550 555 561 563 565 571 584 604 624 632 632 631 631 630 630 629 629 628 628 627 628 629 633 644 657 666 680 690 696 702 700 691 682 681 673 668 667 670 674 680 688 692 686 682 678 674 670 663 655 661 667 670 670 667 664 668 668 667 664 661 657 653 647 643 643 643 643 645 646 646 647 649 653 659 670 678 
684 688 703 725 748 764 780 791 803 817 831 844 856 865 867 870 870 863 858 853 848 843 838 838 849 866 886 904 910 912 916 920 925 930 937 943 944 935 921 906 892 884 873 864 857 851 832 803 781 780 789 791 799 811 824 833 838 842 845 839 827 809 790 771 767 772 773 758 747 739 730 718 707 700 686 673 662 658 657 654 651 644 640 636 630 621 616 614 617 617 616 616 615 614 612 612 613 613 613 605 587 581 580 580 578 577 575 574 574 574 574 574 574 574 576 570 566 563 560 559 550 547 549 554 559 561 563 565 572 585 610 626 633 632 631 631 630 629 629 629 628 628 627 627 628 629 635 644 661 679 689 694 694 684 676 672 674 667 657 656 661 668 677 684 684 680 676 672 669 663 654 650 653 655 658 658 656 654 656 656 653 648 645 642 639 639 640 640 642 642 644 645 646 651 659 670 679 690 702 
682 689 705 727 746 760 772 784 796 812 826 836 842 845 845 849 855 853 848 842 838 834 826 828 842 864 884 895 898 897 898 901 908 917 925 932 936 929 910 888 874 862 850 840 834 830 823 800 776 775 783 784 786 792 804 815 827 833 835 829 819 809 793 774 763 764 762 755 744 733 725 711 705 694 681 668 658 654 652 647 647 639 635 634 631 622 615 613 613 612 612 612 613 612 611 612 612 612 612 598 583 580 578 578 577 575 574 574 574 574 574 574 576 576 571 568 563 559 559 551 547 546 549 556 561 562 564 568 575 590 616 628 632 631 632 631 630 630 629 628 628 627 626 626 627 629 633 640 652 672 681 688 688 681 675 668 668 668 657 647 651 660 668 674 677 676 672 664 658 652 648 645 645 643 644 644 643 643 643 642 639 638 638 636 639 638 639 640 642 645 647 652 657 669 680 689 693 701 709 
680 684 702 725 740 752 764 778 792 809 827 833 834 830 825 832 845 845 838 834 832 826 817 827 845 867 881 884 884 882 882 884 889 899 911 922 928 926 905 875 860 848 834 824 819 818 812 795 772 768 773 779 778 783 794 808 819 825 826 817 809 800 787 778 765 757 754 749 740 728 715 702 698 684 671 660 655 653 649 644 644 643 637 630 627 623 617 612 611 611 611 611 611 610 609 611 612 612 611 595 580 578 577 577 576 574 574 574 574 574 574 576 574 570 570 566 561 558 552 546 542 544 555 561 562 562 566 573 583 605 624 631 631 631 631 632 630 629 629 629 628 627 627 626 626 628 633 646 654 664 674 681 677 666 667 663 666 668 667 660 651 655 662 669 672 668 657 652 649 645 640 638 636 632 631 630 631 633 632 632 634 635 635 636 637 640 644 654 666 672 672 671 680 694 703 709 715 718 722 
676 692 707 720 728 744 763 777 794 808 827 831 824 815 811 821 838 836 829 822 818 811 810 827 846 858 864 865 863 860 860 865 873 883 897 913 920 916 895 868 849 831 820 813 809 803 794 781 767 761 757 758 770 775 782 797 812 815 814 806 793 784 779 775 764 749 746 742 734 719 708 695 686 676 668 655 655 655 645 643 640 637 634 624 622 620 613 612 611 611 610 610 609 605 599 604 606 603 602 589 578 577 576 575 574 574 574 574 574 574 576 573 567 567 566 562 559 554 547 547 541 546 558 561 562 568 573 580 596 620 635 633 631 631 631 631 630 629 629 628 628 627 627 625 626 629 637 647 658 670 675 674 659 654 657 659 664 668 669 668 658 649 654 661 666 660 650 646 642 635 630 628 627 627 629 629 631 631 631 633 634 634 637 646 652 661 673 683 698 706 706 697 692 702 719 733 739 742 743 
671 681 692 704 721 740 763 783 801 814 825 826 808 801 800 808 821 827 825 811 804 800 801 822 837 846 847 848 843 841 844 849 860 878 897 908 913 906 886 862 839 819 812 807 806 801 787 775 766 758 750 747 759 773 779 792 804 807 806 791 771 766 763 760 753 738 735 736 730 716 703 690 680 668 660 653 649 646 643 640 638 633 632 627 622 617 612 611 610 608 609 610 609 602 589 587 587 584 584 579 577 576 576 574 574 574 574 574 574 576 572 566 564 562 561 559 556 550 547 546 549 554 559 562 565 573 580 591 609 626 633 632 631 631 630 630 630 629 629 628 627 627 626 625 626 634 647 657 665 669 670 663 651 646 651 654 660 664 665 662 655 649 651 652 651 642 638 634 630 626 625 625 625 625 628 630 629 629 630 631 632 635 652 667 672 679 688 702 718 729 734 726 708 703 714 736 750 761 767 
669 679 690 703 726 744 762 781 799 813 822 815 799 786 783 789 806 818 817 807 797 789 791 809 824 831 832 833 830 830 832 842 856 875 889 896 901 896 882 864 841 818 812 805 804 801 787 775 767 757 743 740 750 762 774 785 800 803 801 779 764 757 751 747 739 733 730 727 721 709 695 682 669 659 654 651 648 645 642 638 633 630 628 626 624 617 616 611 608 606 609 604 594 587 579 577 577 577 577 577 576 576 574 574 574 574 574 574 576 571 566 563 562 561 558 556 550 546 546 551 555 559 563 571 582 591 603 618 629 631 631 631 631 630 630 630 631 629 629 628 627 627 626 626 626 636 649 658 660 661 658 654 646 640 646 653 656 656 656 656 652 642 642 641 636 628 623 621 622 622 622 623 623 624 626 627 627 627 629 633 640 653 670 680 691 700 708 718 730 744 751 752 741 726 721 731 750 771 788 
666 684 699 718 737 753 768 787 800 809 810 789 770 759 762 779 799 811 810 801 790 780 782 799 813 818 820 821 818 817 823 840 854 864 873 881 888 877 862 854 835 823 816 812 808 798 786 775 766 756 740 730 736 749 761 778 794 800 798 778 763 749 740 737 733 727 721 717 713 701 687 674 663 656 651 650 647 644 643 642 635 628 624 621 620 615 612 611 603 603 604 592 581 577 576 576 576 577 576 576 576 574 574 574 574 574 576 575 569 564 562 560 561 560 555 552 547 544 546 553 560 573 586 598 607 617 624 629 632 632 631 631 630 630 630 630 629 628 628 627 627 626 626 626 627 638 647 652 652 651 650 650 645 638 635 644 648 648 645 645 641 628 626 628 624 619 619 620 620 620 621 624 626 632 637 641 643 644 645 658 671 683 691 699 710 721 729 737 749 763 773 777 771 762 747 743 755 775 798 
669 681 704 724 735 749 764 781 793 800 792 769 745 736 740 755 782 797 798 791 778 767 777 793 804 807 809 808 804 804 816 839 849 852 861 869 875 857 844 837 828 823 820 810 800 791 782 772 764 757 743 727 725 741 756 772 787 796 798 790 773 756 741 731 726 719 713 709 699 689 680 670 663 657 651 648 646 644 643 645 636 630 623 618 615 613 610 609 602 600 596 585 577 576 576 576 576 577 576 574 574 574 574 574 574 576 574 567 564 562 560 559 557 556 553 547 546 546 550 559 576 595 614 623 626 631 633 632 631 631 631 632 631 629 629 629 628 628 627 627 626 626 625 624 626 638 645 648 647 645 643 643 643 642 639 638 635 634 630 627 623 617 617 617 616 617 618 619 619 619 622 631 637 641 648 658 669 674 671 670 683 698 710 719 729 740 751 761 770 781 791 797 798 787 772 762 769 784 798 
673 684 699 712 722 737 756 772 784 784 770 752 732 721 727 741 762 778 781 774 762 753 763 778 787 790 791 789 787 792 809 822 834 842 853 861 865 843 826 818 815 812 812 810 798 785 772 766 759 747 734 719 720 736 754 770 782 794 800 797 788 773 750 727 717 712 711 704 695 684 678 668 660 650 646 641 639 639 639 637 633 628 624 617 614 613 611 609 595 590 586 581 578 577 577 576 576 576 574 574 574 574 574 576 576 571 565 563 562 561 560 560 554 553 550 547 548 551 559 576 600 620 629 632 633 632 631 630 630 630 630 630 630 629 629 629 628 627 627 627 626 625 625 625 627 635 641 643 641 636 633 634 635 634 629 620 615 612 612 613 613 613 614 614 615 616 616 617 617 621 630 636 646 661 673 683 692 693 685 681 692 706 719 734 746 759 771 783 789 795 801 809 818 816 803 792 785 785 796 
668 672 680 698 718 736 752 766 774 774 760 738 722 712 716 727 746 760 764 762 747 736 744 761 770 772 768 770 779 792 803 812 821 836 844 851 854 832 810 800 798 796 797 798 798 781 763 759 752 742 728 714 714 731 748 762 776 791 798 797 790 775 754 734 712 701 701 701 697 687 677 668 658 652 646 640 635 634 633 632 629 625 621 615 614 610 608 607 597 586 583 580 579 577 577 577 576 574 574 574 574 574 577 574 568 563 562 561 560 559 560 557 552 552 546 546 549 558 578 600 619 632 631 629 631 631 630 630 630 631 630 631 630 629 629 628 628 628 627 627 626 625 623 622 623 630 637 639 637 633 629 629 625 617 611 609 609 609 609 610 611 612 612 613 614 615 615 621 629 639 647 655 667 679 692 704 708 706 694 690 700 716 726 739 752 766 777 787 795 802 809 817 828 838 839 827 810 795 798 
664 666 674 693 714 734 748 759 764 764 753 727 712 702 705 714 732 744 750 747 732 722 732 746 756 756 753 765 780 791 798 805 812 826 836 841 844 830 804 787 779 776 778 781 784 781 765 753 742 732 719 708 701 709 726 745 762 778 788 788 783 771 754 737 720 703 690 685 686 678 672 666 654 649 643 636 631 631 630 628 626 624 622 616 610 608 607 598 587 581 580 579 578 577 577 576 574 574 574 574 576 577 572 566 562 560 559 559 559 557 556 553 552 553 546 546 552 567 593 617 629 631 629 628 629 629 628 629 631 633 632 631 630 630 628 627 627 627 628 628 626 624 623 622 621 624 628 630 622 613 611 610 608 606 606 606 607 608 608 609 610 611 611 612 612 614 623 635 649 662 671 679 690 701 709 716 719 712 699 692 700 716 728 740 753 767 780 786 791 801 811 821 836 851 859 851 837 822 813 
659 664 672 692 715 728 740 750 755 757 747 725 712 696 695 706 723 736 740 735 720 715 728 739 743 740 742 755 766 776 786 797 807 820 827 829 832 828 812 795 773 757 754 759 767 773 772 754 736 724 715 704 693 695 706 724 746 760 772 772 770 759 750 737 722 710 695 677 674 670 665 654 650 646 640 633 630 629 624 623 623 623 617 611 607 605 594 585 578 578 577 577 577 577 574 574 574 574 574 577 575 569 564 561 559 559 559 558 558 557 554 552 551 548 545 545 555 576 600 622 632 629 629 628 628 628 628 629 630 632 631 629 630 630 628 627 626 626 626 626 625 624 623 621 619 621 622 614 604 603 604 604 604 604 605 606 607 607 607 608 609 610 611 612 614 624 638 651 669 685 692 698 709 719 724 727 726 721 713 707 703 712 725 737 748 763 781 786 791 804 814 826 839 857 870 867 854 843 829 
655 659 668 688 704 717 730 742 751 755 748 733 715 696 688 700 717 726 730 725 707 702 715 723 725 723 732 747 757 763 770 779 791 804 811 816 820 821 809 795 782 764 746 744 754 760 761 752 735 722 710 700 688 684 695 709 727 740 755 758 752 745 739 729 716 703 688 674 669 665 659 649 642 637 633 628 626 625 622 622 619 618 612 607 601 591 580 577 577 576 576 577 576 574 574 574 574 577 576 572 567 563 560 558 555 556 557 557 555 555 553 552 549 544 545 546 557 579 599 615 628 629 628 628 628 628 628 628 629 630 629 629 628 629 628 627 627 626 626 625 625 624 622 621 619 620 620 612 601 601 602 602 602 603 605 605 606 606 606 608 609 611 613 617 624 635 648 664 682 699 708 715 725 728 727 726 726 730 732 732 728 722 720 731 746 765 781 790 797 810 819 828 842 858 874 883 878 862 846 
653 656 663 679 697 712 728 740 754 763 757 739 715 693 683 696 705 708 710 707 693 688 697 704 706 710 728 739 749 755 762 768 778 790 799 808 813 816 808 794 785 778 761 743 735 740 742 738 729 718 704 694 688 688 699 716 731 740 750 750 743 739 732 718 702 689 676 667 660 655 648 639 635 632 626 623 624 623 619 616 612 612 609 604 591 582 577 577 577 576 574 574 574 574 576 576 574 571 567 564 562 559 557 556 556 556 555 556 556 553 553 553 544 544 546 546 557 579 599 619 631 628 628 627 628 627 628 628 628 629 629 628 628 628 628 627 629 627 628 626 625 623 622 620 619 618 617 606 599 600 601 601 602 603 604 605 605 605 607 608 610 618 626 630 637 652 670 683 699 713 723 729 737 739 733 730 732 737 746 752 754 749 736 735 745 762 780 792 802 811 823 835 851 866 879 891 893 884 872 
648 654 661 677 693 712 729 744 758 769 765 741 719 693 677 681 685 687 688 686 680 679 685 686 694 705 719 728 740 749 759 769 776 786 797 805 810 810 799 785 780 776 765 745 727 725 727 727 725 715 702 696 694 703 713 727 737 744 749 749 742 732 721 706 695 679 667 658 650 645 642 636 632 629 627 625 624 622 620 618 610 605 602 595 585 577 574 574 574 574 574 577 576 576 572 569 566 564 563 561 559 556 555 555 554 554 554 554 554 552 552 552 542 544 544 547 556 572 595 617 628 627 627 627 627 627 627 628 628 627 628 628 626 623 617 613 616 623 628 627 624 622 621 620 616 609 606 599 598 599 600 600 600 602 603 603 603 605 607 610 619 624 628 633 639 653 671 688 707 723 735 743 750 753 748 744 744 745 752 760 768 769 764 763 760 760 774 789 803 814 827 846 862 875 888 903 911 905 892 
644 651 666 681 695 712 728 743 755 758 757 740 714 688 672 666 671 677 678 672 661 668 676 679 685 694 704 714 725 735 746 764 775 785 793 800 801 796 787 779 774 766 757 744 724 714 717 716 715 705 695 690 691 707 721 734 744 751 751 745 735 722 707 695 681 668 659 651 644 641 637 634 630 628 626 626 625 624 622 618 613 612 607 589 579 576 574 576 576 576 574 572 570 569 566 565 563 564 564 559 558 557 554 553 552 553 553 553 552 551 550 544 542 544 543 549 555 567 587 611 620 627 626 626 626 627 627 627 627 627 626 622 616 609 606 597 596 602 609 618 621 621 620 619 617 606 598 597 598 598 598 599 600 601 601 603 605 606 611 617 625 631 634 638 642 649 660 675 694 713 728 741 751 754 758 760 764 760 762 768 774 778 778 779 777 770 775 788 804 816 832 850 867 881 894 912 922 922 911 
642 649 662 677 689 704 722 732 738 737 735 733 713 692 676 664 661 668 671 669 662 660 664 672 683 695 703 710 718 727 736 747 762 776 784 786 782 782 781 775 766 758 746 730 721 710 705 706 706 699 689 684 691 704 723 742 748 747 736 725 717 702 688 682 673 666 653 647 641 638 635 632 629 627 625 625 624 624 622 618 613 610 601 583 579 576 573 571 570 569 568 569 567 566 561 558 559 561 562 559 557 554 552 552 550 552 553 552 551 549 545 542 542 543 544 549 556 571 588 603 623 627 626 626 626 626 626 626 626 627 619 609 598 590 585 583 585 588 597 606 616 619 619 619 615 604 596 596 596 598 600 601 602 602 604 606 609 611 616 624 634 647 657 662 662 661 660 665 679 697 716 728 736 747 760 770 778 776 775 778 784 787 786 785 783 778 781 790 802 818 834 849 861 879 895 915 929 935 931 
642 654 664 674 684 696 712 720 724 720 719 720 713 699 682 665 656 655 659 659 654 651 656 662 671 683 695 706 715 723 733 744 756 771 778 778 771 769 770 766 752 734 726 720 714 706 697 697 695 689 685 682 692 708 723 739 744 737 723 711 696 686 679 673 668 660 652 646 638 635 633 628 626 625 624 623 623 622 621 617 611 607 593 579 578 572 567 567 567 567 566 567 563 558 556 555 555 556 558 556 553 550 549 550 550 550 552 552 548 548 541 540 543 544 546 551 557 572 586 603 620 625 626 625 625 625 626 626 627 623 607 589 582 581 581 582 582 584 587 593 602 612 617 617 611 600 595 595 597 602 608 614 614 612 612 614 617 624 635 648 657 663 670 674 676 674 674 675 679 687 704 718 727 734 754 769 786 790 792 790 793 796 793 793 794 792 792 801 815 826 835 845 856 871 888 908 926 942 944 
640 654 673 685 688 697 707 712 709 703 705 710 709 697 682 671 660 647 642 639 635 638 644 651 661 673 690 707 717 725 736 745 755 768 772 774 767 758 760 761 752 728 717 708 705 698 692 683 677 675 674 675 687 709 729 738 739 730 714 703 687 679 672 665 660 653 649 643 636 632 631 628 626 626 625 622 621 620 618 613 609 606 587 576 577 569 562 564 564 565 564 561 556 554 554 554 554 553 554 552 550 548 548 549 551 552 551 548 547 545 540 541 543 544 547 554 563 574 589 603 617 625 627 625 624 625 626 625 622 610 590 579 579 580 581 583 583 583 585 588 594 601 602 600 598 595 594 597 604 618 633 638 641 636 630 629 634 644 654 662 667 674 682 685 691 691 693 692 689 685 691 706 720 734 754 766 780 791 798 803 802 805 805 806 815 817 813 808 818 836 851 860 862 867 879 899 919 936 952 
637 653 674 683 681 681 692 696 695 689 694 705 707 699 685 670 658 641 637 636 633 638 648 657 666 677 691 704 715 726 737 749 758 763 764 764 758 756 754 755 748 729 714 705 702 693 687 679 671 664 663 665 675 701 721 729 731 719 705 692 676 669 664 659 654 649 643 637 633 629 629 629 626 625 624 622 621 619 615 609 607 600 581 578 578 564 559 559 560 560 558 556 554 553 553 554 553 550 548 549 549 549 549 551 551 549 547 546 547 543 539 542 544 544 550 561 570 579 585 598 615 622 626 624 625 626 622 619 609 592 579 577 579 580 581 583 586 585 585 587 592 592 591 592 594 598 603 610 624 641 655 658 657 649 645 647 653 662 669 673 681 688 694 697 701 701 702 703 699 692 690 696 706 723 741 750 761 769 786 799 809 817 819 821 830 836 839 835 829 839 856 871 881 890 899 902 910 922 945 
634 655 672 674 669 667 676 682 682 678 685 697 700 695 685 669 656 641 632 627 628 639 653 665 674 682 694 704 713 721 734 747 754 754 752 751 750 748 750 741 741 727 708 700 702 696 686 679 671 658 653 663 678 698 709 717 717 705 694 673 665 660 654 652 648 643 637 634 629 628 627 626 625 624 624 622 621 618 612 607 605 591 577 577 572 559 558 558 557 556 556 554 553 553 552 551 549 545 546 548 552 549 549 549 549 548 548 548 549 543 540 543 544 546 557 565 573 581 587 601 616 625 624 623 622 620 617 611 595 579 576 576 578 579 582 588 593 587 585 589 593 591 592 597 600 609 622 636 646 654 663 670 669 666 662 665 673 679 682 688 699 709 711 708 706 708 709 711 712 708 708 711 709 712 722 736 751 760 773 785 800 814 823 826 830 839 848 853 850 848 857 874 891 906 919 927 934 937 939 
632 654 663 663 660 658 663 667 666 664 676 688 691 686 681 667 654 636 628 630 636 648 660 672 678 681 684 696 713 725 735 742 745 746 744 742 739 736 732 726 728 724 712 702 700 697 689 683 679 671 661 661 670 686 699 701 699 688 674 659 655 650 648 645 641 637 634 631 629 627 626 624 623 622 623 622 619 614 608 607 605 591 577 576 567 558 558 556 555 554 552 552 550 546 540 539 540 543 546 547 547 545 547 548 547 548 549 549 547 541 540 542 545 553 560 569 577 582 593 607 613 615 614 613 609 608 603 588 576 574 575 576 578 585 598 607 609 602 588 587 589 590 594 596 603 623 639 650 656 665 672 680 684 684 683 686 689 691 695 705 719 726 729 721 715 713 715 718 722 724 725 724 721 718 722 734 744 753 763 777 786 801 813 824 834 842 851 862 866 861 860 881 900 912 922 936 950 959 962 
631 644 650 652 650 649 650 652 652 651 663 676 679 676 675 663 645 622 622 628 649 660 664 668 670 674 679 686 699 717 730 732 732 734 732 729 729 725 718 716 720 721 716 708 701 694 685 678 673 672 666 659 657 670 685 688 683 666 657 651 645 644 641 638 636 632 630 628 627 625 624 623 622 622 621 618 615 609 606 605 602 583 577 577 565 556 554 554 553 553 545 538 535 531 531 531 533 537 541 541 541 542 545 546 547 548 548 548 546 541 540 543 549 562 572 575 580 585 595 606 608 608 609 601 590 583 578 573 573 574 575 577 585 598 608 614 618 618 609 600 596 597 595 597 600 611 632 648 659 667 675 684 691 694 698 703 706 711 720 733 738 737 734 728 724 722 723 726 729 733 737 736 730 733 740 746 752 756 763 779 792 804 820 835 850 859 867 875 880 876 874 886 905 920 934 950 963 975 982 
627 630 630 634 635 636 639 639 639 640 657 667 667 666 665 658 641 619 617 623 645 649 643 640 649 664 675 685 692 706 718 722 724 724 723 722 723 716 708 703 705 710 710 711 706 697 685 669 666 667 661 655 650 660 673 675 667 653 649 640 638 637 635 632 630 628 626 626 625 623 624 622 623 623 619 616 612 607 605 604 598 578 577 571 559 554 553 552 552 551 537 530 530 531 531 531 532 534 539 541 541 541 543 544 545 546 546 545 543 540 541 550 561 572 581 584 586 595 602 605 605 603 598 584 574 572 572 572 574 575 577 584 595 605 611 617 623 630 635 634 631 628 625 620 613 611 623 645 655 661 668 674 678 688 703 718 725 734 748 756 755 749 744 740 735 732 733 736 739 743 746 744 745 751 757 759 762 762 768 779 799 814 826 842 859 872 882 889 894 893 891 899 908 916 931 952 970 987 999 
622 621 618 615 614 615 624 626 628 636 647 653 652 655 659 656 640 618 613 618 634 634 628 629 637 659 677 689 702 715 717 716 716 717 717 716 718 715 705 698 691 696 701 705 699 688 675 663 662 664 658 652 642 649 663 666 659 645 636 633 632 631 630 628 627 625 624 623 624 622 622 622 622 619 617 614 609 604 604 603 592 577 576 565 554 552 552 551 551 543 531 529 533 539 541 540 532 532 536 538 540 541 542 542 543 543 543 544 539 540 547 563 575 589 594 594 597 602 604 605 596 586 578 572 570 571 570 572 573 584 595 601 606 609 616 621 629 638 648 654 652 649 648 644 633 619 616 629 638 641 647 653 661 675 691 709 726 742 763 767 764 759 755 756 756 752 749 751 753 754 759 762 769 777 780 780 772 769 772 778 800 816 834 851 867 884 897 902 905 907 904 911 921 928 937 950 966 984 1001 
619 618 616 613 611 609 609 609 614 622 629 633 636 643 652 651 640 618 606 606 615 617 615 620 635 651 668 687 705 714 710 706 705 707 707 708 711 713 710 701 688 688 694 694 689 681 669 658 656 656 654 644 632 641 655 661 659 642 630 629 629 628 625 625 626 625 623 622 622 623 623 622 621 618 615 611 605 604 602 595 578 577 573 560 553 551 550 550 549 541 529 529 537 541 543 544 542 534 535 536 539 540 540 540 541 542 544 543 540 540 557 578 588 596 595 593 594 596 596 591 577 571 569 569 569 570 570 573 583 598 610 610 613 615 621 632 645 653 660 669 672 669 665 660 648 632 621 622 625 629 634 637 642 657 676 691 706 725 752 768 776 777 779 781 781 777 770 768 765 766 769 773 786 792 795 790 784 783 784 790 803 818 834 848 868 889 905 917 922 923 918 920 928 940 951 962 973 985 995 
616 615 614 612 610 606 604 603 602 603 606 609 620 628 637 640 636 620 605 602 603 604 602 611 631 648 664 685 703 707 704 697 693 695 696 700 704 708 706 698 685 675 677 680 681 674 662 652 651 652 650 637 625 629 644 647 651 634 626 625 625 626 625 627 628 627 625 619 621 623 622 622 620 617 612 608 604 603 597 586 575 575 568 557 552 551 549 548 547 536 529 529 539 542 544 545 547 539 535 535 537 541 541 542 542 543 543 540 541 552 576 596 605 607 601 591 584 579 575 569 568 567 567 568 569 569 571 582 602 615 622 620 619 622 633 648 658 667 672 678 682 684 682 675 666 652 641 637 640 646 649 649 643 648 656 672 685 704 731 753 769 776 778 781 786 790 786 783 783 784 784 789 797 806 811 810 805 802 804 812 820 833 848 857 870 891 911 930 940 936 931 931 936 948 963 974 984 992 999 
612 613 611 609 607 605 602 601 599 598 595 594 601 613 618 622 621 615 605 599 598 600 608 623 636 648 656 666 678 696 696 691 687 685 687 694 702 702 703 698 685 667 661 666 667 662 655 649 648 647 646 639 621 620 631 640 635 626 623 625 626 627 627 626 625 624 622 617 621 622 621 621 619 615 610 605 604 602 598 582 576 573 561 553 551 550 548 547 546 533 528 533 542 544 545 546 547 544 536 534 535 540 543 544 543 543 541 539 547 569 594 604 605 605 596 589 576 568 565 566 566 566 566 567 568 570 580 598 615 620 623 624 622 625 636 651 664 672 676 679 683 686 689 687 676 663 653 650 657 663 664 657 647 647 652 655 669 686 708 734 750 757 759 762 770 784 795 800 805 804 802 807 814 821 825 828 829 829 827 829 836 847 861 874 883 896 916 938 951 948 941 940 946 956 969 981 991 999 1007 
610 610 609 607 605 603 601 598 598 598 596 593 589 587 591 595 595 598 600 596 595 597 598 616 628 636 641 651 663 673 678 679 675 674 675 680 686 692 695 693 687 668 650 651 651 645 638 638 638 635 634 626 617 619 628 632 628 626 626 627 628 628 628 627 626 623 620 619 622 622 621 620 617 612 607 604 603 601 598 583 575 569 558 552 551 549 547 544 538 530 528 537 543 545 545 546 549 550 540 536 535 535 538 542 541 540 538 543 561 584 602 603 603 598 587 577 566 564 564 565 564 565 566 567 569 578 598 610 617 617 617 622 627 631 638 651 662 669 674 679 683 687 692 694 685 673 664 665 675 680 678 665 655 659 664 663 663 671 689 711 729 739 741 746 757 772 793 809 823 825 825 826 832 837 839 842 846 848 848 851 855 860 872 885 898 906 920 941 958 960 956 953 958 967 977 990 1002 1010 1020 
607 607 605 604 602 601 599 598 596 594 590 583 580 580 584 589 593 597 597 593 589 591 591 594 608 618 623 634 643 650 657 663 663 663 664 667 672 677 678 679 676 670 651 636 633 626 618 617 617 616 615 619 632 638 635 631 629 628 629 629 629 629 629 628 626 623 620 621 622 621 620 618 615 611 605 603 602 601 596 577 575 566 555 552 550 548 546 541 532 528 528 538 541 541 542 547 554 561 555 545 542 538 536 537 537 538 545 565 585 599 602 598 591 584 574 566 562 563 563 563 564 566 568 571 578 586 590 600 611 618 623 629 631 634 639 651 661 673 676 681 686 690 697 704 700 688 681 681 688 693 688 679 673 672 673 673 670 670 676 691 710 720 726 732 745 763 783 802 820 833 841 845 850 855 857 859 863 868 871 872 872 875 883 897 911 919 932 952 969 973 971 969 972 979 990 999 1012 1029 1046 
604 602 602 602 600 598 596 590 584 579 576 575 576 579 583 586 589 591 593 590 586 587 587 585 585 591 605 617 627 634 643 649 652 652 654 656 657 659 661 661 662 663 659 637 615 601 601 603 606 615 627 638 647 642 635 632 630 630 630 630 630 630 629 627 623 620 618 621 622 621 619 616 612 606 602 602 602 601 592 577 574 563 554 551 548 547 547 542 538 527 527 533 539 540 541 545 560 569 576 573 566 552 542 538 543 554 570 589 600 601 599 589 579 573 564 561 561 561 562 564 567 573 579 585 593 599 601 602 609 620 631 640 644 644 644 649 661 672 676 682 688 694 702 712 714 709 705 702 704 705 700 694 692 687 684 682 682 681 678 677 686 697 707 718 732 751 769 787 805 825 841 849 855 861 865 868 873 879 885 887 888 890 897 913 930 940 952 963 977 986 987 987 989 995 1003 1011 1027 1043 1064 
602 600 599 599 597 591 581 577 576 575 575 574 574 576 578 581 582 582 581 579 578 583 584 583 582 579 583 595 606 617 631 638 641 642 644 646 645 645 648 648 651 655 650 629 604 603 616 621 628 644 656 662 656 643 637 633 632 632 632 631 630 630 629 628 621 618 616 618 618 618 616 613 608 604 602 601 601 599 586 578 573 560 552 549 547 546 547 548 543 527 527 527 545 543 542 543 559 570 579 582 579 561 552 552 557 564 574 585 591 596 594 582 574 569 560 559 561 565 571 583 588 590 593 598 606 612 613 617 614 619 635 646 652 655 657 656 661 670 676 681 689 697 707 719 730 733 726 720 717 717 711 701 697 696 697 696 695 692 692 692 687 685 688 704 721 739 755 775 792 812 824 834 842 846 851 861 870 878 888 895 901 908 916 929 942 954 961 970 978 988 999 1003 1006 1008 1013 1023 1040 1062 1081 
597 597 594 590 584 579 577 577 575 574 574 574 573 572 571 571 570 569 569 571 573 575 578 579 579 578 576 574 579 595 614 622 625 631 637 636 634 634 634 637 641 642 633 620 609 616 634 652 667 680 683 682 668 651 641 635 633 632 631 631 631 630 630 629 621 616 613 611 612 611 611 610 603 601 601 601 600 596 581 578 571 557 551 548 546 545 546 543 535 527 527 540 546 547 548 547 547 550 556 558 558 553 550 549 550 552 556 563 567 571 577 574 570 561 559 562 571 582 594 600 602 606 609 612 615 618 620 624 622 620 633 649 659 664 668 668 665 669 677 683 692 701 713 726 740 741 732 725 723 721 716 710 710 709 706 706 709 708 704 702 699 692 687 693 708 723 742 763 780 796 807 816 823 828 834 846 854 863 875 886 899 909 920 930 941 949 954 960 967 979 987 1002 1012 1018 1025 1038 1053 1066 1089 
590 586 581 579 578 578 576 576 575 574 573 573 572 571 570 569 568 568 567 569 570 568 570 572 574 574 573 570 570 583 604 609 616 622 627 625 624 621 618 618 623 621 617 612 617 633 654 675 692 691 690 686 678 660 646 637 635 633 632 631 631 630 630 628 623 619 617 616 615 612 609 605 600 598 600 600 599 587 579 577 566 554 550 547 545 543 541 535 529 526 526 543 547 550 554 554 548 544 545 546 547 547 548 549 550 551 552 554 554 556 558 559 557 558 561 568 578 588 597 605 612 614 612 614 619 624 628 633 638 637 638 649 662 668 673 679 679 678 681 690 696 705 717 731 744 748 743 738 737 731 724 723 720 717 715 715 719 722 720 715 711 705 699 693 695 708 729 749 765 777 788 798 804 810 818 825 834 847 858 872 887 897 907 918 927 933 937 943 952 959 971 981 993 1003 1020 1031 1044 1060 1080 
580 579 578 577 577 576 575 574 574 574 574 574 572 571 570 569 568 567 566 567 568 566 565 565 567 569 568 566 565 567 580 594 602 607 614 615 614 612 600 598 602 599 601 607 625 651 668 682 689 689 688 687 681 663 650 641 636 636 632 631 630 629 628 628 629 629 627 623 619 616 612 605 603 600 598 595 593 581 579 575 561 553 548 546 544 542 537 531 526 526 526 545 550 559 561 560 557 549 546 546 547 548 552 556 559 562 565 562 556 553 554 555 556 562 571 585 596 601 602 605 608 613 617 621 624 628 634 645 655 656 649 647 658 669 677 683 690 690 689 692 697 706 716 728 743 755 758 752 748 743 736 732 729 726 725 727 729 730 728 721 715 707 709 700 693 699 714 731 747 761 770 773 780 789 800 812 825 840 855 866 876 884 894 903 909 913 915 920 930 941 954 967 977 992 1008 1027 1037 1048 1064 
580 580 584 591 595 594 590 585 576 574 572 572 572 571 570 569 568 566 565 565 565 564 563 563 563 563 563 562 562 561 563 573 583 594 603 607 606 603 585 578 583 588 602 616 637 665 678 683 687 687 686 684 682 673 658 643 640 641 635 631 631 630 629 629 632 633 630 623 615 610 608 604 602 601 601 594 580 575 575 565 555 551 547 545 543 540 533 528 525 525 536 546 552 557 559 561 563 563 557 552 554 559 569 578 583 584 589 589 585 572 565 566 572 580 588 596 604 609 613 619 621 620 623 625 626 630 646 655 661 662 658 652 654 658 674 687 696 698 700 705 714 722 727 730 745 765 769 763 759 756 751 744 740 737 736 737 740 738 733 728 724 721 725 718 700 702 705 713 727 739 745 753 764 777 794 811 826 840 847 853 859 873 883 886 888 893 895 899 907 921 937 953 964 978 996 1016 1023 1035 1051 
602 607 611 612 613 613 611 606 602 597 593 586 579 572 568 567 567 566 566 565 564 563 562 562 561 560 560 560 559 559 559 561 570 582 596 599 599 595 581 575 578 588 609 624 639 663 676 681 684 687 686 683 681 677 663 650 644 645 645 637 633 632 631 633 635 635 632 623 620 616 608 604 602 601 601 600 586 574 567 558 551 547 544 543 541 535 529 526 525 525 542 548 553 557 560 564 564 565 565 565 577 592 600 601 600 604 610 610 607 603 600 598 601 605 604 602 607 613 617 623 626 623 624 628 634 643 655 661 664 662 662 661 664 672 680 689 699 705 711 720 729 739 742 745 761 769 778 773 765 760 759 755 748 744 746 747 747 743 738 734 732 733 735 730 721 714 714 715 716 720 726 738 755 772 788 800 814 824 831 835 848 867 872 869 866 871 874 878 889 905 920 934 948 959 980 997 1010 1022 1037 
641 641 633 627 619 617 618 614 616 618 617 615 612 602 591 584 578 576 573 570 566 563 562 561 559 558 558 558 559 558 558 558 560 565 571 576 580 583 574 573 577 588 606 621 636 656 672 679 682 684 684 682 681 676 665 656 657 661 662 659 656 656 652 651 648 645 641 638 635 628 614 605 602 599 599 599 591 578 576 568 555 550 544 540 537 530 528 525 525 525 545 549 552 557 561 562 563 566 571 578 593 612 618 620 619 620 619 617 611 611 612 612 612 614 614 614 615 621 625 630 633 637 642 647 651 654 657 659 664 665 666 670 673 677 685 693 703 710 720 730 742 753 760 766 779 787 789 781 772 768 765 761 753 751 754 753 750 745 744 747 748 748 745 742 739 734 740 741 734 730 733 738 744 755 768 781 795 803 810 823 843 858 861 856 849 851 857 868 882 895 909 919 934 950 970 989 1004 1017 1030 
669 662 654 645 636 626 626 625 628 630 627 623 623 619 616 613 607 598 594 592 589 584 574 569 563 559 558 558 557 557 556 556 557 560 563 566 570 575 573 573 578 586 609 632 648 657 665 674 678 680 681 681 678 671 664 669 677 685 689 688 686 683 678 674 664 649 638 630 624 615 607 604 599 598 598 598 595 583 579 574 560 551 545 539 531 527 527 524 524 541 545 549 551 556 560 561 563 565 569 576 591 609 613 616 617 618 618 621 621 624 624 622 619 620 622 623 628 634 642 648 652 652 654 658 659 657 654 655 661 661 666 672 678 683 689 698 706 714 723 733 746 760 773 786 799 797 793 785 779 776 771 770 770 769 765 762 758 758 766 769 765 761 758 762 760 754 759 763 757 747 750 755 757 758 760 767 780 792 808 824 836 841 843 839 836 843 856 875 890 905 918 929 943 958 973 987 1007 1020 1031 
694 684 677 673 660 643 640 640 643 644 638 635 636 637 635 629 625 619 612 604 600 595 587 578 573 569 566 565 564 561 556 554 558 561 568 581 596 600 591 579 582 588 606 630 642 648 657 665 673 677 679 680 676 671 669 677 684 690 692 690 686 682 671 661 647 633 618 610 606 603 601 600 598 597 598 598 594 584 578 576 562 551 545 538 529 528 524 524 535 541 545 548 550 555 559 560 562 565 571 577 586 595 602 608 608 609 613 617 619 623 630 639 645 647 647 648 651 656 661 665 663 660 657 656 654 655 661 665 663 663 668 674 681 688 694 702 711 720 729 741 755 765 772 791 804 805 801 795 791 787 784 784 784 784 784 782 774 776 781 781 776 772 777 783 781 780 783 781 768 756 759 769 772 770 768 769 774 785 799 812 821 823 823 825 836 852 868 885 903 918 926 938 949 964 974 986 1011 1026 1040 
717 705 698 693 678 670 669 672 672 667 658 657 660 660 653 650 649 644 637 632 627 624 616 600 584 577 573 569 567 564 556 554 553 565 581 599 615 612 602 595 597 601 610 620 627 631 637 646 657 668 674 676 675 673 674 678 682 686 687 685 680 675 663 649 637 623 607 602 600 600 600 598 597 597 597 597 596 588 578 576 563 554 546 535 528 529 523 523 538 541 543 547 550 553 557 559 563 574 582 585 588 594 599 604 606 606 610 613 615 620 633 649 657 661 664 666 667 667 666 663 657 650 647 646 647 649 654 662 668 669 672 677 685 692 700 707 718 728 736 746 755 770 784 801 810 814 814 809 805 808 813 815 809 801 796 792 791 790 790 791 787 787 794 798 793 792 795 789 777 767 763 773 780 781 784 788 785 783 788 796 803 808 815 831 847 868 885 900 915 927 936 947 951 966 976 993 1011 1024 1040 
734 723 713 704 690 689 692 696 699 694 687 685 686 683 674 669 667 665 662 657 653 649 641 628 612 593 584 582 580 576 560 557 561 572 587 600 606 602 601 599 602 606 613 615 609 612 621 635 647 655 663 667 671 674 677 679 680 682 681 676 674 669 656 640 629 614 603 600 598 599 599 597 597 597 597 597 595 588 579 579 574 559 549 533 528 527 523 523 535 540 542 545 547 552 556 560 567 577 584 586 589 595 599 602 605 604 608 610 613 617 627 645 656 662 664 667 668 664 658 649 643 640 640 642 646 653 659 664 668 670 674 680 688 697 704 712 722 731 743 754 765 786 805 819 825 831 836 836 837 838 837 833 823 816 814 811 804 802 803 803 805 808 812 812 808 806 806 801 791 782 772 773 786 790 796 807 808 807 802 798 800 808 818 831 846 864 879 893 908 922 937 948 962 965 976 989 1007 1021 1042 
735 726 715 704 697 699 701 707 709 709 702 698 696 696 696 692 687 686 684 681 678 671 660 648 636 627 623 622 615 596 571 561 565 576 584 588 590 589 591 594 597 602 608 610 609 614 621 633 646 655 661 665 671 674 678 678 678 679 676 667 659 651 642 631 617 605 601 599 598 597 597 597 597 597 598 598 595 589 578 578 577 567 552 539 533 530 523 523 523 530 537 542 545 550 554 557 566 580 588 591 592 595 600 604 606 604 604 607 611 615 622 637 646 651 657 659 654 646 638 632 630 634 638 642 650 659 666 668 672 674 677 683 692 701 709 717 726 735 747 763 782 802 816 835 848 862 871 872 867 860 854 852 842 834 827 820 817 816 818 821 824 827 830 828 823 825 823 815 806 792 778 779 791 798 803 817 822 821 815 807 810 822 828 832 838 850 864 878 893 909 924 943 958 972 985 997 1012 1025 1044 
732 724 715 703 700 703 708 716 724 726 723 719 715 714 716 713 710 708 707 703 699 690 681 674 667 661 656 651 640 613 582 563 560 570 575 577 578 580 583 585 589 595 602 602 606 614 623 638 649 657 663 667 673 676 677 677 674 673 665 653 645 635 627 619 607 601 600 597 597 597 597 596 596 596 596 598 596 591 581 577 578 573 567 566 555 545 545 523 522 522 530 538 542 546 551 555 561 573 587 592 594 598 604 607 608 610 610 608 608 612 617 624 634 640 643 641 635 627 627 627 631 635 639 645 655 665 670 672 675 679 684 689 698 707 715 728 744 752 761 774 797 812 824 840 858 878 891 892 886 879 873 866 851 840 831 831 833 836 839 842 847 850 848 840 838 839 837 826 814 802 794 792 798 806 812 824 830 828 821 817 819 832 844 853 860 863 867 879 895 912 930 945 958 968 981 1000 1015 1025 1040 
735 722 718 712 710 714 720 728 736 742 742 740 741 742 740 735 730 723 713 710 709 706 702 698 692 681 670 655 641 617 589 563 557 565 572 573 575 578 580 583 586 592 598 602 608 616 625 636 650 660 664 668 672 674 674 671 663 658 647 643 636 624 617 608 601 600 597 597 597 597 598 597 596 596 597 596 597 594 589 579 576 577 578 579 576 564 557 543 522 522 522 534 541 543 547 552 558 566 571 583 592 600 608 610 610 612 612 611 609 608 611 615 621 625 626 625 621 621 626 627 631 636 640 646 654 666 674 676 680 684 688 694 704 713 724 746 762 772 778 785 804 820 835 852 869 892 912 912 902 889 879 869 858 850 849 850 853 859 866 872 875 869 862 855 853 848 842 827 818 815 813 809 809 815 823 839 845 842 834 826 826 835 852 870 878 883 887 893 901 914 938 950 960 969 978 994 1011 1023 1033 
740 733 730 725 723 727 740 752 760 766 767 765 763 760 752 742 733 720 712 709 705 702 700 693 686 672 660 648 633 610 589 560 553 557 562 568 571 575 578 581 585 587 592 597 604 611 621 634 646 656 662 666 669 669 666 657 650 640 640 637 625 613 607 601 601 599 597 597 597 598 597 596 595 595 596 597 597 597 593 589 583 578 578 580 579 568 555 550 532 522 521 528 539 541 543 550 558 561 567 579 592 603 611 612 611 613 613 613 612 611 611 612 614 618 619 615 618 621 626 629 633 637 642 647 655 666 674 679 684 689 693 701 712 731 748 765 783 798 800 802 814 830 848 863 883 905 924 920 906 893 882 874 872 875 876 875 878 885 893 897 895 888 880 879 869 858 846 829 828 829 827 822 820 824 835 851 856 855 849 845 840 841 854 878 894 905 910 912 915 923 939 954 963 971 976 986 1010 1023 1029 
762 757 754 752 750 756 764 773 781 786 786 785 780 771 757 741 723 708 697 689 687 686 686 683 674 659 649 638 625 609 585 556 551 554 556 558 563 570 576 580 581 584 590 595 600 607 617 628 640 651 658 661 664 661 657 642 630 628 626 622 616 607 603 602 601 598 597 596 597 597 597 596 595 595 596 597 596 595 594 594 593 589 578 577 579 568 555 548 542 521 521 521 534 540 542 546 552 557 564 583 599 607 611 610 611 612 613 613 613 613 613 613 614 616 613 611 616 625 629 630 634 638 644 651 657 662 667 672 680 687 697 706 722 742 753 772 786 800 812 821 830 841 857 873 892 916 929 931 921 910 899 895 898 903 903 898 901 911 916 915 911 906 900 892 885 872 859 848 845 843 838 835 833 834 845 863 866 864 862 858 851 851 860 881 901 919 931 933 933 935 942 960 970 976 990 1002 1015 1029 1027 
787 786 786 782 779 780 784 789 793 796 794 790 784 777 765 748 727 704 680 669 664 664 665 663 657 648 639 629 618 601 580 553 548 551 552 554 555 562 569 574 578 581 586 592 597 603 611 622 635 644 651 655 657 655 649 636 633 627 615 609 606 603 603 602 600 597 595 596 596 595 594 594 594 594 595 597 597 595 594 595 595 592 581 578 577 563 551 546 542 535 521 521 520 533 541 544 551 557 563 571 588 602 608 609 611 612 613 613 613 613 613 614 614 612 610 616 621 625 629 631 636 643 649 656 658 662 664 671 677 685 695 705 719 732 749 761 775 789 805 822 836 850 863 877 897 918 934 940 939 930 924 920 923 928 926 920 923 931 934 929 921 917 909 902 893 882 866 858 852 844 844 843 844 845 854 866 877 878 874 873 869 865 868 883 903 926 947 952 953 954 959 969 979 987 1004 1018 1027 1029 1031 
808 809 810 805 802 801 800 802 805 803 798 791 785 773 764 752 733 713 689 660 651 646 643 638 633 629 626 620 611 595 567 548 547 548 550 550 552 555 559 567 572 578 581 588 594 600 607 617 626 632 642 650 651 650 646 635 621 612 609 603 602 601 599 598 599 597 597 597 597 596 595 594 594 594 593 593 594 597 595 594 594 589 583 580 577 564 551 547 542 539 533 520 520 531 539 541 549 558 565 570 582 600 608 611 613 613 611 612 612 612 612 612 610 606 607 612 621 624 625 629 634 640 646 652 658 664 668 674 679 687 697 709 717 726 740 748 765 774 790 806 823 847 864 883 904 919 932 943 948 947 945 942 943 946 943 939 940 949 953 944 937 930 919 913 904 890 877 863 854 850 852 853 854 857 866 880 891 891 887 885 882 878 879 887 904 926 948 963 970 973 976 981 991 1003 1018 1026 1033 1035 1034 
829 832 833 829 827 829 831 824 817 808 802 788 780 770 759 745 728 705 678 660 648 641 633 624 617 616 615 609 599 582 561 549 546 547 548 548 547 549 553 558 565 572 577 582 588 596 606 615 625 631 641 647 648 647 639 623 610 607 604 603 603 600 597 596 597 597 599 598 596 594 594 595 595 594 594 593 593 593 593 593 590 584 582 583 574 560 553 549 545 540 537 527 520 520 531 540 545 552 563 576 592 607 612 611 611 609 610 611 610 609 608 606 604 604 605 613 625 624 623 627 632 640 647 653 658 665 671 678 686 691 703 722 741 746 749 755 773 783 793 810 831 859 874 891 908 928 945 956 965 970 968 963 963 965 963 960 962 967 967 961 948 937 927 914 904 889 875 868 860 857 859 861 862 870 886 895 904 906 910 908 902 893 897 901 907 924 946 961 972 988 990 998 1004 1018 1029 1039 1043 1040 1031 
853 854 852 850 849 847 840 827 819 810 798 784 773 759 741 728 712 691 666 656 648 640 629 619 611 605 597 588 577 568 561 551 546 546 547 547 546 546 547 550 557 569 576 579 582 593 604 617 628 635 642 646 646 638 620 611 604 603 602 602 601 598 597 596 598 600 599 597 595 595 595 594 593 592 591 593 594 593 593 591 584 582 580 578 568 563 551 545 542 540 538 537 519 519 524 536 543 549 560 575 600 607 606 609 611 610 610 611 610 602 600 600 602 604 606 612 618 620 624 630 638 647 655 662 669 675 683 690 696 703 717 733 750 764 769 768 774 797 811 826 846 872 887 902 917 935 950 962 977 989 988 986 988 989 985 982 981 976 971 964 956 939 930 916 903 893 885 878 869 867 867 868 870 880 894 909 917 924 929 930 924 910 913 920 923 934 954 962 973 995 1004 1012 1020 1029 1038 1043 1043 1040 1028 
880 880 878 872 863 852 838 821 812 801 782 764 755 742 725 711 697 673 657 652 646 637 633 627 616 605 597 589 579 569 561 551 546 545 545 547 547 546 546 547 553 561 573 578 580 590 600 612 628 634 641 643 643 633 611 602 599 599 600 599 598 597 598 596 597 596 597 597 595 594 593 591 591 591 591 592 593 592 592 586 581 587 579 572 566 560 549 546 543 542 542 538 529 519 519 531 541 554 575 588 603 605 605 608 609 610 610 610 604 599 603 604 603 604 606 611 618 623 630 637 646 655 664 672 680 686 694 700 707 717 725 736 751 770 783 788 787 795 810 827 849 874 891 911 930 952 962 972 986 1000 1007 1008 1011 1011 1005 998 991 984 977 966 956 946 933 920 910 905 896 887 880 878 876 878 881 888 899 909 927 938 946 950 940 926 929 939 949 955 966 980 989 1000 1012 1021 1031 1043 1049 1052 1048 1040 1024 
888 883 879 872 861 848 833 816 802 787 771 754 744 732 718 701 686 663 657 652 648 644 638 634 621 609 602 594 588 574 561 551 545 544 545 546 546 546 545 544 548 557 571 575 578 581 593 609 623 630 637 639 635 621 604 598 598 600 599 598 597 595 593 593 595 597 595 593 592 591 592 591 590 591 591 593 592 592 590 582 577 580 579 572 562 550 545 545 546 543 541 540 536 519 519 527 545 570 593 602 602 603 605 607 608 610 609 608 607 609 608 608 608 609 612 615 619 625 632 643 655 664 670 677 684 692 700 709 716 723 730 742 757 772 791 806 814 823 833 842 851 868 886 909 934 959 969 982 999 1014 1027 1029 1029 1026 1020 1013 1003 993 984 971 960 949 938 930 925 919 910 900 889 886 890 893 896 898 907 917 933 948 956 957 955 946 950 962 966 978 990 1006 1014 1018 1022 1031 1043 1054 1060 1055 1045 1031 1016 
885 872 864 858 849 834 819 805 793 781 770 756 740 722 698 683 677 665 659 655 651 648 641 637 631 622 614 608 595 580 565 556 545 544 545 545 545 544 544 543 545 555 569 574 577 580 588 604 617 625 631 633 628 611 600 598 597 598 598 596 595 594 594 595 595 595 594 592 590 590 590 590 590 592 593 594 592 591 588 580 583 580 573 565 553 548 546 544 544 543 541 539 540 518 518 518 552 581 596 602 602 603 604 605 606 606 607 608 610 609 607 605 606 609 613 617 621 627 636 646 657 668 675 683 692 699 707 717 725 731 741 756 768 784 801 820 842 863 876 878 881 882 890 906 930 955 976 991 1004 1023 1036 1044 1045 1041 1035 1025 1011 1001 992 979 969 959 947 940 934 927 917 907 896 895 902 907 909 910 917 929 947 959 970 977 979 978 981 988 994 1002 1013 1026 1035 1039 1042 1047 1056 1062 1059 1045 1031 1019 1006 
882 869 855 846 839 824 805 792 780 771 759 743 726 712 695 687 680 673 667 658 650 648 645 636 631 627 621 609 599 588 572 558 545 544 544 543 543 543 543 543 543 552 561 566 572 576 581 592 607 618 627 630 624 608 598 597 596 596 594 594 595 597 596 595 594 594 594 592 590 590 589 590 591 592 593 593 591 590 584 579 578 578 569 557 549 546 546 546 545 540 537 538 538 518 518 518 549 586 597 599 601 602 603 604 604 602 600 600 602 602 601 602 606 611 615 618 624 631 640 650 661 675 683 689 698 706 712 722 732 739 745 765 780 794 811 830 857 879 899 910 911 909 909 915 931 954 974 991 1014 1031 1042 1054 1059 1057 1047 1034 1019 1009 1001 992 979 964 947 941 934 927 923 917 910 909 912 920 924 926 929 941 960 978 990 995 1001 1006 1010 1013 1015 1023 1034 1045 1050 1055 1062 1070 1073 1061 1050 1036 1021 1007 998 
877 863 845 837 830 816 798 779 768 758 742 729 718 708 700 693 687 683 674 665 652 649 644 639 632 625 620 610 600 590 579 567 546 543 543 542 542 542 542 542 542 544 552 558 564 573 578 593 610 623 627 629 625 608 598 595 596 595 595 595 594 597 595 593 592 594 592 592 590 590 590 588 590 591 591 590 591 587 581 577 578 575 563 551 547 546 545 545 545 541 538 537 539 532 518 518 547 583 598 603 602 603 603 603 602 603 604 602 603 604 602 604 608 613 618 624 629 635 645 657 672 680 689 700 712 718 724 729 736 744 755 777 792 816 834 848 865 886 911 931 940 940 942 947 959 973 988 1000 1017 1034 1050 1061 1068 1071 1061 1045 1031 1022 1012 996 981 968 956 950 942 939 937 933 930 927 929 938 948 951 954 959 971 992 1004 1013 1021 1030 1030 1036 1040 1046 1055 1058 1070 1074 1081 1084 1077 1060 1050 1035 1021 1003 994 
877 857 839 832 825 812 789 771 762 752 740 730 722 713 705 698 692 687 679 669 659 651 644 641 635 629 622 613 605 597 585 568 548 542 542 542 541 541 542 541 541 541 543 546 551 558 576 586 607 624 630 628 621 608 599 597 595 596 597 597 593 594 596 595 593 593 592 591 589 591 591 590 589 590 592 596 596 587 583 579 579 574 562 551 547 546 545 542 542 541 539 536 538 540 517 517 545 580 598 603 602 604 602 603 600 602 603 606 608 609 606 605 608 614 622 630 637 645 658 671 681 687 701 717 720 724 730 737 744 757 772 787 808 834 859 870 883 901 925 948 963 975 979 984 989 998 1009 1020 1031 1043 1055 1064 1072 1077 1073 1062 1048 1034 1016 999 984 975 971 967 961 955 952 948 946 943 945 960 969 975 980 990 999 1010 1022 1031 1036 1045 1049 1054 1059 1066 1077 1082 1085 1087 1091 1084 1066 1057 1045 1031 1015 1002 990 
877 861 842 830 818 806 785 769 758 748 741 734 727 718 707 698 694 689 680 673 665 655 646 640 636 632 627 621 615 608 595 578 559 542 541 541 540 540 541 540 540 540 540 542 544 554 566 580 591 615 627 622 615 603 598 596 598 600 599 599 594 595 597 597 597 598 595 591 590 591 590 589 589 591 595 600 599 590 581 577 575 565 554 550 548 545 544 542 542 541 540 538 539 537 517 517 541 577 596 600 601 604 604 602 602 601 604 608 610 613 613 612 611 619 628 636 646 659 673 685 698 706 711 713 721 730 738 746 755 770 790 810 830 847 870 888 902 919 944 965 978 990 994 998 1005 1013 1021 1028 1036 1043 1053 1063 1072 1079 1084 1081 1064 1045 1030 1015 1001 990 983 978 975 971 968 965 963 961 961 971 985 994 1000 1014 1026 1036 1045 1051 1058 1065 1069 1071 1076 1090 1093 1095 1096 1097 1092 1077 1063 1053 1035 1021 1006 996 986 
878 859 841 828 815 802 787 770 760 751 744 736 729 721 713 708 702 693 687 678 670 659 648 641 638 635 629 623 616 611 605 588 570 546 540 540 539 539 540 540 539 539 540 540 542 550 566 577 586 599 612 612 606 598 595 597 598 596 597 597 596 597 596 596 597 597 594 592 594 590 588 590 595 595 594 597 594 583 577 577 573 558 551 548 548 546 543 542 541 540 538 541 539 538 516 516 541 573 588 591 593 594 598 599 602 604 606 610 615 620 621 619 622 633 645 655 665 675 685 693 705 717 718 719 727 741 757 768 781 798 813 833 852 870 887 907 924 942 963 978 983 984 986 990 997 1008 1020 1027 1033 1039 1048 1059 1069 1079 1089 1087 1071 1055 1044 1034 1020 1010 1004 998 994 990 986 986 985 982 979 987 1002 1020 1026 1040 1054 1061 1068 1075 1077 1080 1086 1094 1099 1103 1103 1101 1096 1089 1080 1070 1060 1047 1028 1009 998 986 970 
879 857 841 826 813 802 790 777 767 758 750 742 737 732 725 715 704 694 689 684 677 666 652 642 638 636 631 627 623 613 607 591 572 550 539 539 539 539 539 539 538 538 538 539 541 547 560 572 582 586 592 598 599 594 592 593 591 594 597 598 597 599 597 595 594 593 592 593 596 594 592 592 596 599 599 597 590 577 580 583 575 556 550 547 546 544 543 541 542 540 537 537 538 538 516 516 543 570 578 586 590 593 596 600 603 607 610 615 623 631 635 638 645 654 666 679 686 692 701 709 716 724 727 737 753 767 780 793 809 826 845 864 879 898 915 932 949 962 975 979 977 977 980 984 991 1004 1016 1025 1033 1038 1048 1059 1069 1081 1093 1096 1083 1071 1058 1049 1042 1034 1024 1015 1009 1004 1001 1002 1002 999 999 1008 1023 1042 1052 1060 1074 1083 1088 1090 1094 1097 1106 1115 1120 1117 1108 1095 1082 1070 1060 1051 1045 1035 1016 1001 988 978 968 
890 875 861 850 838 826 811 790 775 764 757 750 746 743 733 718 706 697 694 689 679 669 658 650 642 634 628 622 617 611 605 598 583 553 538 538 538 538 538 538 538 537 538 538 540 542 548 559 578 580 587 592 595 595 595 591 592 593 593 593 595 596 597 595 591 594 592 594 595 591 592 591 595 599 597 591 583 577 580 576 563 552 549 546 544 542 541 541 541 539 536 537 540 536 516 516 544 579 590 598 602 602 601 599 597 604 611 618 627 639 652 661 670 679 689 698 702 708 716 724 733 744 755 764 777 794 811 827 843 861 882 901 912 922 937 948 958 963 969 969 974 972 979 984 990 1001 1014 1025 1034 1038 1048 1058 1070 1086 1101 1109 1101 1093 1081 1068 1057 1047 1037 1027 1020 1018 1017 1021 1017 1015 1022 1032 1042 1053 1070 1079 1088 1095 1100 1102 1105 1112 1123 1131 1131 1121 1109 1092 1077 1066 1056 1044 1034 1022 1015 1005 994 982 971 
891 882 873 867 860 851 840 821 802 780 768 757 748 744 739 736 726 714 699 687 673 666 660 655 648 638 629 616 610 605 600 595 584 558 538 538 538 536 537 537 537 536 537 538 539 541 544 553 563 576 588 590 591 591 592 596 599 599 597 594 593 593 591 593 594 597 596 597 595 593 593 596 596 599 594 586 573 574 565 558 554 551 550 547 545 545 542 540 539 537 535 535 535 527 516 516 542 584 591 596 601 602 605 608 608 610 613 621 638 655 664 670 683 700 712 723 730 734 740 748 758 772 785 797 810 830 852 874 884 894 909 920 928 933 936 940 945 947 951 957 961 967 973 980 987 998 1011 1023 1031 1039 1049 1059 1071 1088 1105 1118 1118 1112 1097 1082 1069 1059 1051 1042 1035 1036 1038 1043 1041 1037 1044 1051 1057 1071 1084 1093 1102 1107 1111 1117 1122 1127 1132 1137 1134 1120 1107 1090 1077 1068 1059 1046 1034 1021 1013 1004 993 980 972 
889 876 867 862 857 849 839 829 819 800 780 761 749 740 734 732 731 722 710 692 677 666 658 653 646 635 624 614 604 598 593 588 583 558 537 537 536 535 536 536 536 535 536 538 539 539 542 546 557 568 580 588 590 591 591 594 595 594 593 595 594 593 592 595 595 597 592 591 591 590 594 594 592 594 588 582 577 571 559 554 552 551 548 546 545 545 545 543 540 535 533 531 529 520 516 516 557 586 586 591 596 600 604 608 612 617 620 625 650 665 675 681 685 699 721 739 751 762 774 788 799 813 829 840 852 867 885 898 908 909 912 915 919 922 925 925 930 934 939 947 963 973 978 983 991 1002 1012 1021 1030 1039 1049 1061 1076 1094 1114 1127 1130 1125 1111 1098 1089 1082 1074 1062 1055 1060 1068 1075 1075 1069 1073 1078 1081 1088 1093 1100 1108 1114 1119 1125 1133 1142 1145 1139 1128 1117 1108 1094 1082 1072 1063 1046 1033 1023 1012 1003 993 985 979 
880 871 859 855 851 843 834 824 814 805 790 765 751 740 730 725 721 717 707 691 677 662 650 645 636 625 616 608 597 591 588 584 582 559 538 537 536 535 535 535 535 535 536 537 538 539 540 544 554 567 577 581 579 580 586 592 592 589 589 589 590 592 593 592 592 595 596 594 591 594 591 592 590 586 579 580 577 568 558 552 548 549 547 545 545 543 543 541 536 530 529 527 524 516 516 535 573 585 586 591 595 601 605 608 612 618 626 632 642 651 666 679 686 696 712 730 748 765 782 797 815 833 842 860 878 889 897 899 897 896 896 904 911 913 918 919 921 928 939 957 970 979 985 992 1000 1009 1019 1024 1031 1039 1050 1065 1080 1097 1116 1126 1126 1121 1116 1109 1105 1104 1099 1089 1081 1086 1097 1110 1113 1107 1105 1103 1104 1110 1110 1115 1122 1124 1129 1137 1146 1151 1147 1131 1116 1108 1106 1099 1090 1080 1075 1064 1040 1029 1020 1010 999 988 981 
872 862 853 848 844 838 826 815 807 799 789 770 758 748 738 727 716 708 699 688 677 661 648 637 624 616 608 600 592 586 583 580 572 560 540 535 535 534 534 535 534 534 535 537 538 538 539 542 550 560 564 563 568 581 587 588 591 594 592 591 588 586 589 589 591 592 593 591 589 591 591 592 589 581 576 577 569 558 551 548 549 548 545 542 542 542 540 536 532 525 520 520 516 516 532 563 583 584 588 590 596 603 607 610 616 629 649 657 657 651 654 666 675 691 711 727 743 759 775 792 811 832 853 864 880 887 888 886 885 886 885 896 898 903 904 911 918 928 942 956 967 975 984 994 1005 1017 1024 1030 1036 1045 1056 1072 1088 1102 1114 1119 1115 1108 1102 1096 1093 1091 1091 1095 1100 1108 1115 1121 1124 1122 1118 1113 1113 1119 1125 1132 1137 1141 1143 1147 1149 1145 1135 1121 1106 1093 1093 1094 1090 1084 1078 1066 1050 1039 1029 1018 1007 997 988 
860 853 844 834 827 822 816 805 797 788 778 772 767 759 750 741 728 716 702 689 677 664 652 642 630 619 613 604 595 587 581 578 576 573 557 538 534 534 533 534 533 533 535 537 538 538 538 541 544 549 554 563 575 585 590 589 589 592 591 588 585 584 585 585 586 588 589 587 586 586 586 585 582 573 564 559 556 550 548 546 547 545 538 537 541 537 529 524 515 516 516 516 516 553 565 581 585 588 590 591 595 603 609 615 622 639 667 678 674 661 651 657 670 688 706 728 753 768 783 798 813 827 840 853 864 870 871 870 871 874 874 880 886 894 902 909 915 926 940 954 965 977 990 1005 1017 1028 1035 1037 1044 1052 1069 1090 1103 1111 1112 1107 1098 1091 1086 1082 1079 1076 1080 1085 1090 1097 1103 1110 1115 1112 1108 1101 1100 1105 1119 1131 1145 1149 1142 1136 1135 1129 1119 1109 1096 1085 1080 1079 1077 1075 1073 1068 1058 1044 1033 1022 1013 1006 994 
849 840 829 816 809 806 804 793 785 776 766 760 754 754 753 747 737 718 704 689 678 668 661 655 644 630 621 608 597 587 583 581 579 578 574 554 537 533 533 532 532 532 535 537 538 538 538 539 541 545 554 568 580 586 587 587 587 589 589 586 585 585 584 583 583 584 584 582 579 576 573 570 562 554 546 539 537 536 534 534 535 533 532 533 528 515 515 515 523 528 533 542 561 573 581 582 587 590 588 586 591 603 612 621 635 655 678 686 683 672 665 662 666 681 697 718 747 766 784 807 818 824 832 839 843 847 850 857 863 866 868 873 884 893 902 908 916 926 938 953 970 989 1003 1016 1025 1034 1038 1043 1052 1063 1079 1095 1105 1106 1101 1093 1084 1077 1072 1070 1069 1069 1072 1075 1078 1082 1089 1097 1104 1101 1094 1089 1085 1088 1097 1116 1135 1139 1131 1121 1115 1108 1098 1089 1082 1073 1068 1068 1065 1060 1063 1065 1060 1047 1035 1024 1015 1004 991 
858 836 818 807 801 796 790 784 775 763 752 747 743 738 733 726 719 710 703 694 685 676 665 658 654 635 622 610 597 586 581 578 576 576 572 562 548 535 532 531 531 532 535 537 537 538 538 539 542 546 560 570 580 587 588 588 587 588 588 586 584 583 583 579 571 570 568 558 551 547 547 544 540 535 531 529 530 528 528 529 529 532 531 514 515 515 520 524 530 539 553 566 577 581 582 583 585 587 588 590 596 607 616 634 657 675 691 697 696 689 684 685 685 679 686 708 732 750 774 797 805 811 815 818 820 827 835 842 852 854 862 874 883 889 897 905 916 930 944 962 978 994 1009 1017 1023 1030 1038 1047 1057 1068 1084 1096 1097 1092 1085 1080 1074 1069 1066 1064 1063 1065 1067 1065 1065 1068 1074 1081 1088 1088 1083 1081 1076 1077 1087 1107 1122 1125 1119 1110 1099 1090 1083 1080 1070 1061 1057 1057 1054 1052 1053 1056 1057 1049 1035 1023 1011 1000 991 
868 849 833 817 803 790 784 776 766 753 744 738 732 724 716 707 702 699 697 692 684 671 661 651 644 632 620 610 596 587 581 576 573 567 558 553 551 547 541 532 530 531 535 537 537 538 538 539 540 543 552 564 576 584 586 586 586 586 586 585 582 582 580 577 562 544 534 531 530 528 527 526 525 527 526 524 524 525 527 523 521 521 514 514 517 523 530 535 544 557 568 576 579 579 579 581 587 602 607 604 600 611 625 650 675 690 700 704 706 703 703 704 705 704 701 706 720 740 762 782 786 790 794 796 803 812 826 832 834 840 850 863 875 886 897 907 922 943 956 969 983 994 1002 1009 1014 1023 1035 1046 1058 1071 1086 1093 1088 1081 1072 1065 1062 1062 1061 1060 1059 1060 1057 1051 1051 1055 1058 1061 1067 1073 1076 1077 1073 1075 1080 1088 1107 1110 1103 1093 1083 1078 1074 1071 1059 1047 1042 1040 1041 1043 1042 1041 1044 1044 1033 1021 1008 1001 993 
866 849 839 818 805 789 780 773 766 760 753 746 742 734 722 711 697 685 677 669 660 652 645 638 633 629 620 606 593 587 579 573 568 567 569 567 561 561 553 540 530 531 534 537 537 536 537 538 538 541 549 561 575 583 586 586 585 585 584 583 580 573 564 555 538 527 524 526 527 524 523 522 521 520 513 513 513 513 513 514 514 514 514 531 535 537 544 555 564 571 573 574 574 573 575 587 606 621 621 608 600 602 616 640 669 682 694 703 708 711 714 718 722 723 719 711 715 732 746 763 768 769 770 775 785 798 812 816 821 831 850 865 879 890 903 919 937 948 962 974 983 991 995 1002 1009 1019 1030 1043 1056 1069 1078 1081 1078 1072 1064 1057 1054 1052 1052 1053 1057 1053 1047 1040 1039 1042 1044 1047 1053 1059 1067 1069 1071 1072 1075 1079 1089 1095 1089 1080 1074 1070 1065 1053 1042 1034 1028 1023 1028 1033 1034 1033 1033 1033 1028 1021 1010 999 987 
867 851 837 824 812 803 800 800 798 789 780 767 752 734 725 717 710 698 683 670 663 662 661 650 626 620 615 605 590 581 577 575 579 583 581 577 568 565 557 546 531 529 532 535 537 536 536 537 538 539 544 557 572 581 583 583 583 583 582 581 574 557 543 528 527 528 522 511 512 512 512 512 512 513 513 513 519 520 521 526 530 533 542 553 563 560 561 566 569 569 567 569 573 577 591 607 625 638 642 637 619 608 608 627 651 666 681 700 709 714 717 722 730 735 733 725 720 725 731 741 750 755 764 778 781 789 797 807 820 834 849 865 880 897 914 929 938 946 956 966 973 981 985 993 1004 1014 1026 1039 1049 1059 1068 1069 1067 1062 1056 1050 1047 1044 1045 1049 1053 1047 1039 1033 1033 1034 1032 1035 1040 1046 1052 1062 1064 1065 1066 1073 1078 1080 1076 1072 1071 1066 1056 1042 1032 1022 1016 1011 1014 1017 1018 1016 1015 1017 1019 1017 1009 998 982 
874 861 849 835 825 828 830 827 819 806 794 782 771 753 738 730 726 718 707 699 696 692 683 665 638 617 603 596 586 585 583 580 583 583 580 576 574 564 556 544 535 529 529 534 536 536 536 537 537 537 539 550 565 578 581 581 581 579 576 569 559 545 529 525 522 511 511 511 512 520 524 524 524 527 528 529 531 533 534 535 537 540 547 557 560 561 561 564 568 573 580 593 605 611 615 621 636 649 652 651 638 628 630 635 644 657 673 695 705 712 719 724 730 737 741 739 739 745 751 753 753 761 779 796 808 807 811 823 836 845 856 866 881 896 912 925 932 939 948 955 961 968 977 985 994 1006 1020 1031 1039 1047 1055 1057 1056 1055 1050 1043 1040 1038 1040 1046 1047 1040 1032 1029 1027 1025 1023 1023 1025 1032 1046 1054 1055 1056 1060 1064 1068 1068 1065 1064 1066 1059 1043 1032 1022 1012 1006 1001 997 994 992 988 988 987 987 988 989 986 976 
885 875 864 853 843 842 839 831 826 820 810 799 787 776 763 746 744 740 732 724 717 707 693 677 657 630 613 606 599 594 588 584 585 585 582 580 572 565 554 545 539 531 528 531 533 535 535 535 535 536 538 545 556 571 578 576 569 564 558 551 542 529 527 523 511 511 517 522 525 526 526 526 528 528 529 532 534 534 534 534 537 546 559 572 580 585 589 595 599 605 618 628 628 620 619 628 641 654 659 655 649 655 662 659 648 649 667 686 697 705 715 726 735 739 745 750 754 766 780 787 785 787 799 810 820 830 837 842 851 862 871 881 894 906 915 922 931 937 943 948 953 959 969 978 987 1002 1014 1023 1028 1036 1045 1050 1048 1048 1050 1045 1037 1035 1036 1038 1035 1031 1026 1023 1021 1018 1014 1010 1015 1022 1031 1037 1042 1047 1050 1056 1059 1057 1059 1058 1058 1047 1033 1023 1011 1001 997 990 984 976 975 969 965 964 961 957 959 964 963 
900 895 884 870 861 858 850 842 835 831 826 818 807 792 780 772 764 755 746 737 725 710 693 677 659 632 618 612 604 597 592 589 588 587 586 577 566 563 558 550 545 535 529 528 530 531 531 532 532 534 535 538 550 559 563 556 550 546 540 536 530 527 521 511 511 519 523 525 526 527 527 527 529 530 533 535 536 537 543 546 557 573 589 599 607 611 612 616 618 622 629 633 628 618 621 632 646 658 664 662 661 668 673 670 656 647 658 676 686 697 709 721 732 742 749 756 764 774 785 795 806 812 817 827 838 849 860 865 871 882 890 897 905 914 918 923 930 936 940 944 948 953 961 970 981 992 1003 1011 1019 1029 1040 1043 1043 1044 1046 1041 1033 1029 1026 1023 1025 1022 1019 1016 1011 1006 1002 1000 1005 1014 1024 1029 1035 1040 1044 1051 1050 1045 1045 1051 1052 1039 1026 1013 1000 991 985 979 972 965 963 959 957 957 954 950 944 943 947 
927 925 917 902 882 870 862 857 853 851 847 838 826 810 795 779 769 760 752 742 727 712 694 672 651 635 622 615 610 602 596 592 590 588 586 572 568 565 564 565 559 543 528 525 529 530 529 527 525 525 526 531 539 543 544 541 539 537 529 527 530 524 510 510 517 522 524 526 527 528 530 531 534 537 536 538 544 555 578 592 602 603 603 609 620 623 620 624 627 627 629 631 624 620 623 635 649 660 669 671 672 676 677 668 655 654 666 680 690 696 707 721 732 742 751 761 773 784 794 804 814 825 836 846 856 868 879 885 888 893 901 906 910 915 919 925 930 933 935 938 941 946 954 963 976 986 995 1004 1015 1031 1038 1035 1033 1036 1036 1027 1021 1017 1015 1015 1019 1011 1008 1004 999 997 996 992 997 1009 1020 1022 1027 1031 1038 1047 1042 1031 1030 1039 1042 1033 1019 1004 994 981 972 966 962 956 951 948 947 948 946 943 937 933 934 
927 932 933 927 913 896 882 879 882 881 873 858 841 823 810 790 778 769 758 743 727 712 692 669 653 641 628 619 614 605 597 593 590 588 587 583 580 578 578 582 578 558 533 525 528 530 530 529 527 528 523 530 537 536 536 537 535 530 523 524 524 510 510 518 522 524 525 528 531 532 533 534 535 537 544 554 573 597 619 631 634 629 618 613 622 628 628 630 634 633 634 634 627 623 624 630 645 662 676 682 686 688 686 677 660 661 672 680 690 702 715 731 738 746 756 766 779 790 801 814 824 835 850 865 873 878 885 889 893 897 905 910 912 918 924 930 932 932 933 936 937 944 952 962 971 979 990 1002 1015 1030 1036 1031 1027 1027 1022 1018 1015 1012 1009 1008 1004 994 992 992 988 988 989 986 991 1002 1012 1017 1022 1027 1034 1040 1034 1022 1018 1026 1033 1025 1012 998 986 974 961 954 949 946 945 942 939 938 937 934 929 927 926 
910 918 923 924 920 914 909 910 909 899 883 866 849 834 822 808 794 778 764 749 735 723 708 681 668 655 641 630 619 613 602 594 590 588 587 587 587 586 585 585 580 561 545 533 525 523 523 524 526 527 528 531 535 534 532 528 527 527 528 524 513 510 514 521 525 527 530 533 533 535 535 535 541 547 562 582 605 626 638 644 644 636 628 616 620 626 630 633 636 637 640 642 638 630 625 631 643 659 677 684 691 692 688 681 668 664 675 686 692 703 717 734 744 751 762 775 791 799 809 821 832 844 862 872 880 885 888 893 897 902 907 910 911 915 919 926 929 929 928 930 935 942 948 955 967 974 985 997 1011 1024 1032 1026 1019 1016 1009 1009 1008 1009 1006 1000 992 979 976 981 978 979 979 981 987 995 1002 1012 1018 1026 1035 1034 1025 1014 1006 1010 1020 1016 1003 990 977 964 952 945 941 939 940 938 935 930 927 923 922 921 921 
889 896 903 905 903 905 909 912 912 905 891 878 866 854 841 826 808 790 775 761 747 736 721 703 684 669 656 645 637 625 612 599 591 589 587 587 586 586 585 583 572 552 543 537 533 530 524 520 521 525 530 526 525 528 528 528 529 527 521 513 510 510 523 527 529 531 532 533 535 536 537 543 552 567 583 603 623 642 653 656 655 645 631 617 610 614 622 631 638 643 644 647 649 643 635 635 644 655 671 681 689 692 690 680 668 674 688 695 701 709 719 731 744 756 768 783 798 807 817 830 843 850 861 870 875 880 887 894 897 898 898 899 901 904 909 916 923 924 926 931 937 940 943 949 961 970 980 993 1007 1019 1022 1014 1008 1001 997 1000 1002 1003 1001 994 982 967 964 969 970 972 973 978 983 991 998 1008 1013 1021 1031 1030 1017 1005 995 993 1000 1005 996 981 969 956 944 938 935 934 935 933 931 928 922 917 913 912 912 
872 879 888 890 890 896 901 903 902 897 889 878 871 866 858 844 827 812 796 783 765 750 734 721 709 692 678 664 651 640 624 610 596 591 588 587 586 585 584 579 560 543 538 535 535 536 527 523 518 522 528 534 536 531 530 528 525 516 512 509 510 526 529 530 531 533 535 538 541 542 545 555 566 574 591 613 628 653 664 665 664 654 631 623 616 611 615 628 637 641 641 643 648 651 649 643 645 649 663 679 687 692 691 676 668 679 692 699 706 715 724 734 744 754 767 781 794 804 816 829 839 846 858 868 873 876 882 887 887 885 888 889 892 897 905 910 915 916 919 927 933 936 939 945 956 966 977 990 1003 1012 1007 1001 994 993 994 994 996 995 990 984 970 957 953 956 959 963 969 973 975 982 993 1005 1010 1018 1025 1022 1009 996 987 981 982 986 984 974 961 949 940 933 931 931 930 927 924 922 919 914 908 902 897 
858 864 872 876 876 881 886 890 891 888 880 870 861 856 852 847 839 829 815 798 780 762 745 727 711 693 677 662 649 639 627 618 611 597 589 587 586 586 587 580 561 541 533 532 532 536 527 519 515 519 526 531 533 526 523 519 514 513 509 509 522 530 532 532 532 533 537 544 545 549 559 567 572 576 590 608 627 648 663 668 670 661 648 635 629 623 619 621 627 630 631 633 639 649 654 652 648 653 662 674 684 692 689 678 676 673 687 698 706 715 725 733 742 752 762 773 785 795 806 817 832 844 857 861 865 868 874 880 881 879 881 881 884 889 898 903 910 913 917 922 928 932 940 946 952 964 976 987 998 1000 993 988 985 988 989 989 989 986 980 972 958 947 939 940 946 954 961 963 968 977 987 999 1004 1010 1017 1011 999 987 978 971 968 966 967 966 956 946 935 929 926 927 924 921 915 910 906 903 897 890 887 
845 852 860 862 861 865 870 876 879 878 872 861 850 844 841 838 833 823 811 795 779 758 738 722 704 679 662 650 641 633 624 617 611 601 589 586 585 583 581 568 550 538 532 535 534 531 522 514 514 519 523 523 519 514 513 512 511 509 509 524 529 530 532 534 538 546 547 548 555 566 572 573 575 581 596 611 636 661 674 680 680 674 665 654 644 638 630 623 620 622 625 627 632 641 653 660 656 655 663 674 683 690 695 691 685 675 674 687 700 709 716 725 738 751 761 771 784 795 801 810 823 835 849 854 858 864 872 879 875 871 873 874 878 882 893 903 908 911 912 914 920 926 936 943 954 967 979 988 993 988 982 979 976 980 982 982 982 979 973 962 953 945 939 936 942 948 953 956 962 971 979 989 996 1005 1009 1001 992 980 969 960 957 953 952 959 955 946 935 928 923 918 915 912 905 896 892 890 889 882 876 
839 845 851 850 846 848 852 857 863 865 864 854 843 835 830 826 820 812 803 789 772 754 734 718 703 680 660 649 643 632 621 605 599 592 588 585 577 569 560 552 547 541 532 528 527 526 519 515 515 520 520 516 513 512 512 511 509 509 525 530 531 533 535 540 548 555 561 565 567 569 570 574 582 593 612 629 648 669 682 690 693 688 685 679 667 651 637 627 622 623 627 630 632 638 649 663 670 670 671 675 683 693 698 701 689 673 668 678 693 705 712 722 735 749 761 771 785 797 806 813 821 831 840 842 846 856 863 868 866 865 870 872 875 882 893 901 903 904 903 907 913 923 934 944 957 966 977 988 989 979 975 971 968 971 975 974 973 969 962 954 947 938 935 928 935 944 947 949 955 963 972 985 991 998 1002 992 982 972 962 955 949 945 945 953 958 952 939 932 926 916 908 903 900 891 883 878 877 873 866 
829 837 843 840 835 833 834 838 842 848 850 843 834 826 818 811 808 801 794 786 769 752 735 719 702 681 660 649 637 625 609 595 583 576 574 571 563 551 543 538 534 531 531 526 519 518 517 514 513 513 512 510 510 508 508 508 519 529 531 532 535 539 543 549 557 563 566 568 569 569 571 576 588 607 625 648 670 690 696 704 707 705 703 696 684 667 648 634 626 627 628 632 637 638 649 668 680 686 689 684 684 693 701 704 693 681 676 683 694 706 713 723 738 750 757 766 778 790 804 816 822 828 827 826 831 840 843 847 854 863 871 877 881 886 893 897 900 902 903 909 918 931 938 946 955 965 978 989 987 977 968 961 959 960 963 961 959 957 953 947 942 932 926 922 929 939 942 946 951 956 966 980 985 991 995 987 979 968 956 949 945 941 940 943 950 952 946 939 928 916 905 898 893 888 880 873 863 861 858 
822 829 835 831 827 820 820 821 826 833 836 833 823 816 809 802 795 789 783 778 765 747 729 710 691 675 661 647 632 615 600 587 578 570 564 560 543 530 527 525 527 527 520 514 512 511 511 510 507 507 507 508 508 508 518 527 530 531 533 537 543 550 554 558 563 566 568 568 569 570 574 584 597 624 648 667 683 700 712 720 725 726 716 702 690 680 669 651 636 632 633 632 636 641 648 665 681 700 704 700 693 699 708 708 704 695 691 689 695 709 722 730 738 749 760 772 784 794 802 812 815 814 812 814 821 828 832 839 851 857 864 874 884 891 895 897 897 901 906 912 920 928 937 945 955 967 977 986 987 971 959 955 954 953 951 950 949 948 946 942 935 926 920 917 924 930 937 943 947 954 965 973 977 984 988 984 975 965 955 948 941 938 936 934 933 936 942 948 943 932 920 906 894 886 875 866 855 851 852 
812 820 825 823 820 815 812 812 814 818 821 819 811 805 801 796 788 782 776 771 758 735 714 698 684 670 655 640 625 610 589 579 572 565 556 540 526 523 522 520 516 511 508 508 506 507 507 507 507 518 520 521 523 526 529 530 533 537 543 552 558 557 560 564 566 568 569 568 569 573 578 588 608 640 667 683 694 709 725 739 745 743 725 709 701 692 675 658 648 639 639 636 638 643 651 666 684 706 714 714 708 704 713 718 716 709 707 707 704 707 720 727 734 745 764 781 788 794 795 795 795 794 793 799 807 810 819 831 837 843 855 867 879 895 901 904 904 908 915 922 927 934 943 949 957 967 973 981 981 968 958 954 954 949 948 947 947 946 944 942 932 921 913 906 913 923 934 940 946 957 967 965 960 963 968 968 963 956 951 942 933 928 923 919 916 918 927 941 948 942 931 919 903 883 869 856 849 844 837 
805 810 814 815 810 804 800 800 801 802 804 803 798 790 785 780 777 774 771 765 750 728 704 688 678 666 654 639 626 611 594 576 566 556 534 525 522 518 511 505 506 506 506 506 506 511 517 524 527 529 529 530 531 531 533 535 543 555 560 562 563 564 565 566 566 567 569 571 573 576 585 599 622 649 671 693 714 729 745 758 761 755 737 722 708 695 681 664 651 644 643 640 645 652 656 674 689 708 721 724 719 713 718 723 724 721 722 720 718 712 710 712 718 727 742 765 780 780 780 775 771 770 770 773 779 787 796 811 825 834 848 863 880 895 902 902 905 912 924 931 935 942 949 954 963 970 971 976 976 965 957 953 956 950 946 946 945 944 941 935 927 916 902 894 905 920 930 936 944 958 963 956 945 943 946 946 944 941 941 936 927 916 911 908 906 907 916 931 942 942 931 915 896 879 863 852 846 842 829 
800 800 801 804 801 794 787 786 787 787 787 787 783 778 771 766 764 763 760 754 739 718 692 676 666 658 651 639 619 602 584 566 558 546 526 521 514 505 505 505 507 511 515 518 522 526 528 528 529 529 529 531 531 533 547 558 564 565 564 565 565 567 566 566 566 567 568 570 573 578 593 612 632 657 677 705 725 745 759 763 764 759 747 734 722 709 695 674 654 647 647 645 652 669 684 692 702 714 727 732 729 722 722 729 732 732 733 730 728 724 719 715 715 716 721 736 749 751 751 745 746 750 759 771 775 785 796 811 829 846 855 865 880 895 902 899 899 910 923 933 940 945 953 961 967 969 965 960 955 952 948 946 948 945 937 934 933 930 924 918 913 907 895 886 897 910 914 921 936 947 953 947 936 930 928 926 922 924 925 922 913 901 897 895 897 900 909 920 931 934 922 904 889 874 856 846 843 838 831 
781 782 786 789 789 785 775 772 772 771 771 771 771 770 764 756 753 752 750 741 731 714 690 671 657 648 640 629 611 588 572 561 548 535 519 505 505 505 512 516 520 524 527 526 527 527 528 530 531 530 530 532 540 553 563 566 565 565 565 567 567 567 567 567 567 567 568 571 576 586 606 625 641 666 684 711 734 750 757 759 760 759 753 744 735 722 702 680 661 654 652 655 662 675 698 712 719 726 734 738 737 730 726 730 741 746 746 742 738 734 729 729 728 726 722 724 727 730 731 741 752 768 783 792 803 810 815 820 833 848 857 865 875 886 893 895 899 910 921 932 943 952 960 966 969 968 961 954 945 939 935 933 932 927 920 916 913 910 907 902 896 892 882 872 883 895 898 904 922 936 944 941 931 922 912 906 908 910 910 908 897 887 884 884 887 890 897 908 919 924 918 900 886 869 855 843 837 830 824 
758 762 771 776 776 772 767 762 758 755 756 757 758 759 755 747 740 739 736 728 720 711 690 669 652 637 629 616 602 581 568 554 538 516 504 504 510 517 521 524 526 525 526 526 527 527 528 529 531 532 536 544 560 568 571 569 567 568 568 569 568 568 570 569 567 567 569 571 580 595 612 629 647 669 697 719 732 740 748 752 756 755 752 747 736 722 706 692 669 663 661 662 666 687 705 722 732 737 744 746 744 735 733 736 748 755 757 754 748 737 734 735 735 736 737 743 744 743 742 753 764 778 792 808 818 833 834 831 841 851 856 861 867 881 893 900 908 916 927 937 944 951 959 965 968 967 959 952 944 935 928 920 918 914 907 903 900 896 894 885 878 875 873 866 868 880 885 896 921 937 943 938 925 908 898 893 892 893 894 892 887 878 875 875 878 879 883 894 904 915 915 902 882 862 847 833 824 816 814 
757 752 756 762 763 761 757 750 740 736 738 739 742 744 744 737 729 724 721 713 708 705 697 678 653 635 624 610 594 579 562 544 525 504 504 510 518 522 522 524 526 526 525 526 526 527 528 529 534 539 550 563 570 568 567 568 567 567 568 567 569 573 573 570 566 567 568 573 585 600 615 631 653 679 704 713 721 730 739 745 748 747 747 745 736 722 709 697 684 681 679 679 674 688 705 720 736 745 751 755 754 750 749 751 759 766 769 765 757 743 740 750 759 767 772 772 766 758 758 777 793 800 808 820 835 846 844 839 841 848 855 862 869 878 890 901 910 920 931 940 947 954 960 964 966 966 957 951 942 933 926 916 911 906 903 895 890 888 885 877 867 862 862 854 855 867 875 894 916 932 940 940 923 904 889 882 879 879 875 874 870 867 865 868 870 871 875 885 896 905 905 890 870 858 841 823 815 808 806 
770 755 747 747 746 746 743 735 732 735 733 731 729 728 729 727 719 713 707 702 699 699 698 690 667 644 626 613 595 579 558 538 519 504 507 515 521 521 522 523 526 528 527 526 526 527 528 533 543 557 568 571 570 569 568 569 569 567 566 566 569 570 569 567 568 569 569 576 590 609 621 639 663 686 695 701 708 719 730 736 739 739 740 738 732 724 715 706 705 704 704 703 697 692 701 714 726 739 749 758 764 765 766 767 769 775 777 772 761 756 749 751 765 781 789 785 779 773 770 787 805 816 827 838 850 858 853 845 844 846 852 858 866 875 882 891 901 913 924 934 944 955 965 969 972 965 955 949 942 933 921 910 903 898 894 887 880 875 874 870 861 854 850 841 847 858 870 893 910 928 931 930 919 908 887 876 869 865 861 860 858 858 859 862 863 865 871 881 889 895 894 880 866 849 828 814 808 802 798 
784 768 756 742 734 729 726 720 716 724 730 728 725 722 720 718 709 700 694 691 689 689 689 686 678 662 641 618 597 576 556 539 515 504 504 515 520 521 522 523 525 528 530 527 526 527 535 551 565 569 570 568 569 567 566 566 567 567 568 568 568 567 567 569 571 571 572 577 594 614 626 644 664 675 682 688 698 708 718 725 727 728 730 728 724 720 718 717 717 717 718 717 711 703 705 713 720 730 743 756 767 775 779 779 777 782 784 781 771 763 756 757 772 789 801 802 794 786 781 784 803 819 834 843 856 865 863 856 851 853 857 862 864 871 879 886 900 909 919 930 941 955 964 973 978 969 956 949 939 926 908 894 887 881 875 868 866 864 863 858 852 846 837 830 841 854 871 894 909 912 912 909 904 902 891 871 862 857 848 845 845 849 851 853 857 858 860 874 883 888 882 869 850 829 818 811 806 798 791 
793 785 776 762 748 735 721 710 704 709 714 714 713 713 712 707 700 689 683 682 679 677 676 672 668 661 652 636 616 595 570 551 523 506 504 512 518 520 521 522 523 526 530 531 530 533 546 565 570 570 570 569 567 566 566 566 565 567 568 568 567 568 570 569 570 571 574 582 594 610 624 641 653 659 667 680 692 701 707 711 715 718 721 718 712 712 715 718 719 721 724 724 722 718 717 722 726 732 740 752 764 778 785 788 787 791 794 792 782 772 762 764 779 798 812 812 807 800 792 790 798 819 834 845 860 869 872 866 862 860 864 867 870 874 883 892 904 913 918 929 938 949 959 969 973 966 950 936 920 905 892 882 868 860 854 850 848 848 850 845 840 835 828 822 831 850 872 891 894 893 888 885 889 892 886 862 854 847 840 834 835 839 843 848 852 851 855 867 876 882 877 854 840 826 819 813 806 791 784 
813 803 791 782 768 753 738 725 712 702 699 696 697 700 698 694 686 676 672 670 666 663 661 659 655 649 645 640 627 610 595 575 539 510 503 503 515 519 521 522 522 524 528 531 535 544 559 566 566 567 568 568 566 566 567 567 566 567 568 567 567 567 567 567 570 573 578 584 590 599 618 631 639 646 656 668 682 691 697 701 706 712 715 709 701 698 702 704 705 713 723 728 730 732 732 736 738 743 749 756 765 775 784 790 796 800 801 796 783 775 768 768 782 798 815 819 815 808 804 799 795 810 831 843 856 870 878 877 871 867 866 869 873 883 894 903 913 923 926 932 939 948 959 968 967 956 941 926 911 897 888 879 862 850 844 839 838 836 836 832 830 829 828 818 824 842 864 872 877 869 862 865 875 883 883 864 849 846 838 824 824 829 835 841 843 843 846 857 870 878 874 854 841 832 824 814 807 798 791 
830 819 805 797 790 782 769 750 734 724 714 705 691 687 685 678 669 655 654 655 654 651 649 649 647 642 639 635 630 621 606 589 558 524 508 503 503 515 520 521 521 523 529 536 538 544 564 566 563 564 564 563 566 567 566 565 565 566 568 566 566 567 568 569 571 575 582 586 590 597 610 622 630 636 647 659 670 677 685 694 702 708 709 703 693 688 689 689 690 699 712 721 727 732 735 739 744 748 751 755 760 765 772 788 800 804 806 800 790 782 775 773 781 791 805 816 821 817 810 805 801 805 822 836 848 863 877 882 879 877 876 876 878 886 895 906 916 928 937 941 947 953 963 968 967 955 941 920 909 898 887 877 863 850 835 825 826 823 823 822 823 823 821 812 815 832 851 862 860 847 842 844 857 870 874 865 848 842 829 812 813 820 828 831 830 828 834 847 863 874 873 863 848 842 834 824 819 813 804 
832 828 821 815 810 804 793 779 765 753 733 716 698 680 672 666 661 654 647 645 645 644 642 640 639 632 623 617 622 623 622 607 583 553 525 508 503 503 512 519 521 522 531 537 537 542 559 566 565 563 563 563 563 565 565 565 564 566 567 566 566 567 568 570 573 578 583 587 591 596 604 613 620 628 640 648 657 667 677 690 703 706 703 696 687 680 678 676 678 689 698 706 715 719 722 728 736 742 741 741 745 755 766 778 790 797 801 802 800 795 787 781 783 790 803 816 823 825 819 811 806 807 815 830 844 856 870 883 886 886 885 884 885 894 903 909 917 928 939 946 950 958 969 973 966 952 936 922 909 898 888 879 868 851 833 816 810 808 811 813 816 816 811 801 807 825 842 849 846 835 827 830 843 857 861 853 842 832 814 803 805 813 819 821 819 821 832 849 864 874 878 875 863 854 847 836 825 815 803 
815 815 811 804 800 801 800 797 786 771 746 730 712 699 685 683 684 680 671 667 667 665 658 646 638 629 623 613 610 609 612 607 595 573 541 512 504 503 504 512 518 521 528 535 537 542 554 562 562 562 562 562 562 564 565 565 564 564 565 566 565 566 568 571 574 578 583 587 591 594 600 609 615 618 627 637 648 661 674 690 699 702 698 691 684 674 668 664 667 676 684 694 702 706 709 718 726 729 725 724 733 750 763 772 777 782 788 794 799 800 793 785 785 791 803 819 830 830 827 821 814 812 816 828 838 849 859 871 885 893 893 891 896 903 910 915 921 930 941 950 957 966 966 960 950 938 927 917 904 891 884 875 864 846 827 810 796 793 799 806 809 808 796 793 802 812 828 833 828 817 814 822 836 854 855 846 832 812 805 798 800 806 810 811 811 823 842 850 862 876 883 882 874 864 856 836 821 809 801 
802 801 797 787 783 783 786 790 793 789 772 755 737 719 709 705 703 697 692 690 688 682 675 667 661 656 650 641 629 614 603 600 593 571 548 521 508 505 502 502 511 519 523 531 535 539 545 555 560 562 561 561 562 564 565 566 566 564 564 565 565 566 571 575 580 582 585 588 589 590 596 606 612 613 620 629 645 657 668 679 691 694 693 687 681 670 659 655 657 661 671 687 694 695 699 711 715 717 712 714 726 740 753 761 764 767 774 781 790 797 798 795 788 786 797 813 830 839 836 830 821 816 815 822 830 838 851 865 878 889 896 901 907 914 918 922 928 936 947 956 964 970 961 944 927 912 900 892 881 868 860 850 846 839 821 802 780 779 789 800 801 801 787 783 787 803 819 819 811 801 804 818 832 848 848 838 818 804 801 795 795 800 802 805 809 822 837 848 858 872 881 884 881 868 857 844 825 815 813 
799 794 790 784 774 772 773 780 784 783 774 764 755 740 728 718 712 706 704 702 700 687 676 674 669 662 653 646 637 625 614 601 590 583 566 546 525 510 504 502 502 511 520 526 532 536 541 547 558 561 560 561 563 564 564 563 563 563 563 564 567 572 576 578 580 580 583 586 585 586 592 598 602 607 613 625 640 648 658 668 679 685 688 684 676 666 654 647 648 653 663 673 677 680 690 699 703 704 700 708 720 727 733 740 746 753 764 774 786 796 800 797 789 785 790 807 820 835 841 840 831 825 820 819 823 830 840 851 863 875 886 902 911 918 925 931 938 944 953 962 969 967 955 937 916 896 879 868 859 850 838 827 822 819 809 789 770 770 784 791 793 797 790 778 775 791 809 808 798 790 803 822 837 843 840 831 818 802 798 793 794 795 796 799 803 813 828 841 849 858 869 879 883 876 863 854 842 831 826 
808 794 786 780 770 765 765 768 774 776 770 762 746 732 726 721 714 708 708 708 706 696 679 673 669 661 650 643 636 629 625 615 595 588 586 571 549 526 509 504 502 502 514 532 534 532 536 544 558 560 560 560 561 562 561 562 562 563 564 567 573 574 576 578 579 579 580 582 583 585 588 592 595 601 609 621 631 641 651 662 673 681 682 675 667 655 644 640 642 646 651 656 661 668 680 686 689 689 689 700 708 712 716 722 732 745 760 774 785 792 795 788 782 776 781 797 811 825 834 846 847 834 830 825 821 820 827 837 853 866 877 891 901 907 915 925 938 948 959 965 968 965 948 930 914 900 886 869 852 838 823 813 802 796 791 778 762 766 777 782 784 787 786 780 770 780 797 796 785 779 791 813 831 833 828 814 805 796 793 792 791 791 791 791 796 806 815 829 840 851 861 873 880 878 872 863 853 845 834 
808 794 786 779 768 763 762 764 765 762 760 759 751 743 735 723 716 715 716 716 708 695 680 675 669 658 649 641 633 626 625 620 607 588 584 584 572 549 520 509 504 502 501 515 525 526 528 539 551 559 560 560 560 561 563 563 563 565 567 571 575 575 576 577 578 579 579 581 583 585 587 588 591 598 606 616 623 636 648 659 670 676 676 666 650 640 636 633 632 635 638 644 650 658 668 674 677 677 683 692 697 699 702 712 726 746 764 777 785 791 791 781 772 764 767 778 797 813 835 851 851 848 839 836 832 826 823 829 838 850 862 875 883 889 904 919 929 938 945 952 957 958 945 927 911 893 880 865 849 830 811 797 788 780 776 765 753 761 772 775 778 781 777 771 762 767 787 790 779 771 783 805 821 821 810 793 783 781 782 781 786 786 786 788 794 804 813 826 840 852 862 870 873 871 869 866 859 847 829 
800 793 787 782 772 761 760 763 763 755 750 757 756 750 741 728 722 722 722 718 706 691 679 675 668 658 647 639 632 624 621 617 606 592 580 580 580 563 532 516 512 504 501 501 513 522 526 537 552 559 560 561 561 562 564 565 567 570 572 573 575 575 576 578 579 580 579 581 584 585 585 587 594 598 600 611 626 638 647 657 665 670 667 655 640 631 632 632 633 635 632 635 642 649 656 663 667 670 679 683 685 689 697 713 729 744 758 767 778 782 780 771 755 748 753 762 782 802 826 849 860 855 850 845 841 837 834 833 834 840 849 859 868 882 897 910 916 923 929 936 943 949 938 918 897 882 868 855 835 817 806 796 781 771 763 754 747 753 763 771 776 776 770 762 754 756 772 773 764 762 780 797 809 809 795 778 768 767 769 772 779 780 780 783 785 792 803 816 831 844 852 854 850 847 848 848 847 838 818 
795 788 782 780 773 764 761 760 758 750 740 742 746 746 745 738 732 729 728 717 704 683 674 673 666 656 644 638 634 627 620 611 602 593 579 575 578 566 542 520 514 510 503 501 501 512 520 528 540 555 561 561 562 566 569 571 572 573 575 574 575 578 578 579 578 580 580 581 584 585 587 588 595 597 599 609 624 636 644 654 660 662 653 639 629 623 630 636 639 637 628 628 637 645 650 655 659 666 672 675 680 690 701 711 720 728 738 751 763 766 763 747 734 738 747 757 773 794 821 844 862 864 860 856 852 847 842 837 836 838 844 852 864 876 884 892 902 916 922 922 930 934 927 909 894 876 861 850 841 828 816 805 790 775 759 744 738 746 759 769 771 768 762 757 747 747 759 756 750 755 773 791 801 798 782 766 756 757 759 764 771 772 771 773 774 781 790 802 814 825 831 828 823 821 822 826 829 830 819 
791 785 781 775 769 766 765 761 755 748 738 737 735 733 735 737 738 737 726 711 699 681 674 672 662 654 647 641 636 626 617 611 603 590 577 568 571 568 545 523 515 513 508 503 501 501 512 521 528 542 558 561 565 571 574 574 572 573 575 575 576 579 577 578 577 576 576 579 581 583 583 585 591 595 601 611 622 627 638 649 655 655 645 630 621 618 628 633 635 636 630 629 636 642 645 648 653 662 665 670 681 691 696 700 705 714 725 735 745 748 744 728 724 735 746 758 773 793 816 838 863 873 872 866 863 859 851 845 843 843 845 848 853 861 871 880 890 903 913 917 924 924 919 905 890 873 858 846 837 829 820 814 794 773 759 747 738 741 749 757 764 763 754 750 741 740 748 746 743 752 769 785 794 791 777 759 748 750 754 758 761 761 762 765 768 774 783 796 808 816 813 807 799 797 796 801 810 817 817 
777 775 770 766 763 762 763 760 753 746 738 730 722 718 720 727 731 732 721 705 691 683 676 672 661 651 649 647 640 629 620 610 598 586 573 563 566 565 550 525 515 515 514 507 503 501 500 516 522 529 544 555 567 574 574 573 574 573 574 574 576 577 575 575 575 575 575 577 581 582 583 585 590 590 596 606 620 627 635 646 651 647 636 625 615 614 625 630 631 630 630 633 634 636 640 645 651 656 659 664 673 684 688 689 697 705 709 716 727 730 728 714 719 734 744 758 772 793 817 836 854 871 880 877 874 871 865 859 858 860 862 861 857 862 870 878 889 905 916 921 922 916 905 896 884 863 843 828 811 802 806 809 799 779 767 753 738 733 737 744 753 756 752 746 740 737 738 737 736 747 765 778 785 784 771 756 747 748 751 752 752 754 754 757 762 770 782 796 808 810 797 787 780 775 774 781 791 804 809 
766 763 758 754 753 754 757 750 744 738 730 723 719 716 715 717 725 727 722 706 688 681 674 668 661 657 651 646 640 633 622 610 592 576 565 555 555 552 537 520 516 517 515 511 505 502 500 508 518 524 533 543 554 571 574 573 572 572 572 573 574 575 574 574 575 575 575 575 578 580 583 586 592 595 598 604 619 628 637 645 647 638 626 617 610 614 620 623 625 623 624 626 628 630 637 644 647 650 651 655 664 673 677 682 690 696 698 704 714 717 713 708 719 731 741 753 772 789 809 824 843 864 884 887 885 881 877 873 870 872 873 873 873 874 878 887 901 913 919 918 912 897 880 873 865 849 829 809 792 788 787 789 790 786 771 758 738 723 722 729 739 745 744 736 731 733 732 730 731 746 759 767 774 776 769 756 742 740 741 742 744 746 748 755 765 777 786 795 800 796 784 773 767 759 756 764 775 786 795 
759 752 746 744 744 746 749 742 738 733 726 722 721 720 714 715 722 728 725 713 697 685 676 666 664 657 648 639 633 628 620 607 584 566 558 550 543 535 528 523 521 520 516 514 510 505 501 500 508 519 524 530 539 561 574 573 571 571 572 572 573 574 574 574 574 575 575 575 575 578 583 590 594 596 596 602 615 625 635 641 639 630 620 610 606 608 613 616 616 616 620 621 622 627 632 637 641 644 640 639 649 663 668 675 682 686 691 698 703 705 700 704 716 729 740 752 769 782 797 815 837 859 879 885 885 884 883 882 883 885 886 887 886 884 888 899 911 916 918 918 900 879 864 851 843 835 819 800 782 770 765 768 773 775 768 750 734 716 710 717 726 729 728 724 725 730 729 724 726 739 746 752 763 769 765 752 738 730 728 731 733 735 742 758 773 786 795 797 788 777 768 757 750 746 745 752 761 768 776 
754 745 739 738 738 739 741 739 736 733 726 722 722 723 719 716 722 724 720 711 701 689 680 670 663 654 644 635 627 621 612 600 584 570 564 562 557 554 553 540 523 521 517 515 515 510 503 500 500 512 520 525 532 548 569 571 571 571 572 572 572 573 574 574 574 575 575 576 576 579 584 592 596 597 597 599 604 613 623 628 627 618 609 603 603 606 606 608 608 609 614 616 617 625 630 633 635 637 632 632 638 653 661 667 672 677 682 688 692 694 694 704 717 730 741 752 769 783 797 817 838 853 864 867 866 869 873 881 891 893 897 900 900 896 902 909 912 915 918 920 901 875 859 844 828 814 801 785 770 758 752 751 754 759 762 756 739 715 700 706 710 711 710 714 731 732 725 718 716 723 731 741 753 758 754 741 729 720 718 720 721 724 736 752 768 786 798 796 783 771 760 747 738 731 733 740 746 752 759 
751 750 742 737 736 738 738 735 734 731 725 721 720 720 719 717 718 714 708 701 693 686 677 669 661 647 639 632 625 617 609 599 589 582 574 568 564 562 560 549 527 521 518 515 515 515 508 501 500 499 517 523 527 538 562 570 568 570 572 572 572 573 574 574 574 575 576 576 578 582 586 592 596 595 597 599 601 604 609 612 611 607 600 597 597 596 593 594 598 604 606 610 616 621 626 631 632 629 627 631 638 648 654 659 663 667 672 676 681 685 694 707 717 726 738 751 765 780 800 820 837 847 850 844 843 847 853 864 881 891 897 902 907 910 912 913 914 917 922 922 897 881 870 854 832 814 798 783 772 758 746 737 737 743 748 745 732 706 692 693 693 701 710 721 730 732 723 715 712 712 719 731 742 746 744 729 721 711 706 710 714 721 737 755 770 788 801 800 790 775 761 749 738 722 721 729 735 741 750 
753 761 756 744 738 739 736 732 728 723 718 715 714 713 712 710 710 705 698 692 687 681 672 665 654 644 637 632 627 617 609 596 587 581 576 568 562 560 560 553 533 522 520 517 516 516 513 505 501 499 508 521 524 532 553 564 563 569 571 571 572 574 574 574 574 575 576 577 579 582 585 591 594 593 592 595 597 598 601 601 598 597 595 593 591 590 595 601 604 606 608 608 611 616 621 622 623 623 629 636 642 644 649 655 663 667 670 674 676 683 693 706 716 726 738 752 768 783 803 817 826 831 829 820 821 828 836 851 867 884 892 904 914 922 924 924 923 928 934 921 911 898 885 871 845 829 812 797 785 771 754 738 727 727 731 731 724 702 687 686 695 715 724 729 736 738 727 715 707 705 711 718 729 734 731 720 712 704 696 700 712 727 744 761 778 793 800 797 784 768 754 742 728 713 709 718 727 736 743 
745 752 755 754 742 739 737 730 719 712 707 702 704 704 702 700 700 699 693 688 684 676 666 657 650 645 642 640 632 618 607 588 579 577 572 566 562 559 559 558 544 525 522 518 519 519 519 511 503 499 499 516 520 524 535 553 567 571 572 572 573 573 574 574 575 575 576 577 580 582 584 586 590 592 590 587 588 587 586 586 583 584 584 591 597 601 605 609 610 611 614 615 611 611 617 623 625 626 629 635 642 650 660 671 675 680 684 689 691 691 692 702 713 723 735 752 769 782 796 803 810 813 811 804 805 813 824 841 861 878 892 904 917 927 935 939 940 941 938 927 916 903 883 862 847 835 820 803 788 773 759 744 731 720 714 719 718 702 688 694 708 716 722 730 738 742 735 716 702 700 704 709 716 720 717 708 701 694 690 703 724 739 754 767 782 788 787 779 766 754 737 726 713 701 703 712 721 728 735 
724 730 732 734 737 736 730 721 711 705 695 688 688 691 692 691 693 695 691 685 680 677 671 662 654 650 643 634 620 608 593 575 571 569 565 565 562 559 558 559 552 532 521 520 519 519 516 512 506 501 499 506 515 519 529 554 568 571 572 572 573 573 574 575 575 576 577 578 580 581 584 584 586 589 587 580 578 575 572 573 576 577 584 590 597 600 605 607 609 612 612 612 616 616 619 624 628 632 639 654 663 669 675 681 687 691 696 703 708 707 700 701 710 721 732 745 759 771 783 791 797 798 794 794 805 818 831 852 874 886 899 910 918 927 938 942 940 934 921 908 897 881 861 842 828 816 804 788 776 767 757 746 736 726 710 705 703 691 685 694 706 709 716 726 734 734 729 715 700 694 696 700 702 701 698 692 685 678 683 706 731 745 761 773 779 777 768 757 746 736 725 714 700 689 692 702 707 716 732 
706 712 713 715 719 722 721 714 703 695 683 675 677 679 680 682 689 693 690 683 677 672 664 657 648 636 622 613 602 585 571 567 565 563 563 562 561 559 558 559 553 533 520 522 519 517 515 511 508 502 499 499 510 513 526 552 561 571 572 572 572 573 574 575 576 577 578 580 577 579 580 580 582 585 583 577 574 574 578 581 583 585 594 599 602 607 615 617 619 621 623 624 625 623 625 631 639 648 661 671 679 683 690 693 699 703 708 717 723 723 713 705 710 717 728 739 750 761 775 784 785 784 782 794 814 829 841 857 873 888 900 909 913 918 923 924 916 904 889 878 871 858 840 823 809 798 787 777 768 761 754 746 737 725 708 696 687 674 677 690 705 709 712 721 726 725 722 717 703 691 687 683 681 678 678 675 669 667 678 707 738 758 767 769 768 759 748 740 731 719 711 702 688 678 682 689 696 712 732 
694 689 690 694 699 702 703 699 689 675 667 664 663 665 667 676 688 691 687 680 673 667 661 654 642 622 608 598 579 571 568 566 564 562 561 560 559 559 558 558 554 532 522 524 516 513 510 509 507 503 498 498 509 511 516 540 557 568 572 573 573 573 574 575 576 578 580 572 564 569 573 574 573 571 571 572 572 575 583 592 599 606 608 611 611 616 621 619 620 625 629 634 637 635 633 642 652 660 671 685 695 700 705 709 713 721 727 734 738 736 723 714 711 717 725 736 748 758 769 775 776 773 778 794 812 824 831 846 860 873 883 888 892 898 902 897 888 877 862 851 844 834 819 807 797 787 779 770 763 758 752 747 737 724 706 694 682 667 669 685 701 706 710 718 717 712 708 707 702 692 681 673 672 671 667 662 660 669 687 716 739 757 757 755 748 739 728 720 708 698 690 681 672 667 672 685 700 717 734 
707 692 674 674 677 681 683 682 675 668 660 653 649 646 647 659 675 681 678 673 666 658 647 638 625 609 599 584 576 574 568 566 564 562 559 558 558 558 556 548 537 526 523 522 516 514 512 512 511 508 498 498 508 510 511 521 534 555 569 575 573 573 573 574 575 577 576 569 563 566 566 567 571 574 578 584 588 590 593 600 604 613 618 618 616 617 618 619 623 629 633 638 643 646 648 654 660 668 677 691 709 718 724 730 734 741 747 752 755 747 733 722 719 722 729 737 746 757 766 769 767 763 773 790 807 813 816 825 841 852 858 865 874 882 882 873 862 852 840 828 819 810 797 791 789 781 773 766 759 753 747 741 732 721 708 697 687 673 666 680 695 706 713 714 710 704 701 701 699 688 677 670 666 659 651 648 656 671 690 715 733 746 747 740 726 717 707 700 691 682 674 667 659 661 672 686 705 717 728 
718 706 688 677 669 663 663 662 660 660 654 646 641 635 629 631 642 653 655 652 645 636 629 619 605 596 587 578 574 564 559 561 561 560 558 556 557 555 545 534 530 526 522 520 519 517 516 517 518 513 498 498 506 513 513 512 518 538 555 567 574 573 573 574 575 577 575 575 586 586 586 588 587 585 589 594 596 592 594 606 610 612 616 617 616 616 617 621 624 629 633 638 642 645 652 659 665 672 681 695 709 723 735 747 753 758 763 766 765 754 744 736 729 728 735 744 752 762 766 767 759 758 771 785 797 801 804 811 822 832 841 852 868 874 868 858 848 836 824 816 807 797 787 779 775 772 768 761 753 746 737 729 722 713 706 696 685 674 667 676 689 701 708 706 703 701 700 697 692 682 671 667 659 649 643 640 652 673 686 705 719 732 733 729 719 707 695 689 681 672 663 654 653 660 668 678 692 703 712 
718 712 703 696 685 671 650 644 645 649 648 644 638 633 623 615 612 615 618 615 611 608 606 603 593 579 568 566 562 557 555 555 553 548 549 547 544 538 535 531 530 527 523 523 522 519 520 521 523 517 498 499 502 509 511 509 510 517 536 556 572 578 574 574 576 575 576 585 590 587 584 585 587 589 593 593 591 590 600 604 608 605 603 607 609 610 610 612 615 622 627 632 637 641 648 655 662 670 679 691 705 719 736 749 755 759 765 771 771 765 760 754 744 739 743 752 760 764 764 759 749 752 764 775 783 789 793 800 810 822 836 851 866 869 857 847 838 826 817 810 802 793 786 777 766 759 755 750 743 738 732 723 712 703 700 692 678 666 663 673 687 697 702 703 702 699 695 690 686 675 665 663 661 646 639 642 655 674 685 695 707 718 719 715 705 694 685 680 675 667 656 645 653 665 673 680 687 695 703 
714 711 707 701 688 673 655 648 644 639 638 638 634 624 617 614 612 608 602 598 596 590 586 582 576 573 570 568 563 561 560 558 554 549 545 543 542 539 536 536 534 532 528 522 523 521 521 522 522 520 498 500 502 508 509 509 509 512 523 546 562 572 579 578 576 577 583 589 590 592 587 586 587 589 590 589 591 591 596 601 602 594 593 595 598 603 607 613 617 621 626 630 638 645 651 657 661 668 678 692 706 721 734 742 747 754 764 774 776 776 772 764 758 756 757 761 761 761 756 748 741 745 755 765 772 777 783 795 810 822 837 854 862 863 848 838 830 819 809 803 796 788 781 774 764 753 744 737 731 725 725 723 712 696 688 684 673 663 658 667 681 689 694 696 693 690 685 682 681 670 660 659 661 650 639 639 650 669 680 689 698 707 708 701 690 679 673 665 659 649 643 646 658 666 673 679 685 690 698 
718 712 707 697 685 675 665 660 660 651 639 634 629 624 621 619 616 614 608 601 598 595 590 585 580 576 573 570 570 569 566 564 560 556 554 553 550 544 545 547 548 546 542 528 523 524 522 522 524 521 498 499 501 504 508 509 509 509 515 530 548 556 569 572 574 579 586 588 589 590 586 587 587 588 588 588 589 589 591 591 590 589 591 593 600 607 617 622 629 634 638 641 643 647 654 662 667 674 684 695 707 716 725 732 739 750 762 772 775 775 768 764 761 759 760 762 758 751 744 737 734 739 746 753 760 769 781 796 808 821 836 849 857 859 846 832 825 816 808 800 795 787 775 765 755 742 731 725 718 711 711 712 709 698 684 675 668 661 655 657 669 679 685 685 682 678 673 673 674 667 659 657 655 648 639 637 650 663 675 680 690 699 700 695 683 672 660 651 644 635 636 642 652 659 667 674 681 688 696 
725 717 710 696 685 679 673 672 668 658 650 646 642 638 629 622 619 613 609 606 602 597 594 590 587 585 580 576 573 570 567 564 560 558 557 555 552 550 548 547 546 545 541 527 522 521 522 522 523 522 497 497 501 501 506 508 508 508 511 516 526 543 559 567 574 583 585 581 581 586 586 586 587 587 586 587 587 588 590 595 591 588 590 597 608 615 622 631 638 642 645 647 649 652 658 667 675 683 692 698 701 702 706 719 731 742 756 765 767 765 758 754 753 755 757 756 749 742 734 728 727 733 742 751 760 772 784 795 805 818 830 840 846 848 842 830 822 816 810 799 790 779 769 758 743 731 721 710 704 697 695 696 696 693 684 672 664 661 656 651 659 668 674 674 672 669 666 668 669 662 654 652 648 641 637 643 655 663 672 680 687 695 697 695 683 668 654 642 633 625 628 636 645 652 658 665 674 687 699 
729 721 713 702 691 687 683 680 678 669 664 661 657 653 644 632 622 614 610 605 601 598 595 591 588 585 582 578 575 572 568 565 562 559 556 554 551 547 545 545 545 544 534 527 524 521 523 521 518 513 506 497 500 500 502 506 508 507 509 512 520 540 561 574 580 581 581 580 580 583 583 585 586 583 583 584 587 589 592 592 589 590 594 601 612 620 624 631 640 642 644 646 651 654 659 665 674 684 690 689 683 682 691 706 722 738 751 758 758 754 747 742 743 746 747 745 738 731 725 719 722 730 741 754 768 777 785 793 803 813 819 824 831 836 834 824 816 811 805 797 786 772 762 751 739 724 712 705 698 691 685 681 681 678 674 668 661 660 651 642 647 654 659 659 658 658 657 660 663 658 649 648 645 635 632 641 653 662 671 680 689 695 696 692 681 668 652 635 624 617 617 624 634 644 653 662 675 687 695 
735 728 720 709 701 694 689 686 684 682 677 673 671 666 653 639 629 621 612 606 601 598 594 590 588 585 581 579 575 572 567 564 562 559 556 554 551 548 544 544 544 541 532 528 524 519 523 520 517 513 511 497 497 499 501 504 506 507 509 514 528 549 571 576 576 576 577 579 580 582 582 583 584 585 582 583 585 588 589 588 590 591 597 606 615 618 622 630 638 640 642 643 649 653 653 656 664 673 677 672 667 672 685 703 722 733 737 741 746 747 739 732 733 737 737 733 726 720 714 709 712 726 741 755 771 784 791 797 803 808 809 811 817 826 830 819 805 798 795 795 792 776 764 753 744 731 719 710 702 694 687 683 676 669 664 660 657 658 655 646 638 639 639 641 644 647 646 649 652 651 645 644 644 633 630 640 650 659 670 682 690 692 689 679 667 656 643 625 615 608 610 621 638 651 655 659 665 676 687 
747 737 727 716 709 706 702 696 693 692 690 688 683 673 659 647 640 634 623 612 604 601 596 591 587 584 581 577 575 571 568 565 562 558 556 553 550 548 544 541 540 536 532 528 525 520 524 524 521 518 516 505 497 498 500 502 505 505 507 515 531 551 571 579 574 574 577 580 583 582 585 586 585 586 582 582 582 582 585 588 591 592 593 599 608 615 621 628 635 640 639 639 643 649 649 647 651 658 660 659 664 677 687 702 713 716 717 725 736 741 738 731 725 727 727 723 716 708 704 703 713 732 743 753 768 782 795 802 803 799 795 798 808 820 826 817 802 791 788 792 797 786 770 758 750 740 729 719 713 708 699 690 685 680 670 657 650 653 658 659 653 643 635 630 630 632 636 638 640 640 638 641 642 636 628 631 639 650 663 674 683 684 678 667 652 639 627 617 609 605 612 625 637 644 648 651 659 667 677 
755 744 736 727 718 715 708 707 708 708 705 703 697 686 675 663 652 646 639 631 618 610 604 600 593 587 582 576 573 571 567 564 561 558 557 554 549 547 543 541 538 535 532 529 526 523 523 525 521 519 519 516 496 496 499 501 503 504 508 518 539 561 574 577 575 577 575 575 578 582 582 582 583 583 582 579 576 578 580 585 588 589 591 592 598 605 614 622 632 639 641 643 644 644 640 638 642 646 649 653 660 671 684 696 699 698 701 710 725 735 736 733 723 719 718 714 706 699 700 707 719 729 741 754 769 785 796 799 793 785 782 790 802 814 819 811 797 785 784 794 800 797 778 760 751 745 735 721 717 713 707 698 689 679 669 659 648 644 651 659 658 655 648 637 628 622 625 629 630 630 629 632 638 634 625 624 632 643 659 670 676 676 668 655 641 627 615 607 601 601 610 619 624 626 632 641 650 661 670 
762 750 740 731 728 726 722 720 720 722 717 710 702 693 684 676 665 656 651 646 637 630 624 617 600 579 578 572 570 569 566 562 560 557 556 553 550 547 543 540 537 534 531 530 528 524 523 524 519 518 517 517 510 496 497 499 502 505 508 525 553 569 575 572 573 573 575 574 576 582 581 584 585 582 576 577 581 582 583 584 585 584 587 593 598 608 617 622 629 634 637 639 640 638 633 633 636 638 640 646 651 660 676 685 685 684 690 702 714 727 732 731 722 712 710 700 692 695 700 711 719 727 738 754 772 787 793 793 782 770 774 785 800 810 813 804 790 779 782 795 802 801 784 763 753 746 737 728 722 718 708 696 685 677 669 662 651 643 649 656 656 654 651 646 637 621 616 617 621 627 626 626 633 633 625 618 625 640 654 662 665 665 661 651 637 620 608 600 594 597 605 613 619 624 630 635 647 660 670 
767 758 747 741 739 737 735 735 738 734 727 716 708 701 690 683 675 670 667 659 652 647 639 628 607 578 571 568 568 567 564 562 562 558 553 550 549 546 541 538 535 533 531 529 527 523 523 522 519 518 517 518 517 504 496 500 500 504 510 530 559 572 574 572 572 572 575 573 574 579 581 583 581 576 578 579 581 582 583 584 585 586 589 599 607 613 617 620 622 622 623 628 632 632 628 628 630 632 633 637 640 652 666 671 672 678 688 698 709 719 726 728 722 711 702 690 693 700 709 718 725 731 741 757 774 786 789 785 773 761 770 782 797 804 803 792 778 771 779 796 801 800 781 765 757 748 738 729 722 715 705 695 688 680 671 662 652 642 642 647 647 646 645 642 636 621 610 609 614 621 627 626 625 628 623 615 622 633 645 653 654 654 652 645 630 613 603 596 593 600 612 622 630 635 640 646 657 670 680 
767 761 753 748 747 747 747 748 751 745 730 723 719 714 703 692 687 683 678 671 666 661 655 638 610 581 568 566 566 564 562 560 559 556 552 550 549 544 540 536 534 532 529 527 526 522 523 521 519 521 521 522 520 516 496 496 497 501 506 529 558 572 575 573 572 571 574 576 577 579 579 578 576 579 583 583 582 582 583 583 585 586 589 596 605 611 611 608 603 608 614 617 623 623 618 621 625 627 630 631 635 646 653 658 667 679 689 698 707 717 722 723 717 708 699 692 694 702 713 725 736 743 750 760 772 780 782 776 764 756 767 782 792 796 792 781 767 764 775 791 798 796 777 768 760 750 738 729 720 711 705 701 695 683 671 655 646 637 630 632 634 632 630 632 632 627 619 609 606 611 618 622 620 624 620 610 615 626 636 641 642 643 642 634 618 603 593 589 596 610 621 631 638 645 650 657 667 679 690 
765 761 759 759 760 761 760 761 758 746 726 716 713 716 717 709 703 698 692 687 682 676 663 636 608 581 565 564 562 561 559 556 555 553 549 547 545 541 537 535 533 531 529 527 524 523 523 519 519 520 522 522 521 517 512 495 495 498 505 528 557 572 576 575 572 571 572 571 577 579 577 577 580 581 583 583 585 583 583 583 585 585 586 593 603 606 600 594 593 596 606 611 614 613 612 615 621 624 626 629 637 642 650 658 669 680 691 700 710 717 718 715 708 702 693 688 693 707 720 733 743 752 759 765 770 773 773 765 754 753 765 778 784 786 780 768 757 762 779 790 796 792 776 768 756 745 739 730 721 713 707 704 693 679 663 647 639 635 630 625 622 618 617 619 625 628 627 613 603 602 608 618 620 619 616 609 608 618 626 630 632 635 634 624 608 595 585 587 604 621 633 641 647 654 661 669 679 688 696 
768 767 767 768 769 768 766 762 750 743 728 709 700 711 724 724 719 716 711 705 696 681 664 637 608 578 562 559 558 558 557 555 552 550 547 545 543 540 537 534 532 529 528 526 522 523 521 518 518 518 519 521 521 517 511 504 495 495 506 528 557 573 571 572 573 575 570 564 573 576 577 578 579 580 580 580 583 582 582 584 584 584 585 591 596 593 588 589 591 598 603 605 606 608 608 612 618 621 623 629 637 644 653 664 676 686 695 704 715 718 712 704 699 693 685 684 693 706 718 730 739 748 754 759 762 764 763 756 748 753 763 772 776 775 766 756 754 763 777 785 793 792 778 771 764 747 738 730 721 713 706 696 681 665 655 652 650 647 644 641 637 632 627 622 616 620 623 620 611 603 599 605 615 619 618 611 603 607 612 617 621 624 622 612 598 587 582 591 608 628 638 645 650 656 662 670 680 687 691 
769 775 776 777 776 774 766 745 735 732 726 709 692 703 717 723 720 717 713 705 691 673 654 627 603 580 561 556 555 555 555 554 550 547 545 543 541 539 536 534 531 529 527 526 522 522 520 517 518 517 517 519 518 513 509 505 498 495 500 519 545 565 569 572 576 575 575 576 576 577 577 578 579 579 580 581 583 581 582 583 584 585 585 588 587 590 590 589 590 593 595 597 601 604 608 611 614 617 624 629 633 643 656 665 675 684 696 714 720 720 707 695 689 682 680 684 690 698 710 722 731 738 743 748 753 755 752 746 742 750 759 764 766 762 754 751 754 765 775 783 788 791 785 777 768 756 743 729 715 707 692 683 673 669 666 664 662 661 657 653 647 640 635 629 621 613 613 615 612 602 591 589 594 602 604 602 598 596 599 604 610 611 610 599 590 581 582 597 613 629 638 640 642 649 659 668 673 675 670 
751 765 780 783 780 770 750 729 722 717 719 705 683 687 701 707 703 700 697 687 664 645 631 614 598 577 559 553 551 551 552 552 549 544 542 540 539 537 536 534 531 529 527 525 522 522 518 516 518 518 517 517 513 509 508 503 498 495 495 507 526 542 553 562 570 572 575 575 574 575 576 577 578 579 580 581 582 584 584 585 585 585 587 588 588 592 592 592 594 596 598 604 605 606 611 616 619 620 625 632 637 644 653 663 674 683 697 714 720 719 708 695 679 674 679 685 691 699 710 723 730 733 738 745 749 750 744 736 740 748 754 757 757 753 747 747 755 765 770 774 779 784 785 782 771 758 744 731 717 706 693 689 677 672 670 667 667 667 663 653 647 647 644 635 625 619 611 609 608 605 595 590 584 584 588 592 592 593 587 590 597 600 600 592 583 577 582 601 619 627 629 628 637 650 660 663 662 654 646 
730 745 765 776 773 759 740 725 713 704 702 695 677 673 682 686 682 675 666 650 628 616 609 599 584 567 555 547 544 544 545 544 542 541 539 540 536 535 533 532 531 529 526 525 523 523 519 517 518 519 517 516 513 507 507 504 498 495 495 494 515 528 534 548 564 571 574 573 573 575 576 577 577 578 580 580 583 583 582 583 583 584 585 587 588 589 591 592 593 594 595 597 601 607 613 617 623 630 636 640 645 650 657 666 676 688 703 716 722 720 708 693 676 676 683 691 699 707 715 723 728 729 733 740 745 744 737 732 738 747 751 752 749 742 741 747 754 762 763 766 771 773 773 768 758 750 740 734 724 711 699 690 684 679 678 677 675 671 667 660 656 655 653 644 635 629 618 605 601 600 597 591 582 576 584 595 605 607 600 588 586 589 589 585 578 578 588 604 615 618 616 618 631 645 650 647 637 627 621 
715 728 749 761 757 749 741 732 716 692 683 678 668 657 660 662 655 642 631 614 599 589 585 575 558 549 545 540 538 536 535 534 533 534 535 536 534 533 532 531 531 529 527 524 523 523 521 521 519 519 517 516 511 506 505 503 497 494 496 494 517 530 543 557 568 571 572 572 573 574 575 575 576 577 578 579 581 580 580 581 582 583 584 586 588 590 590 589 588 596 604 614 619 623 623 622 630 640 647 652 657 660 664 671 682 693 706 718 724 722 708 694 676 676 686 696 700 704 710 717 719 717 720 726 731 731 727 726 730 736 738 739 738 740 745 750 754 756 754 758 761 759 753 745 738 735 733 727 721 715 707 699 695 692 688 684 681 679 676 671 667 666 663 656 648 642 631 614 599 593 590 590 583 576 582 599 608 609 606 595 582 577 578 577 574 575 587 602 608 607 603 610 625 631 631 621 611 603 598 
710 721 737 743 738 730 726 721 712 692 669 661 654 643 640 636 624 610 596 581 567 560 557 552 546 543 539 537 537 536 534 531 529 528 529 530 531 531 532 532 533 531 526 524 523 523 521 520 515 513 509 508 506 505 505 501 497 496 494 494 523 546 562 569 571 570 571 572 572 573 574 575 576 577 580 580 580 579 579 581 582 583 584 585 587 589 588 589 602 614 622 628 634 636 634 634 640 648 655 661 667 670 673 678 689 699 709 718 723 720 708 690 675 674 681 686 687 690 695 700 705 713 720 724 726 726 726 730 733 733 732 737 743 750 755 755 756 756 755 753 748 740 733 725 720 717 712 708 697 695 694 696 700 699 697 694 691 686 683 680 677 672 668 666 664 657 644 625 609 595 587 584 580 577 586 600 605 606 604 595 584 573 564 562 562 567 577 588 592 592 595 606 615 618 610 599 587 579 578 
704 710 722 723 718 711 706 703 697 687 667 651 639 628 620 608 594 582 571 561 566 566 557 553 557 559 560 559 560 561 553 538 531 528 526 526 528 529 530 528 526 524 523 524 523 524 522 519 509 506 506 504 505 504 503 499 495 496 494 494 540 565 568 570 570 570 571 572 572 573 574 575 575 576 579 579 579 578 579 580 581 582 583 584 584 584 588 599 613 624 630 635 637 638 640 643 646 650 660 672 682 687 689 691 695 703 712 716 718 714 702 685 674 672 676 682 691 699 703 709 717 728 735 737 739 740 743 746 745 742 741 748 752 754 756 756 756 753 748 738 729 720 714 709 707 705 698 690 679 678 678 687 696 698 698 695 692 688 686 683 681 678 675 672 672 665 650 637 623 611 595 584 577 576 586 596 600 600 600 597 589 573 555 544 541 549 566 575 581 583 591 598 602 597 586 576 564 557 557 
694 691 698 698 695 693 687 683 680 674 661 643 626 612 596 584 579 579 583 586 586 582 574 574 576 578 581 580 578 577 571 547 535 530 527 525 524 525 524 523 524 524 524 524 523 523 520 510 507 506 506 505 506 504 500 496 495 496 494 513 557 568 570 570 570 570 571 571 572 573 574 574 575 575 577 579 581 580 579 580 581 582 583 583 581 585 598 609 615 621 627 633 638 642 646 648 647 649 663 679 695 703 704 708 708 708 712 713 711 706 694 681 673 672 676 686 699 709 716 721 729 739 749 753 753 751 752 753 752 750 751 752 752 752 751 753 749 738 727 714 704 701 696 696 696 691 682 676 673 671 671 675 682 683 685 685 683 677 673 675 676 676 675 672 667 659 652 642 631 619 607 596 587 580 583 591 593 591 594 595 592 581 563 550 543 543 557 566 573 579 586 590 586 575 564 551 536 530 530 
686 675 676 677 675 672 670 667 666 661 647 626 609 594 588 589 595 601 605 604 597 592 588 587 587 589 594 598 597 591 576 548 535 534 532 526 523 521 525 525 526 525 524 523 521 517 513 505 506 507 507 506 505 502 497 495 496 493 494 535 560 567 568 569 569 570 571 571 571 572 573 573 574 575 578 579 580 579 580 580 580 581 580 580 582 589 600 606 609 614 621 629 635 640 646 651 655 658 667 685 701 712 717 719 718 716 714 708 702 696 686 677 669 671 678 687 698 710 722 733 743 754 761 761 758 755 752 750 748 746 742 738 737 736 735 732 723 712 702 694 691 689 687 689 689 684 674 671 670 668 665 666 665 661 664 669 668 663 658 659 661 662 661 659 653 648 645 640 635 627 619 607 597 581 576 580 583 582 585 588 588 582 574 557 543 546 553 561 568 574 579 580 570 558 541 529 525 524 523 
680 664 656 657 656 654 654 653 655 653 636 612 596 588 596 606 610 614 615 613 611 607 604 601 603 606 612 616 609 593 573 548 535 535 533 527 524 521 522 522 521 521 523 524 521 517 508 504 505 504 505 504 501 496 493 493 493 493 526 557 566 568 567 568 569 569 570 571 572 572 573 573 574 575 577 579 582 579 579 579 580 582 582 581 582 586 593 600 603 611 620 627 632 637 641 646 652 663 675 690 701 711 718 719 720 716 714 706 695 686 679 670 666 670 677 688 697 707 721 738 750 758 760 757 749 744 741 739 736 732 727 723 721 722 722 718 706 698 691 686 682 678 681 681 680 673 667 664 663 661 657 654 650 645 647 654 656 653 648 647 648 648 647 644 639 636 635 634 632 629 624 615 607 593 574 570 572 575 578 582 584 582 574 561 543 539 546 556 565 571 574 572 555 539 525 523 523 523 522 
662 646 634 631 633 634 638 642 646 644 621 605 599 597 606 611 614 620 623 624 623 621 620 617 617 620 626 630 620 599 569 540 531 531 529 523 525 526 523 518 517 519 523 520 517 513 505 504 503 502 500 496 494 493 493 493 493 519 552 565 567 567 568 568 569 569 570 572 574 572 572 573 574 575 577 579 579 581 581 582 590 597 598 590 585 583 587 599 607 613 623 629 633 636 636 639 645 656 665 679 689 701 709 710 712 711 708 700 690 680 674 665 666 672 678 688 694 704 718 732 743 750 750 741 733 729 728 726 726 726 722 718 716 716 713 707 695 688 683 679 676 674 676 675 670 664 661 657 654 654 651 647 643 640 639 642 644 643 640 637 636 636 634 630 622 617 619 626 626 626 622 617 613 600 591 578 567 564 569 577 580 580 576 566 552 540 535 547 558 564 566 563 550 529 523 522 522 521 521 
650 634 624 621 617 615 620 624 625 622 603 596 603 611 616 619 621 624 629 634 635 634 630 626 626 631 637 639 630 604 569 540 529 529 528 526 525 524 525 524 520 518 514 511 509 507 503 503 500 495 492 492 492 493 495 502 523 547 565 566 566 567 568 568 569 569 571 572 573 573 573 573 574 575 579 578 581 581 582 587 598 607 613 609 605 596 593 601 610 613 622 629 632 633 635 640 642 646 651 662 675 689 701 702 703 701 699 693 685 677 669 666 670 675 680 687 693 701 715 728 737 740 735 728 721 720 719 716 714 711 709 708 707 705 703 698 685 677 673 671 671 671 671 669 663 657 653 650 649 648 645 644 642 641 638 635 635 634 631 626 625 624 622 618 611 604 605 611 613 612 610 610 606 600 593 585 577 569 564 568 573 574 571 564 556 546 531 535 546 555 558 556 545 527 522 522 521 521 519 
636 632 630 627 614 598 596 595 598 596 596 603 611 617 628 633 633 634 637 640 643 643 640 637 638 644 649 644 625 597 566 537 526 529 532 534 535 530 523 523 522 519 518 504 499 498 497 492 492 492 492 494 495 499 516 534 550 563 565 566 566 567 567 568 568 569 570 572 574 573 573 573 574 574 576 578 579 580 585 592 601 615 620 619 614 607 607 607 606 613 622 626 627 630 632 635 637 640 643 656 670 686 696 696 694 689 687 684 679 671 663 668 670 675 682 689 696 703 714 726 733 731 722 714 711 705 699 695 692 690 691 692 691 691 689 683 674 668 665 662 663 664 664 662 655 648 647 648 647 646 646 642 641 641 638 630 626 625 622 617 614 612 609 604 599 593 592 595 597 596 595 596 597 593 590 584 582 579 569 560 560 560 557 555 546 541 534 529 530 539 550 552 549 531 521 522 521 519 516 
625 636 643 643 628 613 605 604 605 606 606 613 621 627 636 644 645 644 647 652 653 652 649 650 653 657 654 637 613 584 557 532 526 530 535 532 533 534 529 522 521 521 518 500 494 492 491 491 492 495 497 500 507 522 545 561 563 564 564 565 566 566 567 568 568 569 570 572 574 573 574 575 576 577 577 579 579 582 590 604 612 619 621 621 618 613 609 608 606 608 613 614 617 619 623 626 632 637 643 655 671 684 694 696 691 682 677 675 672 662 655 667 675 679 687 695 701 709 718 727 729 724 716 709 704 695 685 678 675 674 672 674 677 675 669 663 658 656 654 650 648 651 652 650 645 640 640 640 633 628 633 638 639 637 632 624 616 611 608 604 601 598 594 590 587 580 580 581 581 580 579 580 582 583 584 583 580 576 572 564 556 544 539 540 538 535 531 529 527 530 542 548 547 533 522 520 518 516 514 
648 657 664 666 653 631 625 626 629 626 621 626 640 649 652 654 656 655 656 660 662 661 661 665 670 664 649 628 596 569 541 530 529 533 537 536 537 534 523 522 521 522 514 498 492 492 493 496 500 503 509 516 528 545 559 562 563 564 564 565 565 566 567 567 568 569 570 573 573 573 574 576 577 578 577 580 580 584 597 606 608 610 613 613 610 608 606 608 604 603 605 604 606 615 625 631 637 644 650 660 672 681 688 689 687 680 672 667 657 647 657 673 682 690 695 700 706 715 722 727 723 716 709 706 701 693 686 680 671 663 659 657 656 652 644 638 637 637 637 636 638 639 639 635 631 628 631 628 617 609 612 616 621 621 618 614 608 598 591 588 585 581 576 572 570 568 569 569 566 562 560 563 565 571 575 576 575 573 570 568 565 560 556 553 543 533 530 528 527 525 526 528 529 521 518 515 514 514 515 
672 678 683 687 678 665 656 648 645 639 639 646 655 659 663 669 672 668 664 665 669 671 676 679 676 659 641 616 583 556 534 532 531 532 534 535 534 529 523 522 521 519 508 493 492 493 497 502 504 506 511 520 537 557 561 561 562 564 564 565 565 566 566 567 568 568 570 572 572 573 575 576 576 578 579 580 579 582 591 598 600 602 604 601 599 595 593 592 591 592 597 600 604 611 619 625 629 636 643 653 664 674 680 681 679 674 665 648 645 659 673 685 696 702 706 710 716 722 724 721 715 709 703 699 695 688 682 678 675 666 653 643 639 634 629 623 619 617 619 624 627 625 622 620 618 615 614 612 606 599 599 602 605 605 601 599 596 588 577 571 565 559 555 552 554 556 557 554 544 537 536 538 544 553 564 567 567 564 560 559 559 561 560 549 539 533 529 528 526 524 522 520 519 515 514 514 515 515 515 
688 694 701 705 704 698 692 679 665 656 653 661 666 667 671 677 680 682 678 677 679 684 690 689 671 650 629 599 577 547 534 532 531 531 533 534 532 522 522 523 520 515 500 491 493 496 500 502 504 508 515 526 546 559 561 561 562 563 564 564 565 565 566 567 568 569 570 571 571 572 574 576 574 575 578 580 579 581 584 587 587 588 588 588 583 581 579 579 586 594 599 599 603 607 615 620 621 625 634 645 657 667 672 673 671 666 652 642 651 673 686 697 703 705 709 715 718 721 721 716 709 703 692 686 682 677 673 670 667 666 657 642 631 627 626 621 614 608 608 612 616 616 612 608 607 605 602 602 599 590 586 588 589 588 586 583 579 573 562 555 551 544 535 533 535 538 537 531 526 524 523 523 524 533 546 549 549 540 535 537 544 544 539 533 533 532 528 527 525 524 522 518 516 513 513 514 514 514 514 
696 703 710 715 719 720 716 705 686 676 668 670 677 680 684 688 692 696 695 692 692 697 696 685 661 634 610 590 572 551 535 530 530 529 527 526 523 522 522 523 523 512 493 492 494 499 502 502 505 509 519 533 551 560 561 561 561 562 563 564 565 565 566 567 568 569 570 572 573 573 574 575 574 576 577 578 579 578 579 580 578 579 583 582 575 575 577 580 586 591 594 596 599 604 613 619 620 624 631 641 653 661 664 666 663 656 641 644 668 686 697 700 703 708 713 717 719 719 718 713 706 692 678 675 673 667 661 661 661 658 652 641 633 629 625 615 609 607 603 603 605 606 603 600 600 599 597 593 591 583 578 575 573 572 572 568 558 549 543 541 539 530 525 524 525 524 522 521 521 521 520 519 519 520 524 528 525 521 522 524 529 529 529 528 527 526 525 525 524 522 513 513 513 513 513 514 514 514 514 
704 712 721 729 732 732 728 721 712 701 691 686 689 694 700 707 712 716 716 712 714 708 693 673 652 632 614 601 585 566 543 528 524 523 521 521 522 520 519 521 522 507 487 491 494 499 501 503 507 511 521 535 549 557 559 560 561 562 563 564 565 565 566 567 568 570 571 572 572 573 573 572 574 574 574 577 578 578 575 575 576 576 580 580 574 573 577 583 587 589 594 594 596 603 613 619 622 630 636 641 650 657 659 660 649 639 642 659 679 697 702 703 706 709 713 715 715 713 712 709 703 688 671 669 666 657 651 651 653 651 643 638 632 629 628 617 600 594 595 598 598 596 594 595 597 595 593 587 582 577 567 555 551 549 546 542 535 532 530 531 529 526 522 521 521 520 520 519 519 518 518 517 518 518 519 519 519 520 521 523 525 525 525 524 524 523 523 523 521 513 513 513 513 514 514 515 514 514 514 
717 725 735 741 744 746 742 735 727 716 706 702 703 707 714 724 730 737 741 740 731 706 686 664 651 640 625 609 593 569 548 534 526 521 521 523 526 526 524 525 522 505 488 491 495 499 502 504 508 512 518 525 535 549 558 561 562 563 563 563 564 565 566 567 568 570 572 572 572 572 571 571 571 572 573 576 575 577 575 575 575 576 579 575 571 572 581 586 585 589 588 590 594 600 613 623 630 635 641 647 654 657 655 650 641 650 659 671 687 699 702 704 706 708 710 711 708 705 705 700 695 687 672 666 655 644 640 640 645 647 639 634 628 624 624 614 598 588 589 592 593 592 591 589 589 588 584 579 572 563 551 547 542 538 534 530 527 525 525 524 523 522 520 520 520 519 518 517 517 517 517 518 518 518 519 520 522 522 523 523 523 522 522 521 521 521 521 521 516 513 513 513 514 514 515 514 514 514 515 
731 741 750 753 756 757 754 748 742 734 725 718 716 723 729 737 748 756 759 752 730 703 682 667 653 642 627 612 594 574 556 540 527 520 522 525 524 526 525 526 520 502 491 491 496 501 503 505 509 513 521 534 548 556 559 559 560 563 564 564 564 565 567 568 569 570 571 570 571 570 571 571 571 572 574 575 576 577 575 575 574 576 575 569 569 572 578 579 580 581 585 591 595 604 614 621 631 641 650 655 657 656 651 650 657 665 673 682 694 700 701 702 703 704 705 704 700 698 696 694 690 682 669 662 651 636 629 628 637 643 640 632 626 624 621 612 603 591 582 584 585 585 584 583 582 577 570 557 552 549 547 547 543 536 532 527 524 522 521 521 520 520 519 519 518 517 517 517 517 517 517 518 519 520 521 521 522 520 519 520 520 519 518 518 519 519 519 516 512 512 513 513 514 514 514 514 514 514 515 
748 758 765 767 769 770 767 760 754 751 744 738 736 740 747 756 764 771 775 760 730 708 688 672 655 641 627 612 595 579 566 554 533 522 520 523 522 524 525 523 514 495 490 490 498 503 504 507 511 516 527 542 557 558 559 559 560 561 562 564 564 565 567 567 568 568 569 570 573 574 572 571 572 573 575 575 575 576 575 573 574 576 572 571 577 579 579 581 585 589 591 594 598 613 622 628 638 647 654 657 655 652 656 668 677 680 682 686 691 696 699 698 696 695 695 694 694 696 695 692 684 679 672 661 649 638 624 616 622 633 635 630 628 624 616 608 599 591 582 572 569 568 568 566 562 556 550 546 545 541 540 541 538 533 530 526 523 521 520 519 519 519 518 517 517 516 517 517 517 517 517 518 519 520 519 519 518 516 516 517 518 517 517 517 518 516 512 512 512 512 513 513 513 514 514 514 514 515 515 
762 772 778 782 784 783 779 773 766 763 754 750 752 757 762 768 775 782 787 771 740 715 692 673 659 647 632 618 601 593 581 570 556 533 522 520 521 523 521 519 508 493 487 490 499 504 505 508 513 520 532 551 558 558 558 558 559 561 562 564 564 566 567 566 566 568 570 570 573 572 571 571 573 574 576 575 574 575 576 576 576 575 576 577 585 590 595 599 600 600 601 602 606 620 627 635 644 653 656 654 651 660 676 688 688 686 688 691 694 696 695 694 691 687 687 685 683 683 680 679 674 669 665 655 644 634 621 608 606 618 622 619 619 614 607 600 594 587 580 566 559 556 551 547 543 543 544 542 538 536 535 535 532 529 527 524 522 520 519 519 518 518 517 516 516 516 516 516 516 517 517 518 518 519 518 516 515 515 515 515 516 516 516 516 515 512 512 512 512 513 513 514 514 514 514 514 514 514 514 
773 785 794 799 798 794 788 784 781 773 767 763 764 768 774 780 787 794 798 782 749 722 698 680 668 655 640 627 616 607 596 585 574 551 529 520 519 522 522 515 500 492 494 493 500 504 505 509 516 529 542 556 558 558 557 557 556 556 559 562 564 565 565 567 567 567 569 571 572 575 578 576 576 575 574 574 575 574 574 575 574 574 571 575 581 588 595 601 603 606 608 613 619 625 633 643 650 657 658 654 654 669 684 688 690 691 692 694 694 693 691 689 684 677 674 673 672 667 664 664 663 658 654 648 637 627 616 602 595 600 606 608 608 606 599 594 591 585 572 558 550 546 544 541 537 536 535 535 532 530 532 532 529 526 524 521 520 519 519 518 518 518 516 516 516 516 516 516 516 516 517 517 518 519 516 514 514 515 515 515 515 515 514 514 512 512 512 512 512 513 513 513 513 514 514 514 514 514 514 
788 800 812 816 810 804 799 794 786 778 777 777 779 783 788 794 801 808 809 787 752 725 706 687 677 664 650 637 627 619 610 599 586 561 532 518 516 518 519 511 496 491 491 494 502 504 505 509 520 532 540 548 554 553 555 555 549 557 561 562 563 564 564 565 566 567 569 570 569 570 571 571 570 570 570 572 576 576 574 575 574 573 574 576 580 587 591 598 601 606 611 614 618 625 632 644 654 661 662 656 653 665 678 684 688 691 693 694 694 689 685 680 673 666 661 660 658 654 650 647 647 646 642 638 631 621 609 595 590 590 597 600 600 598 594 591 586 574 562 555 548 542 541 537 533 531 532 529 526 525 525 524 522 524 522 520 519 518 518 517 517 516 515 515 516 516 516 516 516 516 517 517 518 517 514 514 514 514 514 513 513 513 512 512 512 512 512 512 513 513 513 513 513 513 514 514 514 514 514 
800 809 828 829 822 815 810 805 794 786 787 790 793 797 800 803 811 818 815 789 751 726 709 692 678 666 653 642 633 627 619 604 590 566 535 519 516 517 519 506 493 490 491 497 503 504 506 510 516 521 528 535 541 541 542 547 552 561 561 563 565 565 564 565 566 567 568 570 569 569 570 572 570 571 570 571 573 574 575 575 573 574 574 577 581 586 588 595 601 607 611 616 621 627 635 647 657 662 663 657 649 653 669 682 688 693 694 690 683 677 672 665 659 655 647 646 646 643 640 634 629 627 628 626 623 615 604 594 587 582 583 588 591 591 588 584 577 562 556 551 545 539 536 536 535 531 530 526 523 522 520 519 519 521 521 519 517 516 515 516 516 515 515 515 515 516 516 516 516 517 518 518 517 515 514 515 514 513 512 512 512 512 512 512 512 511 511 512 513 513 513 513 513 513 513 513 514 514 514 
814 812 822 835 836 828 821 812 803 797 800 803 806 810 813 814 820 826 818 789 754 725 707 693 682 671 657 646 637 630 622 606 594 571 537 518 518 517 515 502 491 487 492 500 503 503 507 510 511 514 520 524 529 529 532 543 559 563 561 562 563 563 564 565 566 567 569 569 570 570 570 571 570 571 571 571 573 576 577 574 574 573 577 580 583 584 586 592 598 605 612 616 621 629 638 651 658 659 658 651 645 650 667 678 683 682 675 669 662 657 654 649 644 639 633 630 630 630 628 624 615 612 613 613 610 606 601 594 585 576 572 574 579 580 577 574 562 554 549 545 542 536 533 532 533 532 526 523 521 519 518 517 516 517 520 518 515 515 515 515 516 515 515 515 515 515 516 517 517 518 518 519 517 514 513 513 513 512 512 512 512 512 512 512 512 511 511 513 512 512 512 513 513 513 513 514 514 514 514 
823 819 827 839 845 840 828 818 810 811 814 818 822 824 825 827 829 832 821 789 756 728 707 695 685 677 670 657 644 635 625 609 597 579 545 523 518 515 511 495 488 489 496 502 504 506 510 513 513 515 518 523 526 528 538 550 560 560 562 563 563 563 564 566 567 569 570 571 570 572 572 571 571 571 572 572 574 575 574 573 573 571 574 578 583 588 591 592 597 606 612 616 623 629 643 654 657 654 648 641 638 650 667 673 669 661 656 653 649 645 641 636 629 625 619 616 613 617 618 616 606 597 594 594 597 597 592 586 580 574 567 564 566 566 563 554 548 546 544 541 536 531 530 529 528 526 523 522 519 517 516 515 514 514 516 517 515 514 515 515 516 516 516 515 516 516 517 517 517 518 518 517 516 513 512 512 511 511 512 512 511 512 512 511 511 511 512 513 512 512 512 513 513 513 513 514 514 514 514 
832 829 838 848 851 844 833 824 824 828 831 833 833 833 835 840 842 839 821 791 758 730 713 703 693 686 679 668 652 639 626 613 597 581 559 534 519 518 507 491 487 490 497 502 504 507 510 513 515 521 530 532 531 531 535 544 554 560 563 563 563 564 565 567 571 571 572 573 571 572 573 574 573 572 573 573 573 575 574 573 571 566 572 576 581 587 590 594 598 606 612 618 624 635 648 655 656 649 637 637 644 657 665 665 655 649 646 642 636 632 626 620 614 611 607 605 600 605 611 610 605 596 584 579 583 586 584 582 577 572 566 559 553 549 546 544 543 543 544 538 531 528 526 526 523 522 522 520 517 515 514 514 514 514 514 516 515 514 514 515 517 517 518 516 518 519 517 517 517 517 517 517 515 512 512 512 511 511 511 511 511 512 512 511 511 511 511 512 512 512 512 512 513 513 513 513 513 513 514 
842 842 850 859 859 850 839 835 837 842 846 846 843 843 848 851 857 850 827 798 765 734 718 709 703 692 681 668 653 639 624 607 590 574 559 543 528 516 500 489 487 491 499 503 506 510 513 514 516 521 528 530 529 531 538 545 553 558 563 564 567 567 567 568 569 570 570 570 572 572 574 572 573 572 572 572 574 573 572 573 569 566 571 573 576 581 584 588 597 606 614 619 626 643 653 658 659 652 638 642 655 663 664 658 648 643 638 630 624 618 611 604 599 596 597 595 592 594 600 601 600 594 580 565 564 570 573 572 569 564 560 554 545 539 541 540 540 541 540 533 528 526 523 522 520 519 520 519 516 514 513 513 513 513 514 516 516 514 514 515 516 517 517 516 517 517 517 516 519 518 517 517 514 512 512 512 511 511 511 511 512 512 512 511 511 511 511 512 512 512 512 512 513 513 513 513 513 514 514 
850 848 859 869 869 862 852 847 852 857 860 858 854 854 858 861 864 862 846 815 776 746 730 719 709 694 677 663 649 634 618 602 582 567 551 539 534 519 499 486 487 493 501 504 506 512 516 515 516 519 524 526 527 526 530 538 549 557 561 563 565 565 566 566 566 567 569 569 569 570 571 569 569 571 571 572 572 573 572 572 567 568 573 576 578 579 581 586 592 601 616 621 633 648 656 660 662 658 644 640 652 657 657 651 643 638 631 622 615 607 599 589 578 580 583 584 583 581 584 589 591 588 578 565 554 556 559 559 559 557 553 548 541 535 536 535 535 533 530 529 527 522 520 519 518 518 518 518 517 514 513 513 513 513 513 514 516 516 515 515 516 517 519 518 518 517 516 516 516 514 515 513 512 511 511 511 510 511 511 511 511 511 511 511 511 511 511 512 512 512 512 513 513 513 513 513 513 513 513 
